(1001)
(T1  D=6.33 CR=0 - ZMIN=-34.29 - flat end mill)
G90 G94
G17
G21
(When using Fusion 360 for Personal Use, the feedrate of )
(rapid moves is reduced to match the feedrate of cutting )
(moves, which can increase machining time. Unrestricted )
(rapid moves are available with a Fusion 360 Subscription. )

G90

(Control Inset)
G54
G0 Z10
X-99.997 Y-354.392
G1 Z5 F750
Z-0.367 F500
G19 G2 Y-355.025 Z-1 J-0.633 K0
G1 Y-357.494
Y-358.366 F750
G17 G3 X-85.254 Y-358.366 I7.372 J0
G1 Y-357.49
Y-357.443 F500
G19 G3 Y-356.81 Z-0.367 J0 K0.633
G1 Z5 F750
Y-235.356
Z-0.367 F500
G3 Y-234.723 Z-1 J0.633 K0
G1 Y-232.238
Y-231.366 F750
G17 G3 X-92.626 Y-223.995 I-7.372 J0
X-99.997 Y-231.366 I0 J-7.372
G1 Y-232.242
G2 X-102.979 Y-236.714 I-4.845 J0
G3 X-105.961 Y-241.187 I1.864 J-4.473
G1 Y-358.366
G3 X-79.291 Y-358.366 I13.335 J0
G1 Y-231.366
G3 X-105.961 Y-231.366 I-13.335 J0
G1 Y-241.187
G3 X-105.531 Y-241.482 I0.316 J0
G1 X-85.458 Y-233.796
G3 X-85.254 Y-233.5 I-0.113 J0.296
G19 G2 Y-232.881 Z-1.5 J0 K-0.633 F500
G3 Y-232.262 Z-2 J0.619 K0.133
G1 Y-232.238
Y-231.366 F750
G17 G3 X-92.626 Y-223.995 I-7.372 J0
X-99.997 Y-231.366 I0 J-7.372
G1 Y-232.242
Y-232.289 F500
G19 G2 Y-232.922 Z-1.367 J0 K0.633
G1 Z5 F750
Y-354.392
Z-1.367 F500
G2 Y-355.025 Z-2 J-0.633 K0
G1 Y-357.494
Y-358.366 F750
G17 G3 X-85.254 Y-358.366 I7.372 J0
G1 Y-357.49
G2 X-82.272 Y-353.018 I4.845 J0
G3 X-79.291 Y-348.545 I-1.864 J4.473
G1 Y-231.366
G3 X-105.961 Y-231.366 I-13.335 J0
G1 Y-358.366
G3 X-79.291 Y-358.366 I13.335 J0
G1 Y-348.545
G3 X-79.36 Y-348.258 I-0.633 J0 F500
G1 X-81.722 Y-343.622
X-81.767 Y-343.533 Z-1.992
X-81.811 Y-343.447 Z-1.969
X-81.852 Y-343.366 Z-1.931
X-81.891 Y-343.29 Z-1.879
X-81.925 Y-343.223 Z-1.815
X-81.954 Y-343.165 Z-1.739
X-81.978 Y-343.119 Z-1.654
X-81.995 Y-343.085 Z-1.563
X-82.006 Y-343.065 Z-1.466
X-82.009 Y-343.058 Z-1.367
Z10 F750
(When using Fusion 360 for Personal Use, the feedrate of )
(rapid moves is reduced to match the feedrate of cutting )
(moves, which can increase machining time. Unrestricted )
(rapid moves are available with a Fusion 360 Subscription. )

(Control Cavity)
G0 X-93.332 Y-351.86
G1 Z10 F750
Z5
Z3.133 F500
X-93.308 Y-351.878 Z2.941 F166.7
X-93.239 Y-351.928 Z2.768
X-93.127 Y-352.003 Z2.628
X-92.98 Y-352.09 Z2.536
X-92.812 Y-352.178 Z2.5
G3 X-90.215 Y-346.754 Z2.17 I1.298 J2.712
X-92.812 Y-352.178 Z1.84 I-1.298 J-2.712
X-90.215 Y-346.754 Z1.51 I1.298 J2.712
X-92.812 Y-352.178 Z1.181 I-1.298 J-2.712
X-90.215 Y-346.754 Z0.851 I1.298 J2.712
X-92.812 Y-352.178 Z0.521 I-1.298 J-2.712
X-90.215 Y-346.754 Z0.191 I1.298 J2.712
X-92.812 Y-352.178 Z-0.139 I-1.298 J-2.712
X-90.215 Y-346.754 Z-0.469 I1.298 J2.712
X-92.812 Y-352.178 Z-0.799 I-1.298 J-2.712
X-90.215 Y-346.754 Z-1.128 I1.298 J2.712
X-92.812 Y-352.178 Z-1.458 I-1.298 J-2.712
X-90.215 Y-346.754 Z-1.788 I1.298 J2.712
X-94.52 Y-349.466 Z-2 I-1.298 J-2.712
X-90.732 Y-349.466 I1.894 J0 F750
G1 Y-240.266
G3 X-94.52 Y-240.266 I-1.894 J0
G1 Y-349.466
G2 X-95.76 Y-351.79 I-2.799 J0
G3 X-95.715 Y-354.424 I0.874 J-1.302
X-86.784 Y-349.466 I3.089 J4.958
G1 Y-240.266
G3 X-92.626 Y-234.424 I-5.842 J0
X-98.467 Y-240.266 I0 J-5.842
G1 Y-349.466
G3 X-95.715 Y-354.424 I5.842 J0
G2 X-93.628 Y-358.251 I-2.342 J-3.759
G3 X-90.274 Y-361.034 I2.797 J-0.043
X-80.821 Y-349.466 I-2.352 J11.569
G1 Y-240.266
G3 X-104.431 Y-240.266 I-11.805 J0
G1 Y-349.466
G3 X-90.274 Y-361.034 I11.805 J0
X-90.023 Y-360.687 I-0.063 J0.31
G1 X-90.87 Y-353.505
X-90.872 Y-353.455
X-90.876 Y-353.389
X-90.893 Y-353.326
X-90.923 Y-353.267
X-93.886 Y-348.762
G3 X-94.461 Y-348.873 I-0.264 J-0.174
X-88.566 Y-350.059 Z-2.33 I2.948 J-0.593 F166.7
X-94.461 Y-348.873 Z-2.66 I-2.948 J0.593
X-88.566 Y-350.059 Z-2.99 I2.948 J-0.593
X-94.461 Y-348.873 Z-3.319 I-2.948 J0.593
X-88.566 Y-350.059 Z-3.649 I2.948 J-0.593
X-91.216 Y-346.474 Z-3.825 I-2.948 J0.593
X-94.52 Y-349.466 Z-4 I-0.298 J-2.992
X-90.732 Y-349.466 I1.894 J0 F750
G1 Y-240.266
G3 X-94.52 Y-240.266 I-1.894 J0
G1 Y-349.466
G2 X-95.76 Y-351.79 I-2.799 J0
G3 X-95.715 Y-354.424 I0.874 J-1.302
X-86.784 Y-349.466 I3.089 J4.958
G1 Y-240.266
G3 X-92.626 Y-234.424 I-5.842 J0
X-98.467 Y-240.266 I0 J-5.842
G1 Y-349.466
G3 X-95.715 Y-354.424 I5.842 J0
G2 X-93.628 Y-358.251 I-2.342 J-3.759
G3 X-90.274 Y-361.034 I2.797 J-0.043
X-80.821 Y-349.466 I-2.352 J11.569
G1 Y-240.266
G3 X-104.431 Y-240.266 I-11.805 J0
G1 Y-349.466
G3 X-90.274 Y-361.034 I11.805 J0
X-90.023 Y-360.687 I-0.063 J0.31
G1 X-90.87 Y-353.505
X-90.872 Y-353.455
X-90.876 Y-353.389
X-90.893 Y-353.326
X-90.923 Y-353.267
X-93.886 Y-348.762
G3 X-94.461 Y-348.873 I-0.264 J-0.174
X-88.566 Y-350.059 Z-4.33 I2.948 J-0.593 F166.7
X-94.461 Y-348.873 Z-4.66 I-2.948 J0.593
X-88.566 Y-350.059 Z-4.99 I2.948 J-0.593
X-94.461 Y-348.873 Z-5.319 I-2.948 J0.593
X-88.566 Y-350.059 Z-5.649 I2.948 J-0.593
X-91.216 Y-346.474 Z-5.825 I-2.948 J0.593
X-94.52 Y-349.466 Z-6 I-0.298 J-2.992
X-90.732 Y-349.466 I1.894 J0 F750
G1 Y-240.266
G3 X-94.52 Y-240.266 I-1.894 J0
G1 Y-349.466
G2 X-95.76 Y-351.79 I-2.799 J0
G3 X-95.715 Y-354.424 I0.874 J-1.302
X-86.784 Y-349.466 I3.089 J4.958
G1 Y-240.266
G3 X-92.626 Y-234.424 I-5.842 J0
X-98.467 Y-240.266 I0 J-5.842
G1 Y-349.466
G3 X-95.715 Y-354.424 I5.842 J0
G2 X-93.628 Y-358.251 I-2.342 J-3.759
G3 X-90.274 Y-361.034 I2.797 J-0.043
X-80.821 Y-349.466 I-2.352 J11.569
G1 Y-240.266
G3 X-104.431 Y-240.266 I-11.805 J0
G1 Y-349.466
G3 X-90.274 Y-361.034 I11.805 J0
X-90.023 Y-360.687 I-0.063 J0.31
G1 X-90.87 Y-353.505
X-90.872 Y-353.455
X-90.876 Y-353.389
X-90.893 Y-353.326
X-90.923 Y-353.267
X-93.886 Y-348.762
G3 X-94.461 Y-348.873 I-0.264 J-0.174
X-88.566 Y-350.059 Z-6.33 I2.948 J-0.593 F166.7
X-94.461 Y-348.873 Z-6.66 I-2.948 J0.593
X-88.566 Y-350.059 Z-6.99 I2.948 J-0.593
X-94.461 Y-348.873 Z-7.319 I-2.948 J0.593
X-88.566 Y-350.059 Z-7.649 I2.948 J-0.593
X-91.216 Y-346.474 Z-7.825 I-2.948 J0.593
X-94.52 Y-349.466 Z-8 I-0.298 J-2.992
X-90.732 Y-349.466 I1.894 J0 F750
G1 Y-240.266
G3 X-94.52 Y-240.266 I-1.894 J0
G1 Y-349.466
G2 X-95.76 Y-351.79 I-2.799 J0
G3 X-95.715 Y-354.424 I0.874 J-1.302
X-86.784 Y-349.466 I3.089 J4.958
G1 Y-240.266
G3 X-92.626 Y-234.424 I-5.842 J0
X-98.467 Y-240.266 I0 J-5.842
G1 Y-349.466
G3 X-95.715 Y-354.424 I5.842 J0
G2 X-93.628 Y-358.251 I-2.342 J-3.759
G3 X-90.274 Y-361.034 I2.797 J-0.043
X-80.821 Y-349.466 I-2.352 J11.569
G1 Y-240.266
G3 X-104.431 Y-240.266 I-11.805 J0
G1 Y-349.466
G3 X-90.274 Y-361.034 I11.805 J0
X-90.023 Y-360.687 I-0.063 J0.31
G1 X-90.87 Y-353.505
X-90.872 Y-353.455
X-90.876 Y-353.389
X-90.893 Y-353.326
X-90.923 Y-353.267
X-93.886 Y-348.762
G3 X-94.461 Y-348.873 I-0.264 J-0.174
X-88.566 Y-350.059 Z-8.33 I2.948 J-0.593 F166.7
X-94.461 Y-348.873 Z-8.66 I-2.948 J0.593
X-88.566 Y-350.059 Z-8.99 I2.948 J-0.593
X-94.461 Y-348.873 Z-9.319 I-2.948 J0.593
X-88.566 Y-350.059 Z-9.649 I2.948 J-0.593
X-91.216 Y-346.474 Z-9.825 I-2.948 J0.593
X-94.52 Y-349.466 Z-10 I-0.298 J-2.992
X-90.732 Y-349.466 I1.894 J0 F750
G1 Y-240.266
G3 X-94.52 Y-240.266 I-1.894 J0
G1 Y-349.466
G2 X-95.76 Y-351.79 I-2.799 J0
G3 X-95.715 Y-354.424 I0.874 J-1.302
X-86.784 Y-349.466 I3.089 J4.958
G1 Y-240.266
G3 X-92.626 Y-234.424 I-5.842 J0
X-98.467 Y-240.266 I0 J-5.842
G1 Y-349.466
G3 X-95.715 Y-354.424 I5.842 J0
G2 X-93.628 Y-358.251 I-2.342 J-3.759
G3 X-90.274 Y-361.034 I2.797 J-0.043
X-80.821 Y-349.466 I-2.352 J11.569
G1 Y-240.266
G3 X-104.431 Y-240.266 I-11.805 J0
G1 Y-349.466
G3 X-90.274 Y-361.034 I11.805 J0
X-90.023 Y-360.687 I-0.063 J0.31
G1 X-90.87 Y-353.505
X-90.872 Y-353.455
X-90.876 Y-353.389
X-90.893 Y-353.326
X-90.923 Y-353.267
X-93.886 Y-348.762
G3 X-94.461 Y-348.873 I-0.264 J-0.174
X-88.566 Y-350.059 Z-10.33 I2.948 J-0.593 F166.7
X-94.461 Y-348.873 Z-10.66 I-2.948 J0.593
X-88.566 Y-350.059 Z-10.99 I2.948 J-0.593
X-94.461 Y-348.873 Z-11.319 I-2.948 J0.593
X-88.566 Y-350.059 Z-11.649 I2.948 J-0.593
X-91.216 Y-346.474 Z-11.825 I-2.948 J0.593
X-94.52 Y-349.466 Z-12 I-0.298 J-2.992
X-90.732 Y-349.466 I1.894 J0 F750
G1 Y-240.266
G3 X-94.52 Y-240.266 I-1.894 J0
G1 Y-349.466
G2 X-95.76 Y-351.79 I-2.799 J0
G3 X-95.715 Y-354.424 I0.874 J-1.302
X-86.784 Y-349.466 I3.089 J4.958
G1 Y-240.266
G3 X-92.626 Y-234.424 I-5.842 J0
X-98.467 Y-240.266 I0 J-5.842
G1 Y-349.466
G3 X-95.715 Y-354.424 I5.842 J0
G2 X-93.628 Y-358.251 I-2.342 J-3.759
G3 X-90.274 Y-361.034 I2.797 J-0.043
X-80.821 Y-349.466 I-2.352 J11.569
G1 Y-240.266
G3 X-104.431 Y-240.266 I-11.805 J0
G1 Y-349.466
G3 X-90.274 Y-361.034 I11.805 J0
X-90.023 Y-360.687 I-0.063 J0.31
G1 X-90.87 Y-353.505
X-90.872 Y-353.455
X-90.876 Y-353.389
X-90.893 Y-353.326
X-90.923 Y-353.267
X-93.886 Y-348.762
G3 X-94.461 Y-348.873 I-0.264 J-0.174
X-88.566 Y-350.059 Z-12.33 I2.948 J-0.593 F166.7
X-94.461 Y-348.873 Z-12.66 I-2.948 J0.593
X-88.566 Y-350.059 Z-12.99 I2.948 J-0.593
X-94.461 Y-348.873 Z-13.319 I-2.948 J0.593
X-88.566 Y-350.059 Z-13.649 I2.948 J-0.593
X-91.216 Y-346.474 Z-13.825 I-2.948 J0.593
X-94.52 Y-349.466 Z-14 I-0.298 J-2.992
X-90.732 Y-349.466 I1.894 J0 F750
G1 Y-240.266
G3 X-94.52 Y-240.266 I-1.894 J0
G1 Y-349.466
G2 X-95.76 Y-351.79 I-2.799 J0
G3 X-95.715 Y-354.424 I0.874 J-1.302
X-86.784 Y-349.466 I3.089 J4.958
G1 Y-240.266
G3 X-92.626 Y-234.424 I-5.842 J0
X-98.467 Y-240.266 I0 J-5.842
G1 Y-349.466
G3 X-95.715 Y-354.424 I5.842 J0
G2 X-93.628 Y-358.251 I-2.342 J-3.759
G3 X-90.274 Y-361.034 I2.797 J-0.043
X-80.821 Y-349.466 I-2.352 J11.569
G1 Y-240.266
G3 X-104.431 Y-240.266 I-11.805 J0
G1 Y-349.466
G3 X-90.274 Y-361.034 I11.805 J0
X-90.023 Y-360.687 I-0.063 J0.31
G1 X-90.87 Y-353.505
X-90.872 Y-353.455
X-90.876 Y-353.389
X-90.893 Y-353.326
X-90.923 Y-353.267
X-93.886 Y-348.762
G3 X-94.461 Y-348.873 I-0.264 J-0.174
X-88.566 Y-350.059 Z-14.33 I2.948 J-0.593 F166.7
X-94.461 Y-348.873 Z-14.66 I-2.948 J0.593
X-88.566 Y-350.059 Z-14.99 I2.948 J-0.593
X-94.461 Y-348.873 Z-15.319 I-2.948 J0.593
X-88.566 Y-350.059 Z-15.649 I2.948 J-0.593
X-91.216 Y-346.474 Z-15.825 I-2.948 J0.593
X-94.52 Y-349.466 Z-16 I-0.298 J-2.992
X-90.732 Y-349.466 I1.894 J0 F750
G1 Y-240.266
G3 X-94.52 Y-240.266 I-1.894 J0
G1 Y-349.466
G2 X-95.76 Y-351.79 I-2.799 J0
G3 X-95.715 Y-354.424 I0.874 J-1.302
X-86.784 Y-349.466 I3.089 J4.958
G1 Y-240.266
G3 X-92.626 Y-234.424 I-5.842 J0
X-98.467 Y-240.266 I0 J-5.842
G1 Y-349.466
G3 X-95.715 Y-354.424 I5.842 J0
G2 X-93.628 Y-358.251 I-2.342 J-3.759
G3 X-90.274 Y-361.034 I2.797 J-0.043
X-80.821 Y-349.466 I-2.352 J11.569
G1 Y-240.266
G3 X-104.431 Y-240.266 I-11.805 J0
G1 Y-349.466
G3 X-90.274 Y-361.034 I11.805 J0
X-90.023 Y-360.687 I-0.063 J0.31
G1 X-90.87 Y-353.505
X-90.872 Y-353.455
X-90.876 Y-353.389
X-90.893 Y-353.326
X-90.923 Y-353.267
X-93.886 Y-348.762
G3 X-94.461 Y-348.873 I-0.264 J-0.174
X-88.566 Y-350.059 Z-16.33 I2.948 J-0.593 F166.7
X-94.461 Y-348.873 Z-16.66 I-2.948 J0.593
X-88.566 Y-350.059 Z-16.99 I2.948 J-0.593
X-94.461 Y-348.873 Z-17.319 I-2.948 J0.593
X-88.566 Y-350.059 Z-17.649 I2.948 J-0.593
X-91.216 Y-346.474 Z-17.825 I-2.948 J0.593
X-94.52 Y-349.466 Z-18 I-0.298 J-2.992
X-90.732 Y-349.466 I1.894 J0 F750
G1 Y-240.266
G3 X-94.52 Y-240.266 I-1.894 J0
G1 Y-349.466
G2 X-95.76 Y-351.79 I-2.799 J0
G3 X-95.715 Y-354.424 I0.874 J-1.302
X-86.784 Y-349.466 I3.089 J4.958
G1 Y-240.266
G3 X-92.626 Y-234.424 I-5.842 J0
X-98.467 Y-240.266 I0 J-5.842
G1 Y-349.466
G3 X-95.715 Y-354.424 I5.842 J0
G2 X-93.628 Y-358.251 I-2.342 J-3.759
G3 X-90.274 Y-361.034 I2.797 J-0.043
X-80.821 Y-349.466 I-2.352 J11.569
G1 Y-240.266
G3 X-104.431 Y-240.266 I-11.805 J0
G1 Y-349.466
G3 X-90.274 Y-361.034 I11.805 J0
X-90.023 Y-360.687 I-0.063 J0.31
G1 X-90.87 Y-353.505
X-90.872 Y-353.455
X-90.876 Y-353.389
X-90.893 Y-353.326
X-90.923 Y-353.267
X-93.886 Y-348.762
G3 X-94.461 Y-348.873 I-0.264 J-0.174
X-88.566 Y-350.059 Z-18.33 I2.948 J-0.593 F166.7
X-94.461 Y-348.873 Z-18.66 I-2.948 J0.593
X-88.566 Y-350.059 Z-18.99 I2.948 J-0.593
X-94.461 Y-348.873 Z-19.319 I-2.948 J0.593
X-88.566 Y-350.059 Z-19.649 I2.948 J-0.593
X-91.216 Y-346.474 Z-19.825 I-2.948 J0.593
X-94.52 Y-349.466 Z-20 I-0.298 J-2.992
X-90.732 Y-349.466 I1.894 J0 F750
G1 Y-240.266
G3 X-94.52 Y-240.266 I-1.894 J0
G1 Y-349.466
G2 X-95.76 Y-351.79 I-2.799 J0
G3 X-95.715 Y-354.424 I0.874 J-1.302
X-86.784 Y-349.466 I3.089 J4.958
G1 Y-240.266
G3 X-92.626 Y-234.424 I-5.842 J0
X-98.467 Y-240.266 I0 J-5.842
G1 Y-349.466
G3 X-95.715 Y-354.424 I5.842 J0
G2 X-93.628 Y-358.251 I-2.342 J-3.759
G3 X-90.274 Y-361.034 I2.797 J-0.043
X-80.821 Y-349.466 I-2.352 J11.569
G1 Y-240.266
G3 X-104.431 Y-240.266 I-11.805 J0
G1 Y-349.466
G3 X-90.274 Y-361.034 I11.805 J0
X-90.023 Y-360.687 I-0.063 J0.31
G1 X-90.87 Y-353.505
X-90.872 Y-353.455
X-90.876 Y-353.389
X-90.893 Y-353.326
X-90.923 Y-353.267
X-93.886 Y-348.762
G3 X-94.461 Y-348.873 I-0.264 J-0.174
X-88.566 Y-350.059 Z-20.33 I2.948 J-0.593 F166.7
X-94.461 Y-348.873 Z-20.66 I-2.948 J0.593
X-88.566 Y-350.059 Z-20.99 I2.948 J-0.593
X-94.461 Y-348.873 Z-21.319 I-2.948 J0.593
X-88.566 Y-350.059 Z-21.649 I2.948 J-0.593
X-91.216 Y-346.474 Z-21.825 I-2.948 J0.593
X-94.52 Y-349.466 Z-22 I-0.298 J-2.992
X-90.732 Y-349.466 I1.894 J0 F750
G1 Y-240.266
G3 X-94.52 Y-240.266 I-1.894 J0
G1 Y-349.466
G2 X-95.76 Y-351.79 I-2.799 J0
G3 X-95.715 Y-354.424 I0.874 J-1.302
X-86.784 Y-349.466 I3.089 J4.958
G1 Y-240.266
G3 X-92.626 Y-234.424 I-5.842 J0
X-98.467 Y-240.266 I0 J-5.842
G1 Y-349.466
G3 X-95.715 Y-354.424 I5.842 J0
G2 X-93.628 Y-358.251 I-2.342 J-3.759
G3 X-90.274 Y-361.034 I2.797 J-0.043
X-80.821 Y-349.466 I-2.352 J11.569
G1 Y-240.266
G3 X-104.431 Y-240.266 I-11.805 J0
G1 Y-349.466
G3 X-90.274 Y-361.034 I11.805 J0
X-90.023 Y-360.687 I-0.063 J0.31
G1 X-90.87 Y-353.505
X-90.872 Y-353.455
X-90.876 Y-353.389
X-90.893 Y-353.326
X-90.923 Y-353.267
X-93.886 Y-348.762
G3 X-94.461 Y-348.873 I-0.264 J-0.174
X-88.566 Y-350.059 Z-22.33 I2.948 J-0.593 F166.7
X-94.461 Y-348.873 Z-22.66 I-2.948 J0.593
X-88.566 Y-350.059 Z-22.99 I2.948 J-0.593
X-94.461 Y-348.873 Z-23.319 I-2.948 J0.593
X-88.566 Y-350.059 Z-23.649 I2.948 J-0.593
X-91.216 Y-346.474 Z-23.825 I-2.948 J0.593
X-94.52 Y-349.466 Z-24 I-0.298 J-2.992
X-90.732 Y-349.466 I1.894 J0 F750
G1 Y-240.266
G3 X-94.52 Y-240.266 I-1.894 J0
G1 Y-349.466
G2 X-95.76 Y-351.79 I-2.799 J0
G3 X-95.715 Y-354.424 I0.874 J-1.302
X-86.784 Y-349.466 I3.089 J4.958
G1 Y-240.266
G3 X-92.626 Y-234.424 I-5.842 J0
X-98.467 Y-240.266 I0 J-5.842
G1 Y-349.466
G3 X-95.715 Y-354.424 I5.842 J0
G2 X-93.628 Y-358.251 I-2.342 J-3.759
G3 X-90.274 Y-361.034 I2.797 J-0.043
X-80.821 Y-349.466 I-2.352 J11.569
G1 Y-240.266
G3 X-104.431 Y-240.266 I-11.805 J0
G1 Y-349.466
G3 X-90.274 Y-361.034 I11.805 J0
X-90.023 Y-360.687 I-0.063 J0.31
G1 X-90.87 Y-353.505
X-90.872 Y-353.455
X-90.876 Y-353.389
X-90.893 Y-353.326
X-90.923 Y-353.267
X-93.886 Y-348.762
G3 X-94.461 Y-348.873 I-0.264 J-0.174
X-88.566 Y-350.059 Z-24.33 I2.948 J-0.593 F166.7
X-94.461 Y-348.873 Z-24.66 I-2.948 J0.593
X-88.566 Y-350.059 Z-24.99 I2.948 J-0.593
X-94.461 Y-348.873 Z-25.319 I-2.948 J0.593
X-88.566 Y-350.059 Z-25.649 I2.948 J-0.593
X-91.216 Y-346.474 Z-25.825 I-2.948 J0.593
X-94.52 Y-349.466 Z-26 I-0.298 J-2.992
X-90.732 Y-349.466 I1.894 J0 F750
G1 Y-240.266
G3 X-94.52 Y-240.266 I-1.894 J0
G1 Y-349.466
G2 X-95.76 Y-351.79 I-2.799 J0
G3 X-95.715 Y-354.424 I0.874 J-1.302
X-86.784 Y-349.466 I3.089 J4.958
G1 Y-240.266
G3 X-92.626 Y-234.424 I-5.842 J0
X-98.467 Y-240.266 I0 J-5.842
G1 Y-349.466
G3 X-95.715 Y-354.424 I5.842 J0
G2 X-93.628 Y-358.251 I-2.342 J-3.759
G3 X-90.274 Y-361.034 I2.797 J-0.043
X-80.821 Y-349.466 I-2.352 J11.569
G1 Y-240.266
G3 X-104.431 Y-240.266 I-11.805 J0
G1 Y-349.466
G3 X-90.274 Y-361.034 I11.805 J0
X-90.023 Y-360.687 I-0.063 J0.31
G1 X-90.87 Y-353.505
X-90.872 Y-353.455
X-90.876 Y-353.389
X-90.893 Y-353.326
X-90.923 Y-353.267
X-93.886 Y-348.762
G3 X-94.461 Y-348.873 I-0.264 J-0.174
X-88.566 Y-350.059 Z-26.33 I2.948 J-0.593 F166.7
X-94.461 Y-348.873 Z-26.66 I-2.948 J0.593
X-88.566 Y-350.059 Z-26.99 I2.948 J-0.593
X-94.461 Y-348.873 Z-27.319 I-2.948 J0.593
X-88.566 Y-350.059 Z-27.649 I2.948 J-0.593
X-91.216 Y-346.474 Z-27.825 I-2.948 J0.593
X-94.52 Y-349.466 Z-28 I-0.298 J-2.992
X-90.732 Y-349.466 I1.894 J0 F750
G1 Y-240.266
G3 X-94.52 Y-240.266 I-1.894 J0
G1 Y-349.466
G2 X-95.76 Y-351.79 I-2.799 J0
G3 X-95.715 Y-354.424 I0.874 J-1.302
X-86.784 Y-349.466 I3.089 J4.958
G1 Y-240.266
G3 X-92.626 Y-234.424 I-5.842 J0
X-98.467 Y-240.266 I0 J-5.842
G1 Y-349.466
G3 X-95.715 Y-354.424 I5.842 J0
G2 X-93.628 Y-358.251 I-2.342 J-3.759
G3 X-90.274 Y-361.034 I2.797 J-0.043
X-80.821 Y-349.466 I-2.352 J11.569
G1 Y-240.266
G3 X-104.431 Y-240.266 I-11.805 J0
G1 Y-349.466
G3 X-90.274 Y-361.034 I11.805 J0
X-90.023 Y-360.687 I-0.063 J0.31
G1 X-90.87 Y-353.505
X-90.872 Y-353.455
X-90.876 Y-353.389
X-90.893 Y-353.326
X-90.923 Y-353.267
X-93.886 Y-348.762
G3 X-94.461 Y-348.873 I-0.264 J-0.174
X-88.566 Y-350.059 Z-28.33 I2.948 J-0.593 F166.7
X-94.461 Y-348.873 Z-28.66 I-2.948 J0.593
X-88.566 Y-350.059 Z-28.99 I2.948 J-0.593
X-94.461 Y-348.873 Z-29.319 I-2.948 J0.593
X-88.566 Y-350.059 Z-29.649 I2.948 J-0.593
X-91.216 Y-346.474 Z-29.825 I-2.948 J0.593
X-94.52 Y-349.466 Z-30 I-0.298 J-2.992
X-90.732 Y-349.466 I1.894 J0 F750
G1 Y-240.266
G3 X-94.52 Y-240.266 I-1.894 J0
G1 Y-349.466
G2 X-95.76 Y-351.79 I-2.799 J0
G3 X-95.715 Y-354.424 I0.874 J-1.302
X-86.784 Y-349.466 I3.089 J4.958
G1 Y-240.266
G3 X-92.626 Y-234.424 I-5.842 J0
X-98.467 Y-240.266 I0 J-5.842
G1 Y-349.466
G3 X-95.715 Y-354.424 I5.842 J0
G2 X-93.628 Y-358.251 I-2.342 J-3.759
G3 X-90.274 Y-361.034 I2.797 J-0.043
X-80.821 Y-349.466 I-2.352 J11.569
G1 Y-240.266
G3 X-104.431 Y-240.266 I-11.805 J0
G1 Y-349.466
G3 X-90.274 Y-361.034 I11.805 J0
X-90.023 Y-360.687 I-0.063 J0.31
G1 X-90.87 Y-353.505
X-90.872 Y-353.455
X-90.876 Y-353.389
X-90.893 Y-353.326
X-90.923 Y-353.267
X-93.886 Y-348.762
G3 X-94.461 Y-348.873 I-0.264 J-0.174
X-88.566 Y-350.059 Z-30.33 I2.948 J-0.593 F166.7
X-94.461 Y-348.873 Z-30.66 I-2.948 J0.593
X-88.566 Y-350.059 Z-30.99 I2.948 J-0.593
X-94.461 Y-348.873 Z-31.319 I-2.948 J0.593
X-88.566 Y-350.059 Z-31.649 I2.948 J-0.593
X-91.216 Y-346.474 Z-31.825 I-2.948 J0.593
X-94.52 Y-349.466 Z-32 I-0.298 J-2.992
X-90.732 Y-349.466 I1.894 J0 F750
G1 Y-240.266
G3 X-94.52 Y-240.266 I-1.894 J0
G1 Y-349.466
G2 X-95.76 Y-351.79 I-2.799 J0
G3 X-95.715 Y-354.424 I0.874 J-1.302
X-86.784 Y-349.466 I3.089 J4.958
G1 Y-240.266
G3 X-92.626 Y-234.424 I-5.842 J0
X-98.467 Y-240.266 I0 J-5.842
G1 Y-349.466
G3 X-95.715 Y-354.424 I5.842 J0
G2 X-93.628 Y-358.251 I-2.342 J-3.759
G3 X-90.274 Y-361.034 I2.797 J-0.043
X-80.821 Y-349.466 I-2.352 J11.569
G1 Y-240.266
G3 X-104.431 Y-240.266 I-11.805 J0
G1 Y-349.466
G3 X-90.274 Y-361.034 I11.805 J0
X-90.026 Y-360.665 I-0.063 J0.31
G1 X-91.523 Y-352.835
G2 X-91.241 Y-352.46 I0.311 J0.059
G3 X-91.785 Y-346.471 Z-32.33 I-0.272 J2.994 F166.7
X-91.241 Y-352.46 Z-32.66 I0.272 J-2.994
X-91.785 Y-346.471 Z-32.99 I-0.272 J2.994
X-94.52 Y-349.466 Z-33.145 I0.272 J-2.994
X-90.732 Y-349.466 I1.894 J0 F750
G1 Y-240.266
G3 X-94.52 Y-240.266 I-1.894 J0
G1 Y-349.466
G2 X-95.76 Y-351.79 I-2.799 J0
G3 X-95.715 Y-354.424 I0.874 J-1.302
X-86.784 Y-349.466 I3.089 J4.958
G1 Y-240.266
G3 X-92.626 Y-234.424 I-5.842 J0
X-98.467 Y-240.266 I0 J-5.842
G1 Y-349.466
G3 X-95.715 Y-354.424 I5.842 J0
G2 X-93.628 Y-358.251 I-2.342 J-3.759
G3 X-90.274 Y-361.034 I2.797 J-0.043
X-80.821 Y-349.466 I-2.352 J11.569
G1 Y-240.266
G3 X-104.431 Y-240.266 I-11.805 J0
G1 Y-349.466
G3 X-90.274 Y-361.034 I11.805 J0
X-90.026 Y-360.665 I-0.063 J0.31
G1 X-91.523 Y-352.835
G2 X-91.241 Y-352.46 I0.311 J0.059
G3 X-91.785 Y-346.471 Z-33.475 I-0.272 J2.994 F166.7
X-91.241 Y-352.46 Z-33.805 I0.272 J-2.994
X-91.785 Y-346.471 Z-34.135 I-0.272 J2.994
X-94.52 Y-349.466 Z-34.29 I0.272 J-2.994
X-90.732 Y-349.466 I1.894 J0 F750
G1 Y-240.266
G3 X-94.52 Y-240.266 I-1.894 J0
G1 Y-349.466
G2 X-95.76 Y-351.79 I-2.799 J0
G3 X-95.715 Y-354.424 I0.874 J-1.302
X-86.784 Y-349.466 I3.089 J4.958
G1 Y-240.266
G3 X-92.626 Y-234.424 I-5.842 J0
X-98.467 Y-240.266 I0 J-5.842
G1 Y-349.466
G3 X-95.715 Y-354.424 I5.842 J0
G2 X-93.628 Y-358.251 I-2.342 J-3.759
G3 X-90.274 Y-361.034 I2.797 J-0.043
X-80.821 Y-349.466 I-2.352 J11.569
G1 Y-240.266
G3 X-104.431 Y-240.266 I-11.805 J0
G1 Y-349.466
G3 X-90.274 Y-361.034 I11.805 J0
G1 X-90.18 Y-361.008 Z-34.275 F500
X-90.092 Y-360.967 Z-34.259
X-90.018 Y-360.918 Z-34.214
X-89.951 Y-360.86 Z-34.169
X-89.905 Y-360.808 Z-34.099
X-89.864 Y-360.751 Z-34.029
X-89.822 Y-360.672 Z-33.853
X-89.81 Y-360.643 Z-33.657
Z10 F750