(1001)
(T1  D=6.33 CR=0 - ZMIN=-29.8 - flat end mill)
G90 G94
G17
G21
(When using Fusion 360 for Personal Use, the feedrate of )
(rapid moves is reduced to match the feedrate of cutting )
(moves, which can increase machining time. Unrestricted )
(rapid moves are available with a Fusion 360 Subscription. )

G90

(Rough Top Cavities)
G54
G0 Z10
X-19.718 Y-130.253
G1 Z5 F700
Z2.5 F500
G3 X-15.241 Y-134.267 Z2.17 I2.239 J-2.007 F166.7
X-19.718 Y-130.253 Z1.84 I-2.239 J2.007
X-15.241 Y-134.267 Z1.51 I2.239 J-2.007
X-19.718 Y-130.253 Z1.181 I-2.239 J2.007
X-15.241 Y-134.267 Z0.851 I2.239 J-2.007
X-19.718 Y-130.253 Z0.521 I-2.239 J2.007
X-15.241 Y-134.267 Z0.191 I2.239 J-2.007
X-19.718 Y-130.253 Z-0.139 I-2.239 J2.007
X-15.241 Y-134.267 Z-0.469 I2.239 J-2.007
X-19.718 Y-130.253 Z-0.799 I-2.239 J2.007
X-15.241 Y-134.267 Z-1.128 I2.239 J-2.007
X-19.718 Y-130.253 Z-1.458 I-2.239 J2.007
X-17.479 Y-135.267 Z-1.7 I2.239 J-2.007
G1 X20.388 F700
G3 X20.707 Y-134.947 I0 J0.319
G1 Y-133.213
G3 X20.388 Y-132.893 I-0.319 J0
G1 X-18.347
G3 X-18.666 Y-133.213 I0 J-0.319
G1 Y-134.947
G3 X-18.347 Y-135.267 I0.319 J0
G1 X-17.479
G2 X-15.665 Y-136.477 I0 J-1.966
G3 X-13.85 Y-137.687 I1.815 J0.756
G1 X22.808
G3 X23.127 Y-137.367 I0 J0.319
G1 Y-130.793
G3 X22.808 Y-130.473 I-0.319 J0
G1 X-20.767
G3 X-21.086 Y-130.793 I0 J-0.319
G1 Y-137.367
G3 X-20.767 Y-137.687 I0.319 J0
G1 X-13.85
G2 X-9.974 Y-140.27 I0 J-4.199
G3 X-6.098 Y-142.854 I3.876 J1.615
G1 X27.976
G3 X28.295 Y-142.535 I0 J0.319
G1 Y-125.625
G3 X27.976 Y-125.306 I-0.319 J0
G1 X-25.935
G3 X-26.254 Y-125.625 I0 J-0.319
G1 Y-142.535
G3 X-25.935 Y-142.854 I0.319 J0
G1 X-6.098
G2 X-2.153 Y-145.485 I0 J-4.274
G3 X1.793 Y-148.115 I3.945 J1.644
G1 X30.171
G3 X33.556 Y-144.73 I0 J3.385
G1 Y-123.43
G3 X30.171 Y-120.045 I-3.385 J0
G1 X-28.129
G3 X-31.514 Y-123.43 I0 J-3.385
G1 Y-144.73
G3 X-28.129 Y-148.115 I3.385 J0
G1 X1.793
G3 X1.994 Y-147.682 I0 J0.263
G1 X1.227 Y-146.773
X-16.022 Y-129.985
X-16.04 Y-129.957
X-16.046 Y-129.925
X-16.04 Y-129.672
X-16.044 Y-129.642
X-16.06 Y-129.616
X-16.083 Y-129.597
G3 X-18.875 Y-134.923 Z-2.03 I-1.396 J-2.663 F166.7
X-16.083 Y-129.597 Z-2.36 I1.396 J2.663
X-18.875 Y-134.923 Z-2.69 I-1.396 J-2.663
X-16.083 Y-129.597 Z-3.019 I1.396 J2.663
X-18.875 Y-134.923 Z-3.349 I-1.396 J-2.663
X-17.479 Y-135.267 Z-3.4 I1.396 J2.663
G1 X20.388 F700
G3 X20.707 Y-134.947 I0 J0.319
G1 Y-133.213
G3 X20.388 Y-132.893 I-0.319 J0
G1 X-18.347
G3 X-18.666 Y-133.213 I0 J-0.319
G1 Y-134.947
G3 X-18.347 Y-135.267 I0.319 J0
G1 X-17.479
G2 X-15.665 Y-136.477 I0 J-1.966
G3 X-13.85 Y-137.687 I1.815 J0.756
G1 X22.808
G3 X23.127 Y-137.367 I0 J0.319
G1 Y-130.793
G3 X22.808 Y-130.473 I-0.319 J0
G1 X-20.767
G3 X-21.086 Y-130.793 I0 J-0.319
G1 Y-137.367
G3 X-20.767 Y-137.687 I0.319 J0
G1 X-13.85
G2 X-9.974 Y-140.27 I0 J-4.199
G3 X-6.098 Y-142.854 I3.876 J1.615
G1 X27.976
G3 X28.295 Y-142.535 I0 J0.319
G1 Y-125.625
G3 X27.976 Y-125.306 I-0.319 J0
G1 X-25.935
G3 X-26.254 Y-125.625 I0 J-0.319
G1 Y-142.535
G3 X-25.935 Y-142.854 I0.319 J0
G1 X-6.098
G2 X-2.153 Y-145.485 I0 J-4.274
G3 X1.793 Y-148.115 I3.945 J1.644
G1 X30.171
G3 X33.556 Y-144.73 I0 J3.385
G1 Y-123.43
G3 X30.171 Y-120.045 I-3.385 J0
G1 X-28.129
G3 X-31.514 Y-123.43 I0 J-3.385
G1 Y-144.73
G3 X-28.129 Y-148.115 I3.385 J0
G1 X1.793
G3 X1.994 Y-147.682 I0 J0.263
G1 X1.227 Y-146.773
X-16.022 Y-129.985
X-16.04 Y-129.957
X-16.046 Y-129.925
X-16.04 Y-129.672
X-16.044 Y-129.642
X-16.06 Y-129.616
X-16.083 Y-129.597
G3 X-18.875 Y-134.923 Z-3.73 I-1.396 J-2.663 F166.7
X-16.083 Y-129.597 Z-4.06 I1.396 J2.663
X-18.875 Y-134.923 Z-4.39 I-1.396 J-2.663
X-16.083 Y-129.597 Z-4.719 I1.396 J2.663
X-18.875 Y-134.923 Z-5.049 I-1.396 J-2.663
X-17.479 Y-135.267 Z-5.1 I1.396 J2.663
G1 X20.388 F700
G3 X20.707 Y-134.947 I0 J0.319
G1 Y-133.213
G3 X20.388 Y-132.893 I-0.319 J0
G1 X-18.347
G3 X-18.666 Y-133.213 I0 J-0.319
G1 Y-134.947
G3 X-18.347 Y-135.267 I0.319 J0
G1 X-17.479
G2 X-15.665 Y-136.477 I0 J-1.966
G3 X-13.85 Y-137.687 I1.815 J0.756
G1 X22.808
G3 X23.127 Y-137.367 I0 J0.319
G1 Y-130.793
G3 X22.808 Y-130.473 I-0.319 J0
G1 X-20.767
G3 X-21.086 Y-130.793 I0 J-0.319
G1 Y-137.367
G3 X-20.767 Y-137.687 I0.319 J0
G1 X-13.85
G2 X-9.974 Y-140.27 I0 J-4.199
G3 X-6.098 Y-142.854 I3.876 J1.615
G1 X27.976
G3 X28.295 Y-142.535 I0 J0.319
G1 Y-125.625
G3 X27.976 Y-125.306 I-0.319 J0
G1 X-25.935
G3 X-26.254 Y-125.625 I0 J-0.319
G1 Y-142.535
G3 X-25.935 Y-142.854 I0.319 J0
G1 X-6.098
G2 X-2.153 Y-145.485 I0 J-4.274
G3 X1.793 Y-148.115 I3.945 J1.644
G1 X30.171
G3 X33.556 Y-144.73 I0 J3.385
G1 Y-123.43
G3 X30.171 Y-120.045 I-3.385 J0
G1 X-28.129
G3 X-31.514 Y-123.43 I0 J-3.385
G1 Y-144.73
G3 X-28.129 Y-148.115 I3.385 J0
G1 X1.793
G3 X1.994 Y-147.682 I0 J0.263
G1 X1.227 Y-146.773
X-16.022 Y-129.985
X-16.04 Y-129.957
X-16.046 Y-129.925
X-16.04 Y-129.672
X-16.044 Y-129.642
X-16.06 Y-129.616
X-16.083 Y-129.597
G3 X-18.875 Y-134.923 Z-5.43 I-1.396 J-2.663 F166.7
X-16.083 Y-129.597 Z-5.76 I1.396 J2.663
X-18.875 Y-134.923 Z-6.09 I-1.396 J-2.663
X-16.083 Y-129.597 Z-6.419 I1.396 J2.663
X-18.875 Y-134.923 Z-6.749 I-1.396 J-2.663
X-17.479 Y-135.267 Z-6.8 I1.396 J2.663
G1 X20.388 F700
G3 X20.707 Y-134.947 I0 J0.319
G1 Y-133.213
G3 X20.388 Y-132.893 I-0.319 J0
G1 X-18.347
G3 X-18.666 Y-133.213 I0 J-0.319
G1 Y-134.947
G3 X-18.347 Y-135.267 I0.319 J0
G1 X-17.479
G2 X-15.665 Y-136.477 I0 J-1.966
G3 X-13.85 Y-137.687 I1.815 J0.756
G1 X22.808
G3 X23.127 Y-137.367 I0 J0.319
G1 Y-130.793
G3 X22.808 Y-130.473 I-0.319 J0
G1 X-20.767
G3 X-21.086 Y-130.793 I0 J-0.319
G1 Y-137.367
G3 X-20.767 Y-137.687 I0.319 J0
G1 X-13.85
G2 X-9.974 Y-140.27 I0 J-4.199
G3 X-6.098 Y-142.854 I3.876 J1.615
G1 X27.976
G3 X28.295 Y-142.535 I0 J0.319
G1 Y-125.625
G3 X27.976 Y-125.306 I-0.319 J0
G1 X-25.935
G3 X-26.254 Y-125.625 I0 J-0.319
G1 Y-142.535
G3 X-25.935 Y-142.854 I0.319 J0
G1 X-6.098
G2 X-2.153 Y-145.485 I0 J-4.274
G3 X1.793 Y-148.115 I3.945 J1.644
G1 X30.171
G3 X33.556 Y-144.73 I0 J3.385
G1 Y-123.43
G3 X30.171 Y-120.045 I-3.385 J0
G1 X-28.129
G3 X-31.514 Y-123.43 I0 J-3.385
G1 Y-144.73
G3 X-28.129 Y-148.115 I3.385 J0
G1 X1.793
G3 X1.994 Y-147.682 I0 J0.263
G1 X1.227 Y-146.773
X-16.022 Y-129.985
X-16.04 Y-129.957
X-16.046 Y-129.925
X-16.04 Y-129.672
X-16.044 Y-129.642
X-16.06 Y-129.616
X-16.083 Y-129.597
G3 X-18.875 Y-134.923 Z-7.13 I-1.396 J-2.663 F166.7
X-16.083 Y-129.597 Z-7.46 I1.396 J2.663
X-18.875 Y-134.923 Z-7.79 I-1.396 J-2.663
X-16.083 Y-129.597 Z-8.119 I1.396 J2.663
X-18.875 Y-134.923 Z-8.449 I-1.396 J-2.663
X-17.479 Y-135.267 Z-8.5 I1.396 J2.663
G1 X20.388 F700
G3 X20.707 Y-134.947 I0 J0.319
G1 Y-133.213
G3 X20.388 Y-132.893 I-0.319 J0
G1 X-18.347
G3 X-18.666 Y-133.213 I0 J-0.319
G1 Y-134.947
G3 X-18.347 Y-135.267 I0.319 J0
G1 X-17.479
G2 X-15.665 Y-136.477 I0 J-1.966
G3 X-13.85 Y-137.687 I1.815 J0.756
G1 X22.808
G3 X23.127 Y-137.367 I0 J0.319
G1 Y-130.793
G3 X22.808 Y-130.473 I-0.319 J0
G1 X-20.767
G3 X-21.086 Y-130.793 I0 J-0.319
G1 Y-137.367
G3 X-20.767 Y-137.687 I0.319 J0
G1 X-13.85
G2 X-9.974 Y-140.27 I0 J-4.199
G3 X-6.098 Y-142.854 I3.876 J1.615
G1 X27.976
G3 X28.295 Y-142.535 I0 J0.319
G1 Y-125.625
G3 X27.976 Y-125.306 I-0.319 J0
G1 X-25.935
G3 X-26.254 Y-125.625 I0 J-0.319
G1 Y-142.535
G3 X-25.935 Y-142.854 I0.319 J0
G1 X-6.098
G2 X-2.153 Y-145.485 I0 J-4.274
G3 X1.793 Y-148.115 I3.945 J1.644
G1 X30.171
G3 X33.556 Y-144.73 I0 J3.385
G1 Y-123.43
G3 X30.171 Y-120.045 I-3.385 J0
G1 X-28.129
G3 X-31.514 Y-123.43 I0 J-3.385
G1 Y-144.73
G3 X-28.129 Y-148.115 I3.385 J0
G1 X1.793
G3 X1.994 Y-147.682 I0 J0.263
G1 X1.227 Y-146.773
X-16.022 Y-129.985
X-16.04 Y-129.957
X-16.046 Y-129.925
X-16.04 Y-129.672
X-16.044 Y-129.642
X-16.06 Y-129.616
X-16.083 Y-129.597
G3 X-18.875 Y-134.923 Z-8.83 I-1.396 J-2.663 F166.7
X-16.083 Y-129.597 Z-9.16 I1.396 J2.663
X-18.875 Y-134.923 Z-9.49 I-1.396 J-2.663
X-16.083 Y-129.597 Z-9.819 I1.396 J2.663
X-18.875 Y-134.923 Z-10.149 I-1.396 J-2.663
X-17.479 Y-135.267 Z-10.2 I1.396 J2.663
G1 X20.388 F700
G3 X20.707 Y-134.947 I0 J0.319
G1 Y-133.213
G3 X20.388 Y-132.893 I-0.319 J0
G1 X-18.347
G3 X-18.666 Y-133.213 I0 J-0.319
G1 Y-134.947
G3 X-18.347 Y-135.267 I0.319 J0
G1 X-17.479
G2 X-15.665 Y-136.477 I0 J-1.966
G3 X-13.85 Y-137.687 I1.815 J0.756
G1 X22.808
G3 X23.127 Y-137.367 I0 J0.319
G1 Y-130.793
G3 X22.808 Y-130.473 I-0.319 J0
G1 X-20.767
G3 X-21.086 Y-130.793 I0 J-0.319
G1 Y-137.367
G3 X-20.767 Y-137.687 I0.319 J0
G1 X-13.85
G2 X-9.974 Y-140.27 I0 J-4.199
G3 X-6.098 Y-142.854 I3.876 J1.615
G1 X27.976
G3 X28.295 Y-142.535 I0 J0.319
G1 Y-125.625
G3 X27.976 Y-125.306 I-0.319 J0
G1 X-25.935
G3 X-26.254 Y-125.625 I0 J-0.319
G1 Y-142.535
G3 X-25.935 Y-142.854 I0.319 J0
G1 X-6.098
G2 X-2.153 Y-145.485 I0 J-4.274
G3 X1.793 Y-148.115 I3.945 J1.644
G1 X30.171
G3 X33.556 Y-144.73 I0 J3.385
G1 Y-123.43
G3 X30.171 Y-120.045 I-3.385 J0
G1 X-28.129
G3 X-31.514 Y-123.43 I0 J-3.385
G1 Y-144.73
G3 X-28.129 Y-148.115 I3.385 J0
G1 X1.793
G3 X1.994 Y-147.682 I0 J0.263
G1 X1.227 Y-146.773
X-16.022 Y-129.985
X-16.04 Y-129.957
X-16.046 Y-129.925
X-16.04 Y-129.672
X-16.044 Y-129.642
X-16.06 Y-129.616
X-16.083 Y-129.597
G3 X-18.875 Y-134.923 Z-10.53 I-1.396 J-2.663 F166.7
X-16.083 Y-129.597 Z-10.86 I1.396 J2.663
X-18.875 Y-134.923 Z-11.19 I-1.396 J-2.663
X-16.083 Y-129.597 Z-11.519 I1.396 J2.663
X-18.875 Y-134.923 Z-11.849 I-1.396 J-2.663
X-17.479 Y-135.267 Z-11.9 I1.396 J2.663
G1 X20.388 F700
G3 X20.707 Y-134.947 I0 J0.319
G1 Y-133.213
G3 X20.388 Y-132.893 I-0.319 J0
G1 X-18.347
G3 X-18.666 Y-133.213 I0 J-0.319
G1 Y-134.947
G3 X-18.347 Y-135.267 I0.319 J0
G1 X-17.479
G2 X-15.665 Y-136.477 I0 J-1.966
G3 X-13.85 Y-137.687 I1.815 J0.756
G1 X22.808
G3 X23.127 Y-137.367 I0 J0.319
G1 Y-130.793
G3 X22.808 Y-130.473 I-0.319 J0
G1 X-20.767
G3 X-21.086 Y-130.793 I0 J-0.319
G1 Y-137.367
G3 X-20.767 Y-137.687 I0.319 J0
G1 X-13.85
G2 X-9.974 Y-140.27 I0 J-4.199
G3 X-6.098 Y-142.854 I3.876 J1.615
G1 X27.976
G3 X28.295 Y-142.535 I0 J0.319
G1 Y-125.625
G3 X27.976 Y-125.306 I-0.319 J0
G1 X-25.935
G3 X-26.254 Y-125.625 I0 J-0.319
G1 Y-142.535
G3 X-25.935 Y-142.854 I0.319 J0
G1 X-6.098
G2 X-2.153 Y-145.485 I0 J-4.274
G3 X1.793 Y-148.115 I3.945 J1.644
G1 X30.171
G3 X33.556 Y-144.73 I0 J3.385
G1 Y-123.43
G3 X30.171 Y-120.045 I-3.385 J0
G1 X-28.129
G3 X-31.514 Y-123.43 I0 J-3.385
G1 Y-144.73
G3 X-28.129 Y-148.115 I3.385 J0
G1 X1.793
G3 X1.994 Y-147.682 I0 J0.263
G1 X1.227 Y-146.773
X-16.022 Y-129.985
X-16.04 Y-129.957
X-16.046 Y-129.925
X-16.04 Y-129.672
X-16.044 Y-129.642
X-16.06 Y-129.616
X-16.083 Y-129.597
G3 X-18.875 Y-134.923 Z-12.23 I-1.396 J-2.663 F166.7
X-16.083 Y-129.597 Z-12.56 I1.396 J2.663
X-18.875 Y-134.923 Z-12.89 I-1.396 J-2.663
X-16.083 Y-129.597 Z-13.219 I1.396 J2.663
X-18.875 Y-134.923 Z-13.549 I-1.396 J-2.663
X-17.479 Y-135.267 Z-13.6 I1.396 J2.663
G1 X20.388 F700
G3 X20.707 Y-134.947 I0 J0.319
G1 Y-133.213
G3 X20.388 Y-132.893 I-0.319 J0
G1 X-18.347
G3 X-18.666 Y-133.213 I0 J-0.319
G1 Y-134.947
G3 X-18.347 Y-135.267 I0.319 J0
G1 X-17.479
G2 X-15.665 Y-136.477 I0 J-1.966
G3 X-13.85 Y-137.687 I1.815 J0.756
G1 X22.808
G3 X23.127 Y-137.367 I0 J0.319
G1 Y-130.793
G3 X22.808 Y-130.473 I-0.319 J0
G1 X-20.767
G3 X-21.086 Y-130.793 I0 J-0.319
G1 Y-137.367
G3 X-20.767 Y-137.687 I0.319 J0
G1 X-13.85
G2 X-9.974 Y-140.27 I0 J-4.199
G3 X-6.098 Y-142.854 I3.876 J1.615
G1 X27.976
G3 X28.295 Y-142.535 I0 J0.319
G1 Y-125.625
G3 X27.976 Y-125.306 I-0.319 J0
G1 X-25.935
G3 X-26.254 Y-125.625 I0 J-0.319
G1 Y-142.535
G3 X-25.935 Y-142.854 I0.319 J0
G1 X-6.098
G2 X-2.153 Y-145.485 I0 J-4.274
G3 X1.793 Y-148.115 I3.945 J1.644
G1 X30.171
G3 X33.556 Y-144.73 I0 J3.385
G1 Y-123.43
G3 X30.171 Y-120.045 I-3.385 J0
G1 X-28.129
G3 X-31.514 Y-123.43 I0 J-3.385
G1 Y-144.73
G3 X-28.129 Y-148.115 I3.385 J0
G1 X1.793
G3 X1.994 Y-147.682 I0 J0.263
G1 X1.227 Y-146.773
X-16.022 Y-129.985
X-16.04 Y-129.957
X-16.046 Y-129.925
X-16.04 Y-129.672
X-16.044 Y-129.642
X-16.06 Y-129.616
X-16.083 Y-129.597
G3 X-18.875 Y-134.923 Z-13.93 I-1.396 J-2.663 F166.7
X-16.083 Y-129.597 Z-14.26 I1.396 J2.663
X-18.875 Y-134.923 Z-14.59 I-1.396 J-2.663
X-16.083 Y-129.597 Z-14.919 I1.396 J2.663
X-18.875 Y-134.923 Z-15.249 I-1.396 J-2.663
X-17.479 Y-135.267 Z-15.3 I1.396 J2.663
G1 X20.388 F700
G3 X20.707 Y-134.947 I0 J0.319
G1 Y-133.213
G3 X20.388 Y-132.893 I-0.319 J0
G1 X-18.347
G3 X-18.666 Y-133.213 I0 J-0.319
G1 Y-134.947
G3 X-18.347 Y-135.267 I0.319 J0
G1 X-17.479
G2 X-15.665 Y-136.477 I0 J-1.966
G3 X-13.85 Y-137.687 I1.815 J0.756
G1 X22.808
G3 X23.127 Y-137.367 I0 J0.319
G1 Y-130.793
G3 X22.808 Y-130.473 I-0.319 J0
G1 X-20.767
G3 X-21.086 Y-130.793 I0 J-0.319
G1 Y-137.367
G3 X-20.767 Y-137.687 I0.319 J0
G1 X-13.85
G2 X-9.974 Y-140.27 I0 J-4.199
G3 X-6.098 Y-142.854 I3.876 J1.615
G1 X27.976
G3 X28.295 Y-142.535 I0 J0.319
G1 Y-125.625
G3 X27.976 Y-125.306 I-0.319 J0
G1 X-25.935
G3 X-26.254 Y-125.625 I0 J-0.319
G1 Y-142.535
G3 X-25.935 Y-142.854 I0.319 J0
G1 X-6.098
G2 X-2.153 Y-145.485 I0 J-4.274
G3 X1.793 Y-148.115 I3.945 J1.644
G1 X30.171
G3 X33.556 Y-144.73 I0 J3.385
G1 Y-123.43
G3 X30.171 Y-120.045 I-3.385 J0
G1 X-28.129
G3 X-31.514 Y-123.43 I0 J-3.385
G1 Y-144.73
G3 X-28.129 Y-148.115 I3.385 J0
G1 X1.793
G3 X1.994 Y-147.682 I0 J0.263
G1 X1.227 Y-146.773
X-16.022 Y-129.985
X-16.04 Y-129.957
X-16.046 Y-129.925
X-16.04 Y-129.672
X-16.044 Y-129.642
X-16.06 Y-129.616
X-16.083 Y-129.597
G3 X-18.875 Y-134.923 Z-15.63 I-1.396 J-2.663 F166.7
X-16.083 Y-129.597 Z-15.96 I1.396 J2.663
X-18.875 Y-134.923 Z-16.29 I-1.396 J-2.663
X-16.083 Y-129.597 Z-16.619 I1.396 J2.663
X-18.875 Y-134.923 Z-16.949 I-1.396 J-2.663
X-17.479 Y-135.267 Z-17 I1.396 J2.663
G1 X20.388 F700
G3 X20.707 Y-134.947 I0 J0.319
G1 Y-133.213
G3 X20.388 Y-132.893 I-0.319 J0
G1 X-18.347
G3 X-18.666 Y-133.213 I0 J-0.319
G1 Y-134.947
G3 X-18.347 Y-135.267 I0.319 J0
G1 X-17.479
G2 X-15.665 Y-136.477 I0 J-1.966
G3 X-13.85 Y-137.687 I1.815 J0.756
G1 X22.808
G3 X23.127 Y-137.367 I0 J0.319
G1 Y-130.793
G3 X22.808 Y-130.473 I-0.319 J0
G1 X-20.767
G3 X-21.086 Y-130.793 I0 J-0.319
G1 Y-137.367
G3 X-20.767 Y-137.687 I0.319 J0
G1 X-13.85
G2 X-9.974 Y-140.27 I0 J-4.199
G3 X-6.098 Y-142.854 I3.876 J1.615
G1 X27.976
G3 X28.295 Y-142.535 I0 J0.319
G1 Y-125.625
G3 X27.976 Y-125.306 I-0.319 J0
G1 X-25.935
G3 X-26.254 Y-125.625 I0 J-0.319
G1 Y-142.535
G3 X-25.935 Y-142.854 I0.319 J0
G1 X-6.098
G2 X-2.153 Y-145.485 I0 J-4.274
G3 X1.793 Y-148.115 I3.945 J1.644
G1 X30.171
G3 X33.556 Y-144.73 I0 J3.385
G1 Y-123.43
G3 X30.171 Y-120.045 I-3.385 J0
G1 X-28.129
G3 X-31.514 Y-123.43 I0 J-3.385
G1 Y-144.73
G3 X-28.129 Y-148.115 I3.385 J0
G1 X1.793
G3 X1.942 Y-147.788 I0 J0.198
G1 X1.361 Y-147.117
X-17.313 Y-129.596
X-17.394 Y-129.305
X-17.407 Y-129.279
X-17.431 Y-129.26
X-17.46 Y-129.253
G3 X-17.499 Y-135.267 Z-17.33 I-0.02 J-3.007 F166.7
X-17.46 Y-129.253 Z-17.66 I0.02 J3.007
X-17.499 Y-135.267 Z-17.99 I-0.02 J-3.007
X-17.46 Y-129.253 Z-18.319 I0.02 J3.007
X-20.486 Y-132.25 Z-18.485 I-0.02 J-3.007
X-17.479 Y-135.267 Z-18.65 I3.007 J-0.01
G1 X20.388 F700
G3 X20.707 Y-134.947 I0 J0.319
G1 Y-133.213
G3 X20.388 Y-132.893 I-0.319 J0
G1 X-18.347
G3 X-18.666 Y-133.213 I0 J-0.319
G1 Y-134.947
G3 X-18.347 Y-135.267 I0.319 J0
G1 X-17.479
G2 X-15.665 Y-136.477 I0 J-1.966
G3 X-13.85 Y-137.687 I1.815 J0.756
G1 X22.808
G3 X23.127 Y-137.367 I0 J0.319
G1 Y-130.793
G3 X22.808 Y-130.473 I-0.319 J0
G1 X-20.767
G3 X-21.086 Y-130.793 I0 J-0.319
G1 Y-137.367
G3 X-20.767 Y-137.687 I0.319 J0
G1 X-13.85
G2 X-9.974 Y-140.27 I0 J-4.199
G3 X-6.098 Y-142.854 I3.876 J1.615
G1 X27.976
G3 X28.295 Y-142.535 I0 J0.319
G1 Y-125.625
G3 X27.976 Y-125.306 I-0.319 J0
G1 X-25.935
G3 X-26.254 Y-125.625 I0 J-0.319
G1 Y-142.535
G3 X-25.935 Y-142.854 I0.319 J0
G1 X-6.098
G2 X-2.153 Y-145.485 I0 J-4.274
G3 X1.793 Y-148.115 I3.945 J1.644
G1 X30.171
G3 X33.556 Y-144.73 I0 J3.385
G1 Y-123.43
G3 X30.171 Y-120.045 I-3.385 J0
G1 X-28.129
G3 X-31.514 Y-123.43 I0 J-3.385
G1 Y-144.73
G3 X-28.129 Y-148.115 I3.385 J0
G1 X1.793
G3 X1.92 Y-142.104 Z-18.699 I0 J3.007 F166.7
G1 X-17.607 Y-141.278 Z-18.801
G2 X-17.479 Y-135.267 Z-18.85 I0.127 J3.004
G1 X20.388 F700
G3 X20.707 Y-134.947 I0 J0.319
G1 Y-133.213
G3 X20.388 Y-132.893 I-0.319 J0
G1 X-18.347
G3 X-18.666 Y-133.213 I0 J-0.319
G1 Y-134.947
G3 X-18.347 Y-135.267 I0.319 J0
G1 X-17.479
G2 X-15.665 Y-136.477 I0 J-1.966
G3 X-13.85 Y-137.687 I1.815 J0.756
G1 X22.808
G3 X23.127 Y-137.367 I0 J0.319
G1 Y-130.793
G3 X22.808 Y-130.473 I-0.319 J0
G1 X-20.767
G3 X-21.086 Y-130.793 I0 J-0.319
G1 Y-137.367
G3 X-20.767 Y-137.687 I0.319 J0
G1 X-13.85
G2 X-9.974 Y-140.27 I0 J-4.199
G3 X-6.098 Y-142.854 I3.876 J1.615
G1 X27.976
G3 X28.295 Y-142.535 I0 J0.319
G1 Y-125.625
G3 X27.976 Y-125.306 I-0.319 J0
G1 X-25.935
G3 X-26.254 Y-125.625 I0 J-0.319
G1 Y-142.535
G3 X-25.935 Y-142.854 I0.319 J0
G1 X-6.098
G2 X-2.153 Y-145.485 I0 J-4.274
G3 X1.793 Y-148.115 I3.945 J1.644
G1 X30.171
G3 X33.556 Y-144.73 I0 J3.385
G1 Y-123.43
G3 X30.171 Y-120.045 I-3.385 J0
G1 X-28.129
G3 X-31.514 Y-123.43 I0 J-3.385
G1 Y-144.73
G3 X-28.129 Y-148.115 I3.385 J0
G1 X1.793
Z5
X-1.238 Y-80.173
Z2.5 F500
G3 X2.689 Y-75.619 Z2.17 I1.964 J2.277 F166.7
X-1.238 Y-80.173 Z1.84 I-1.964 J-2.277
X2.689 Y-75.619 Z1.51 I1.964 J2.277
X-1.238 Y-80.173 Z1.181 I-1.964 J-2.277
X2.689 Y-75.619 Z0.851 I1.964 J2.277
X-1.238 Y-80.173 Z0.521 I-1.964 J-2.277
X2.689 Y-75.619 Z0.191 I1.964 J2.277
X-1.238 Y-80.173 Z-0.139 I-1.964 J-2.277
X2.689 Y-75.619 Z-0.469 I1.964 J2.277
X-1.238 Y-80.173 Z-0.799 I-1.964 J-2.277
X2.689 Y-75.619 Z-1.128 I1.964 J2.277
X-1.238 Y-80.173 Z-1.458 I-1.964 J-2.277
X3.732 Y-77.839 Z-1.7 I1.964 J2.277
X3.69 Y-75.855 I-505.022 J-9.659 F700
G2 X3.706 Y-71.437 I82.686 J1.906
G1 X3.448 Y-53.733
G3 X3.121 Y-53.412 I-0.326 J-0.006
G1 X-1.027
G3 X-1.352 Y-53.733 I0 J-0.325
G1 X-1.731 Y-80.272
G3 X-1.416 Y-80.595 I0.318 J-0.005
X3.457 Y-80.595 I2.437 J248.498
X3.772 Y-80.272 I-0.003 J0.318
X3.732 Y-77.839 I-505.063 J-7.225
G2 X6.294 Y-73.972 I4.081 J0.078
G3 X8.857 Y-70.105 I-1.542 J3.804
G1 X8.53 Y-48.563
G3 X8.204 Y-48.242 I-0.326 J-0.006
G1 X-6.123
G3 X-6.448 Y-48.563 I0 J-0.325
G1 X-6.974 Y-85.321
G3 X-6.658 Y-85.652 I0.327 J-0.005
X1.021 Y-85.778 I7.808 J242.237
X8.699 Y-85.652 I0 J234.48
X9.015 Y-85.321 I-0.011 J0.326
X8.866 Y-79.202 I-300.759 J-4.302
G2 X8.803 Y-73.082 I124.954 J4.332
X8.838 Y-72.345 I11.45 J-0.164
G3 X8.88 Y-71.609 I-17.327 J1.367
G1 X8.857 Y-70.105
G2 X11.388 Y-66.178 I4.212 J0.064
G3 X13.919 Y-62.252 I-1.679 J3.861
G1 X13.625 Y-43.379
G3 X13.299 Y-43.059 I-0.326 J-0.006
G1 X-11.233
G3 X-11.558 Y-43.379 I0 J-0.325
G1 X-12.229 Y-90.272
G3 X-11.912 Y-90.612 I0.336 J-0.005
G1 X1.021 Y-90.961
X13.953 Y-90.612
G3 X14.27 Y-90.272 I-0.018 J0.335
G1 X13.986 Y-73.156
G2 X14.022 Y-72.487 I8.617 J-0.123
G3 X14.068 Y-71.818 I-14.231 J1.314
G1 X13.919 Y-62.252
G2 X16.458 Y-58.302 I4.239 J0.066
G3 X18.998 Y-54.352 I-1.69 J3.877
G1 X18.721 Y-38.196
G3 X18.394 Y-37.875 I-0.326 J-0.006
G1 X-16.343
G3 X-16.668 Y-38.196 I0 J-0.325
G1 X-17.482 Y-95.12
G3 X-17.164 Y-95.469 I0.344 J-0.005
X19.205 Y-95.469 I18.184 J244.463
X19.524 Y-95.12 I-0.026 J0.343
G1 X19.183 Y-73.23
G2 X19.219 Y-72.738 I4.255 J-0.061
G3 X19.281 Y-72.248 I-58.138 J7.626
X19.299 Y-71.915 I-2.377 J0.291
G1 X18.998 Y-54.352
G2 X21.525 Y-50.417 I4.215 J0.072
G3 X24.052 Y-46.482 I-1.688 J3.863
G1 X23.888 Y-36.903
G3 X19.598 Y-32.687 I-4.289 J-0.073
G1 X-21.778
X-22.35 Y-72.636
X-22.729 Y-99.118
X-22.727 Y-99.231
X-22.723 Y-99.29
X-22.716 Y-99.349
X-22.706 Y-99.407
X-22.693 Y-99.465
X-22.676 Y-99.523
X-22.657 Y-99.578
X-22.635 Y-99.633
X-22.609 Y-99.688
X-22.581 Y-99.74
X-22.55 Y-99.791
X-22.516 Y-99.841
X-22.482 Y-99.885
X-22.444 Y-99.93
X-22.4 Y-99.976
X-22.359 Y-100.016
X-22.312 Y-100.055
X-22.264 Y-100.092
X-22.222 Y-100.121
X-22.169 Y-100.153
X-22.109 Y-100.185
X-22.059 Y-100.208
X-22.01 Y-100.228
X-21.944 Y-100.251
X-21.888 Y-100.267
X-21.837 Y-100.278
X-21.776 Y-100.289
X-21.662 Y-100.302
G3 X23.704 Y-100.302 I22.683 J249.004
G1 X23.817 Y-100.289
X23.878 Y-100.278
X23.936 Y-100.265
X23.99 Y-100.25
X24.042 Y-100.232
X24.098 Y-100.209
X24.155 Y-100.182
X24.205 Y-100.156
X24.257 Y-100.124
X24.309 Y-100.089
X24.355 Y-100.054
X24.4 Y-100.015
X24.442 Y-99.976
X24.481 Y-99.935
X24.523 Y-99.886
X24.559 Y-99.839
X24.592 Y-99.791
X24.622 Y-99.74
X24.65 Y-99.688
X24.677 Y-99.632
X24.698 Y-99.579
X24.717 Y-99.524
X24.734 Y-99.466
X24.747 Y-99.407
X24.757 Y-99.349
X24.765 Y-99.29
X24.768 Y-99.231
X24.77 Y-99.119
X24.402 Y-73.418
G2 X24.498 Y-72.494 I3.965 J0.057
G1 X24.052 Y-46.482
G3 X23.458 Y-46.233 I-0.351 J-0.006
G1 X22.33 Y-47.314
X-1.594 Y-76.472
X-1.621 Y-76.494
X-1.655 Y-76.502
X-1.893 Y-76.507
X-1.922 Y-76.513
X-1.946 Y-76.528
X-1.964 Y-76.551
G3 X3.415 Y-79.241 Z-2.03 I2.689 J-1.345 F166.7
X-1.964 Y-76.551 Z-2.36 I-2.689 J1.345
X3.415 Y-79.241 Z-2.69 I2.689 J-1.345
X-1.964 Y-76.551 Z-3.019 I-2.689 J1.345
X3.415 Y-79.241 Z-3.349 I2.689 J-1.345
X3.732 Y-77.839 Z-3.4 I-2.689 J1.345
X3.69 Y-75.855 I-505.022 J-9.659 F700
G2 X3.706 Y-71.437 I82.686 J1.906
G1 X3.448 Y-53.733
G3 X3.121 Y-53.412 I-0.326 J-0.006
G1 X-1.027
G3 X-1.352 Y-53.733 I0 J-0.325
G1 X-1.731 Y-80.272
G3 X-1.416 Y-80.595 I0.318 J-0.005
X3.457 Y-80.595 I2.437 J248.498
X3.772 Y-80.272 I-0.003 J0.318
X3.732 Y-77.839 I-505.063 J-7.225
G2 X6.294 Y-73.972 I4.081 J0.078
G3 X8.857 Y-70.105 I-1.542 J3.804
G1 X8.53 Y-48.563
G3 X8.204 Y-48.242 I-0.326 J-0.006
G1 X-6.123
G3 X-6.448 Y-48.563 I0 J-0.325
G1 X-6.974 Y-85.321
G3 X-6.658 Y-85.652 I0.327 J-0.005
X1.021 Y-85.778 I7.808 J242.237
X8.699 Y-85.652 I0 J234.48
X9.015 Y-85.321 I-0.011 J0.326
X8.866 Y-79.202 I-300.759 J-4.302
G2 X8.803 Y-73.082 I124.954 J4.332
X8.838 Y-72.345 I11.45 J-0.164
G3 X8.88 Y-71.609 I-17.327 J1.367
G1 X8.857 Y-70.105
G2 X11.388 Y-66.178 I4.212 J0.064
G3 X13.919 Y-62.252 I-1.679 J3.861
G1 X13.625 Y-43.379
G3 X13.299 Y-43.059 I-0.326 J-0.006
G1 X-11.233
G3 X-11.558 Y-43.379 I0 J-0.325
G1 X-12.229 Y-90.272
G3 X-11.912 Y-90.612 I0.336 J-0.005
G1 X1.021 Y-90.961
X13.953 Y-90.612
G3 X14.27 Y-90.272 I-0.018 J0.335
G1 X13.986 Y-73.156
G2 X14.022 Y-72.487 I8.617 J-0.123
G3 X14.068 Y-71.818 I-14.231 J1.314
G1 X13.919 Y-62.252
G2 X16.458 Y-58.302 I4.239 J0.066
G3 X18.998 Y-54.352 I-1.69 J3.877
G1 X18.721 Y-38.196
G3 X18.394 Y-37.875 I-0.326 J-0.006
G1 X-16.343
G3 X-16.668 Y-38.196 I0 J-0.325
G1 X-17.482 Y-95.12
G3 X-17.164 Y-95.469 I0.344 J-0.005
X19.205 Y-95.469 I18.184 J244.463
X19.524 Y-95.12 I-0.026 J0.343
G1 X19.183 Y-73.23
G2 X19.219 Y-72.738 I4.255 J-0.061
G3 X19.281 Y-72.248 I-58.138 J7.626
X19.299 Y-71.915 I-2.377 J0.291
G1 X18.998 Y-54.352
G2 X21.525 Y-50.417 I4.215 J0.072
G3 X24.052 Y-46.482 I-1.688 J3.863
G1 X23.888 Y-36.903
G3 X19.598 Y-32.687 I-4.289 J-0.073
G1 X-21.778
X-22.35 Y-72.636
X-22.729 Y-99.118
X-22.727 Y-99.231
X-22.723 Y-99.29
X-22.716 Y-99.349
X-22.706 Y-99.407
X-22.693 Y-99.465
X-22.676 Y-99.523
X-22.657 Y-99.578
X-22.635 Y-99.633
X-22.609 Y-99.688
X-22.581 Y-99.74
X-22.55 Y-99.791
X-22.516 Y-99.841
X-22.482 Y-99.885
X-22.444 Y-99.93
X-22.4 Y-99.976
X-22.359 Y-100.016
X-22.312 Y-100.055
X-22.264 Y-100.092
X-22.222 Y-100.121
X-22.169 Y-100.153
X-22.109 Y-100.185
X-22.059 Y-100.208
X-22.01 Y-100.228
X-21.944 Y-100.251
X-21.888 Y-100.267
X-21.837 Y-100.278
X-21.776 Y-100.289
X-21.662 Y-100.302
G3 X23.704 Y-100.302 I22.683 J249.004
G1 X23.817 Y-100.289
X23.878 Y-100.278
X23.936 Y-100.265
X23.99 Y-100.25
X24.042 Y-100.232
X24.098 Y-100.209
X24.155 Y-100.182
X24.205 Y-100.156
X24.257 Y-100.124
X24.309 Y-100.089
X24.355 Y-100.054
X24.4 Y-100.015
X24.442 Y-99.976
X24.481 Y-99.935
X24.523 Y-99.886
X24.559 Y-99.839
X24.592 Y-99.791
X24.622 Y-99.74
X24.65 Y-99.688
X24.677 Y-99.632
X24.698 Y-99.579
X24.717 Y-99.524
X24.734 Y-99.466
X24.747 Y-99.407
X24.757 Y-99.349
X24.765 Y-99.29
X24.768 Y-99.231
X24.77 Y-99.119
X24.402 Y-73.418
G2 X24.498 Y-72.494 I3.965 J0.057
G1 X24.052 Y-46.482
G3 X23.458 Y-46.233 I-0.351 J-0.006
G1 X22.33 Y-47.314
X-1.594 Y-76.472
X-1.621 Y-76.494
X-1.655 Y-76.502
X-1.893 Y-76.507
X-1.922 Y-76.513
X-1.946 Y-76.528
X-1.964 Y-76.551
G3 X3.415 Y-79.241 Z-3.73 I2.689 J-1.345 F166.7
X-1.964 Y-76.551 Z-4.06 I-2.689 J1.345
X3.415 Y-79.241 Z-4.39 I2.689 J-1.345
X-1.964 Y-76.551 Z-4.719 I-2.689 J1.345
X3.415 Y-79.241 Z-5.049 I2.689 J-1.345
X3.732 Y-77.839 Z-5.1 I-2.689 J1.345
X3.69 Y-75.855 I-505.022 J-9.659 F700
G2 X3.706 Y-71.437 I82.686 J1.906
G1 X3.448 Y-53.733
G3 X3.121 Y-53.412 I-0.326 J-0.006
G1 X-1.027
G3 X-1.352 Y-53.733 I0 J-0.325
G1 X-1.731 Y-80.272
G3 X-1.416 Y-80.595 I0.318 J-0.005
X3.457 Y-80.595 I2.437 J248.498
X3.772 Y-80.272 I-0.003 J0.318
X3.732 Y-77.839 I-505.063 J-7.225
G2 X6.294 Y-73.972 I4.081 J0.078
G3 X8.857 Y-70.105 I-1.542 J3.804
G1 X8.53 Y-48.563
G3 X8.204 Y-48.242 I-0.326 J-0.006
G1 X-6.123
G3 X-6.448 Y-48.563 I0 J-0.325
G1 X-6.974 Y-85.321
G3 X-6.658 Y-85.652 I0.327 J-0.005
X1.021 Y-85.778 I7.808 J242.237
X8.699 Y-85.652 I0 J234.48
X9.015 Y-85.321 I-0.011 J0.326
X8.866 Y-79.202 I-300.759 J-4.302
G2 X8.803 Y-73.082 I124.954 J4.332
X8.838 Y-72.345 I11.45 J-0.164
G3 X8.88 Y-71.609 I-17.327 J1.367
G1 X8.857 Y-70.105
G2 X11.388 Y-66.178 I4.212 J0.064
G3 X13.919 Y-62.252 I-1.679 J3.861
G1 X13.625 Y-43.379
G3 X13.299 Y-43.059 I-0.326 J-0.006
G1 X-11.233
G3 X-11.558 Y-43.379 I0 J-0.325
G1 X-12.229 Y-90.272
G3 X-11.912 Y-90.612 I0.336 J-0.005
G1 X1.021 Y-90.961
X13.953 Y-90.612
G3 X14.27 Y-90.272 I-0.018 J0.335
G1 X13.986 Y-73.156
G2 X14.022 Y-72.487 I8.617 J-0.123
G3 X14.068 Y-71.818 I-14.231 J1.314
G1 X13.919 Y-62.252
G2 X16.458 Y-58.302 I4.239 J0.066
G3 X18.998 Y-54.352 I-1.69 J3.877
G1 X18.721 Y-38.196
G3 X18.394 Y-37.875 I-0.326 J-0.006
G1 X-16.343
G3 X-16.668 Y-38.196 I0 J-0.325
G1 X-17.482 Y-95.12
G3 X-17.164 Y-95.469 I0.344 J-0.005
X19.205 Y-95.469 I18.184 J244.463
X19.524 Y-95.12 I-0.026 J0.343
G1 X19.183 Y-73.23
G2 X19.219 Y-72.738 I4.255 J-0.061
G3 X19.281 Y-72.248 I-58.138 J7.626
X19.299 Y-71.915 I-2.377 J0.291
G1 X18.998 Y-54.352
G2 X21.525 Y-50.417 I4.215 J0.072
G3 X24.052 Y-46.482 I-1.688 J3.863
G1 X23.888 Y-36.903
G3 X19.598 Y-32.687 I-4.289 J-0.073
G1 X-21.778
X-22.35 Y-72.636
X-22.729 Y-99.118
X-22.727 Y-99.231
X-22.723 Y-99.29
X-22.716 Y-99.349
X-22.706 Y-99.407
X-22.693 Y-99.465
X-22.676 Y-99.523
X-22.657 Y-99.578
X-22.635 Y-99.633
X-22.609 Y-99.688
X-22.581 Y-99.74
X-22.55 Y-99.791
X-22.516 Y-99.841
X-22.482 Y-99.885
X-22.444 Y-99.93
X-22.4 Y-99.976
X-22.359 Y-100.016
X-22.312 Y-100.055
X-22.264 Y-100.092
X-22.222 Y-100.121
X-22.169 Y-100.153
X-22.109 Y-100.185
X-22.059 Y-100.208
X-22.01 Y-100.228
X-21.944 Y-100.251
X-21.888 Y-100.267
X-21.837 Y-100.278
X-21.776 Y-100.289
X-21.662 Y-100.302
G3 X23.704 Y-100.302 I22.683 J249.004
G1 X23.817 Y-100.289
X23.878 Y-100.278
X23.936 Y-100.265
X23.99 Y-100.25
X24.042 Y-100.232
X24.098 Y-100.209
X24.155 Y-100.182
X24.205 Y-100.156
X24.257 Y-100.124
X24.309 Y-100.089
X24.355 Y-100.054
X24.4 Y-100.015
X24.442 Y-99.976
X24.481 Y-99.935
X24.523 Y-99.886
X24.559 Y-99.839
X24.592 Y-99.791
X24.622 Y-99.74
X24.65 Y-99.688
X24.677 Y-99.632
X24.698 Y-99.579
X24.717 Y-99.524
X24.734 Y-99.466
X24.747 Y-99.407
X24.757 Y-99.349
X24.765 Y-99.29
X24.768 Y-99.231
X24.77 Y-99.119
X24.402 Y-73.418
G2 X24.498 Y-72.494 I3.965 J0.057
G1 X24.052 Y-46.482
G3 X23.458 Y-46.233 I-0.351 J-0.006
G1 X22.33 Y-47.314
X-1.594 Y-76.472
X-1.621 Y-76.494
X-1.655 Y-76.502
X-1.893 Y-76.507
X-1.922 Y-76.513
X-1.946 Y-76.528
X-1.964 Y-76.551
G3 X3.415 Y-79.241 Z-5.43 I2.689 J-1.345 F166.7
X-1.964 Y-76.551 Z-5.76 I-2.689 J1.345
X3.415 Y-79.241 Z-6.09 I2.689 J-1.345
X-1.964 Y-76.551 Z-6.419 I-2.689 J1.345
X3.415 Y-79.241 Z-6.749 I2.689 J-1.345
X3.732 Y-77.839 Z-6.8 I-2.689 J1.345
X3.69 Y-75.855 I-505.022 J-9.659 F700
G2 X3.706 Y-71.437 I82.686 J1.906
G1 X3.448 Y-53.733
G3 X3.121 Y-53.412 I-0.326 J-0.006
G1 X-1.027
G3 X-1.352 Y-53.733 I0 J-0.325
G1 X-1.731 Y-80.272
G3 X-1.416 Y-80.595 I0.318 J-0.005
X3.457 Y-80.595 I2.437 J248.498
X3.772 Y-80.272 I-0.003 J0.318
X3.732 Y-77.839 I-505.063 J-7.225
G2 X6.294 Y-73.972 I4.081 J0.078
G3 X8.857 Y-70.105 I-1.542 J3.804
G1 X8.53 Y-48.563
G3 X8.204 Y-48.242 I-0.326 J-0.006
G1 X-6.123
G3 X-6.448 Y-48.563 I0 J-0.325
G1 X-6.974 Y-85.321
G3 X-6.658 Y-85.652 I0.327 J-0.005
X1.021 Y-85.778 I7.808 J242.237
X8.699 Y-85.652 I0 J234.48
X9.015 Y-85.321 I-0.011 J0.326
X8.866 Y-79.202 I-300.759 J-4.302
G2 X8.803 Y-73.082 I124.954 J4.332
X8.838 Y-72.345 I11.45 J-0.164
G3 X8.88 Y-71.609 I-17.327 J1.367
G1 X8.857 Y-70.105
G2 X11.388 Y-66.178 I4.212 J0.064
G3 X13.919 Y-62.252 I-1.679 J3.861
G1 X13.625 Y-43.379
G3 X13.299 Y-43.059 I-0.326 J-0.006
G1 X-11.233
G3 X-11.558 Y-43.379 I0 J-0.325
G1 X-12.229 Y-90.272
G3 X-11.912 Y-90.612 I0.336 J-0.005
G1 X1.021 Y-90.961
X13.953 Y-90.612
G3 X14.27 Y-90.272 I-0.018 J0.335
G1 X13.986 Y-73.156
G2 X14.022 Y-72.487 I8.617 J-0.123
G3 X14.068 Y-71.818 I-14.231 J1.314
G1 X13.919 Y-62.252
G2 X16.458 Y-58.302 I4.239 J0.066
G3 X18.998 Y-54.352 I-1.69 J3.877
G1 X18.721 Y-38.196
G3 X18.394 Y-37.875 I-0.326 J-0.006
G1 X-16.343
G3 X-16.668 Y-38.196 I0 J-0.325
G1 X-17.482 Y-95.12
G3 X-17.164 Y-95.469 I0.344 J-0.005
X19.205 Y-95.469 I18.184 J244.463
X19.524 Y-95.12 I-0.026 J0.343
G1 X19.183 Y-73.23
G2 X19.219 Y-72.738 I4.255 J-0.061
G3 X19.281 Y-72.248 I-58.138 J7.626
X19.299 Y-71.915 I-2.377 J0.291
G1 X18.998 Y-54.352
G2 X21.525 Y-50.417 I4.215 J0.072
G3 X24.052 Y-46.482 I-1.688 J3.863
G1 X23.888 Y-36.903
G3 X19.598 Y-32.687 I-4.289 J-0.073
G1 X-21.778
X-22.35 Y-72.636
X-22.729 Y-99.118
X-22.727 Y-99.231
X-22.723 Y-99.29
X-22.716 Y-99.349
X-22.706 Y-99.407
X-22.693 Y-99.465
X-22.676 Y-99.523
X-22.657 Y-99.578
X-22.635 Y-99.633
X-22.609 Y-99.688
X-22.581 Y-99.74
X-22.55 Y-99.791
X-22.516 Y-99.841
X-22.482 Y-99.885
X-22.444 Y-99.93
X-22.4 Y-99.976
X-22.359 Y-100.016
X-22.312 Y-100.055
X-22.264 Y-100.092
X-22.222 Y-100.121
X-22.169 Y-100.153
X-22.109 Y-100.185
X-22.059 Y-100.208
X-22.01 Y-100.228
X-21.944 Y-100.251
X-21.888 Y-100.267
X-21.837 Y-100.278
X-21.776 Y-100.289
X-21.662 Y-100.302
G3 X23.704 Y-100.302 I22.683 J249.004
G1 X23.817 Y-100.289
X23.878 Y-100.278
X23.936 Y-100.265
X23.99 Y-100.25
X24.042 Y-100.232
X24.098 Y-100.209
X24.155 Y-100.182
X24.205 Y-100.156
X24.257 Y-100.124
X24.309 Y-100.089
X24.355 Y-100.054
X24.4 Y-100.015
X24.442 Y-99.976
X24.481 Y-99.935
X24.523 Y-99.886
X24.559 Y-99.839
X24.592 Y-99.791
X24.622 Y-99.74
X24.65 Y-99.688
X24.677 Y-99.632
X24.698 Y-99.579
X24.717 Y-99.524
X24.734 Y-99.466
X24.747 Y-99.407
X24.757 Y-99.349
X24.765 Y-99.29
X24.768 Y-99.231
X24.77 Y-99.119
X24.402 Y-73.418
G2 X24.498 Y-72.494 I3.965 J0.057
G1 X24.052 Y-46.482
G3 X23.458 Y-46.233 I-0.351 J-0.006
G1 X22.33 Y-47.314
X-1.594 Y-76.472
X-1.621 Y-76.494
X-1.655 Y-76.502
X-1.893 Y-76.507
X-1.922 Y-76.513
X-1.946 Y-76.528
X-1.964 Y-76.551
G3 X3.415 Y-79.241 Z-7.13 I2.689 J-1.345 F166.7
X-1.964 Y-76.551 Z-7.46 I-2.689 J1.345
X3.415 Y-79.241 Z-7.79 I2.689 J-1.345
X-1.964 Y-76.551 Z-8.119 I-2.689 J1.345
X3.415 Y-79.241 Z-8.449 I2.689 J-1.345
X3.732 Y-77.839 Z-8.5 I-2.689 J1.345
X3.69 Y-75.855 I-505.022 J-9.659 F700
G2 X3.706 Y-71.437 I82.686 J1.906
G1 X3.448 Y-53.733
G3 X3.121 Y-53.412 I-0.326 J-0.006
G1 X-1.027
G3 X-1.352 Y-53.733 I0 J-0.325
G1 X-1.731 Y-80.272
G3 X-1.416 Y-80.595 I0.318 J-0.005
X3.457 Y-80.595 I2.437 J248.498
X3.772 Y-80.272 I-0.003 J0.318
X3.732 Y-77.839 I-505.063 J-7.225
G2 X6.294 Y-73.972 I4.081 J0.078
G3 X8.857 Y-70.105 I-1.542 J3.804
G1 X8.53 Y-48.563
G3 X8.204 Y-48.242 I-0.326 J-0.006
G1 X-6.123
G3 X-6.448 Y-48.563 I0 J-0.325
G1 X-6.974 Y-85.321
G3 X-6.658 Y-85.652 I0.327 J-0.005
X1.021 Y-85.778 I7.808 J242.237
X8.699 Y-85.652 I0 J234.48
X9.015 Y-85.321 I-0.011 J0.326
X8.866 Y-79.202 I-300.759 J-4.302
G2 X8.803 Y-73.082 I124.954 J4.332
X8.838 Y-72.345 I11.45 J-0.164
G3 X8.88 Y-71.609 I-17.327 J1.367
G1 X8.857 Y-70.105
G2 X11.388 Y-66.178 I4.212 J0.064
G3 X13.919 Y-62.252 I-1.679 J3.861
G1 X13.625 Y-43.379
G3 X13.299 Y-43.059 I-0.326 J-0.006
G1 X-11.233
G3 X-11.558 Y-43.379 I0 J-0.325
G1 X-12.229 Y-90.272
G3 X-11.912 Y-90.612 I0.336 J-0.005
G1 X1.021 Y-90.961
X13.953 Y-90.612
G3 X14.27 Y-90.272 I-0.018 J0.335
G1 X13.986 Y-73.156
G2 X14.022 Y-72.487 I8.617 J-0.123
G3 X14.068 Y-71.818 I-14.231 J1.314
G1 X13.919 Y-62.252
G2 X16.458 Y-58.302 I4.239 J0.066
G3 X18.998 Y-54.352 I-1.69 J3.877
G1 X18.721 Y-38.196
G3 X18.394 Y-37.875 I-0.326 J-0.006
G1 X-16.343
G3 X-16.668 Y-38.196 I0 J-0.325
G1 X-17.482 Y-95.12
G3 X-17.164 Y-95.469 I0.344 J-0.005
X19.205 Y-95.469 I18.184 J244.463
X19.524 Y-95.12 I-0.026 J0.343
G1 X19.183 Y-73.23
G2 X19.219 Y-72.738 I4.255 J-0.061
G3 X19.281 Y-72.248 I-58.138 J7.626
X19.299 Y-71.915 I-2.377 J0.291
G1 X18.998 Y-54.352
G2 X21.525 Y-50.417 I4.215 J0.072
G3 X24.052 Y-46.482 I-1.688 J3.863
G1 X23.888 Y-36.903
G3 X19.598 Y-32.687 I-4.289 J-0.073
G1 X-21.778
X-22.35 Y-72.636
X-22.729 Y-99.118
X-22.727 Y-99.231
X-22.723 Y-99.29
X-22.716 Y-99.349
X-22.706 Y-99.407
X-22.693 Y-99.465
X-22.676 Y-99.523
X-22.657 Y-99.578
X-22.635 Y-99.633
X-22.609 Y-99.688
X-22.581 Y-99.74
X-22.55 Y-99.791
X-22.516 Y-99.841
X-22.482 Y-99.885
X-22.444 Y-99.93
X-22.4 Y-99.976
X-22.359 Y-100.016
X-22.312 Y-100.055
X-22.264 Y-100.092
X-22.222 Y-100.121
X-22.169 Y-100.153
X-22.109 Y-100.185
X-22.059 Y-100.208
X-22.01 Y-100.228
X-21.944 Y-100.251
X-21.888 Y-100.267
X-21.837 Y-100.278
X-21.776 Y-100.289
X-21.662 Y-100.302
G3 X23.704 Y-100.302 I22.683 J249.004
G1 X23.817 Y-100.289
X23.878 Y-100.278
X23.936 Y-100.265
X23.99 Y-100.25
X24.042 Y-100.232
X24.098 Y-100.209
X24.155 Y-100.182
X24.205 Y-100.156
X24.257 Y-100.124
X24.309 Y-100.089
X24.355 Y-100.054
X24.4 Y-100.015
X24.442 Y-99.976
X24.481 Y-99.935
X24.523 Y-99.886
X24.559 Y-99.839
X24.592 Y-99.791
X24.622 Y-99.74
X24.65 Y-99.688
X24.677 Y-99.632
X24.698 Y-99.579
X24.717 Y-99.524
X24.734 Y-99.466
X24.747 Y-99.407
X24.757 Y-99.349
X24.765 Y-99.29
X24.768 Y-99.231
X24.77 Y-99.119
X24.402 Y-73.418
G2 X24.498 Y-72.494 I3.965 J0.057
G1 X24.052 Y-46.482
G3 X23.458 Y-46.233 I-0.351 J-0.006
G1 X22.33 Y-47.314
X-1.594 Y-76.472
X-1.621 Y-76.494
X-1.655 Y-76.502
X-1.893 Y-76.507
X-1.922 Y-76.513
X-1.946 Y-76.528
X-1.964 Y-76.551
G3 X3.415 Y-79.241 Z-8.83 I2.689 J-1.345 F166.7
X-1.964 Y-76.551 Z-9.16 I-2.689 J1.345
X3.415 Y-79.241 Z-9.49 I2.689 J-1.345
X-1.964 Y-76.551 Z-9.819 I-2.689 J1.345
X3.415 Y-79.241 Z-10.149 I2.689 J-1.345
X3.732 Y-77.839 Z-10.2 I-2.689 J1.345
X3.69 Y-75.855 I-505.022 J-9.659 F700
G2 X3.706 Y-71.437 I82.686 J1.906
G1 X3.448 Y-53.733
G3 X3.121 Y-53.412 I-0.326 J-0.006
G1 X-1.027
G3 X-1.352 Y-53.733 I0 J-0.325
G1 X-1.731 Y-80.272
G3 X-1.416 Y-80.595 I0.318 J-0.005
X3.457 Y-80.595 I2.437 J248.498
X3.772 Y-80.272 I-0.003 J0.318
X3.732 Y-77.839 I-505.063 J-7.225
G2 X6.294 Y-73.972 I4.081 J0.078
G3 X8.857 Y-70.105 I-1.542 J3.804
G1 X8.53 Y-48.563
G3 X8.204 Y-48.242 I-0.326 J-0.006
G1 X-6.123
G3 X-6.448 Y-48.563 I0 J-0.325
G1 X-6.974 Y-85.321
G3 X-6.658 Y-85.652 I0.327 J-0.005
X1.021 Y-85.778 I7.808 J242.237
X8.699 Y-85.652 I0 J234.48
X9.015 Y-85.321 I-0.011 J0.326
X8.866 Y-79.202 I-300.759 J-4.302
G2 X8.803 Y-73.082 I124.954 J4.332
X8.838 Y-72.345 I11.45 J-0.164
G3 X8.88 Y-71.609 I-17.327 J1.367
G1 X8.857 Y-70.105
G2 X11.388 Y-66.178 I4.212 J0.064
G3 X13.919 Y-62.252 I-1.679 J3.861
G1 X13.625 Y-43.379
G3 X13.299 Y-43.059 I-0.326 J-0.006
G1 X-11.233
G3 X-11.558 Y-43.379 I0 J-0.325
G1 X-12.229 Y-90.272
G3 X-11.912 Y-90.612 I0.336 J-0.005
G1 X1.021 Y-90.961
X13.953 Y-90.612
G3 X14.27 Y-90.272 I-0.018 J0.335
G1 X13.986 Y-73.156
G2 X14.022 Y-72.487 I8.617 J-0.123
G3 X14.068 Y-71.818 I-14.231 J1.314
G1 X13.919 Y-62.252
G2 X16.458 Y-58.302 I4.239 J0.066
G3 X18.998 Y-54.352 I-1.69 J3.877
G1 X18.721 Y-38.196
G3 X18.394 Y-37.875 I-0.326 J-0.006
G1 X-16.343
G3 X-16.668 Y-38.196 I0 J-0.325
G1 X-17.482 Y-95.12
G3 X-17.164 Y-95.469 I0.344 J-0.005
X19.205 Y-95.469 I18.184 J244.463
X19.524 Y-95.12 I-0.026 J0.343
G1 X19.183 Y-73.23
G2 X19.219 Y-72.738 I4.255 J-0.061
G3 X19.281 Y-72.248 I-58.138 J7.626
X19.299 Y-71.915 I-2.377 J0.291
G1 X18.998 Y-54.352
G2 X21.525 Y-50.417 I4.215 J0.072
G3 X24.052 Y-46.482 I-1.688 J3.863
G1 X23.888 Y-36.903
G3 X19.598 Y-32.687 I-4.289 J-0.073
G1 X-21.778
X-22.35 Y-72.636
X-22.729 Y-99.118
X-22.727 Y-99.231
X-22.723 Y-99.29
X-22.716 Y-99.349
X-22.706 Y-99.407
X-22.693 Y-99.465
X-22.676 Y-99.523
X-22.657 Y-99.578
X-22.635 Y-99.633
X-22.609 Y-99.688
X-22.581 Y-99.74
X-22.55 Y-99.791
X-22.516 Y-99.841
X-22.482 Y-99.885
X-22.444 Y-99.93
X-22.4 Y-99.976
X-22.359 Y-100.016
X-22.312 Y-100.055
X-22.264 Y-100.092
X-22.222 Y-100.121
X-22.169 Y-100.153
X-22.109 Y-100.185
X-22.059 Y-100.208
X-22.01 Y-100.228
X-21.944 Y-100.251
X-21.888 Y-100.267
X-21.837 Y-100.278
X-21.776 Y-100.289
X-21.662 Y-100.302
G3 X23.704 Y-100.302 I22.683 J249.004
G1 X23.817 Y-100.289
X23.878 Y-100.278
X23.936 Y-100.265
X23.99 Y-100.25
X24.042 Y-100.232
X24.098 Y-100.209
X24.155 Y-100.182
X24.205 Y-100.156
X24.257 Y-100.124
X24.309 Y-100.089
X24.355 Y-100.054
X24.4 Y-100.015
X24.442 Y-99.976
X24.481 Y-99.935
X24.523 Y-99.886
X24.559 Y-99.839
X24.592 Y-99.791
X24.622 Y-99.74
X24.65 Y-99.688
X24.677 Y-99.632
X24.698 Y-99.579
X24.717 Y-99.524
X24.734 Y-99.466
X24.747 Y-99.407
X24.757 Y-99.349
X24.765 Y-99.29
X24.768 Y-99.231
X24.77 Y-99.119
X24.402 Y-73.418
G2 X24.498 Y-72.494 I3.965 J0.057
G1 X24.052 Y-46.482
G3 X23.458 Y-46.233 I-0.351 J-0.006
G1 X22.33 Y-47.314
X-1.594 Y-76.472
X-1.621 Y-76.494
X-1.655 Y-76.502
X-1.893 Y-76.507
X-1.922 Y-76.513
X-1.946 Y-76.528
X-1.964 Y-76.551
G3 X3.415 Y-79.241 Z-10.53 I2.689 J-1.345 F166.7
X-1.964 Y-76.551 Z-10.86 I-2.689 J1.345
X3.415 Y-79.241 Z-11.19 I2.689 J-1.345
X-1.964 Y-76.551 Z-11.519 I-2.689 J1.345
X3.415 Y-79.241 Z-11.849 I2.689 J-1.345
X3.732 Y-77.839 Z-11.9 I-2.689 J1.345
X3.69 Y-75.855 I-505.022 J-9.659 F700
G2 X3.706 Y-71.437 I82.686 J1.906
G1 X3.448 Y-53.733
G3 X3.121 Y-53.412 I-0.326 J-0.006
G1 X-1.027
G3 X-1.352 Y-53.733 I0 J-0.325
G1 X-1.731 Y-80.272
G3 X-1.416 Y-80.595 I0.318 J-0.005
X3.457 Y-80.595 I2.437 J248.498
X3.772 Y-80.272 I-0.003 J0.318
X3.732 Y-77.839 I-505.063 J-7.225
G2 X6.294 Y-73.972 I4.081 J0.078
G3 X8.857 Y-70.105 I-1.542 J3.804
G1 X8.53 Y-48.563
G3 X8.204 Y-48.242 I-0.326 J-0.006
G1 X-6.123
G3 X-6.448 Y-48.563 I0 J-0.325
G1 X-6.974 Y-85.321
G3 X-6.658 Y-85.652 I0.327 J-0.005
X1.021 Y-85.778 I7.808 J242.237
X8.699 Y-85.652 I0 J234.48
X9.015 Y-85.321 I-0.011 J0.326
X8.866 Y-79.202 I-300.759 J-4.302
G2 X8.803 Y-73.082 I124.954 J4.332
X8.838 Y-72.345 I11.45 J-0.164
G3 X8.88 Y-71.609 I-17.327 J1.367
G1 X8.857 Y-70.105
G2 X11.388 Y-66.178 I4.212 J0.064
G3 X13.919 Y-62.252 I-1.679 J3.861
G1 X13.625 Y-43.379
G3 X13.299 Y-43.059 I-0.326 J-0.006
G1 X-11.233
G3 X-11.558 Y-43.379 I0 J-0.325
G1 X-12.229 Y-90.272
G3 X-11.912 Y-90.612 I0.336 J-0.005
G1 X1.021 Y-90.961
X13.953 Y-90.612
G3 X14.27 Y-90.272 I-0.018 J0.335
G1 X13.986 Y-73.156
G2 X14.022 Y-72.487 I8.617 J-0.123
G3 X14.068 Y-71.818 I-14.231 J1.314
G1 X13.919 Y-62.252
G2 X16.458 Y-58.302 I4.239 J0.066
G3 X18.998 Y-54.352 I-1.69 J3.877
G1 X18.721 Y-38.196
G3 X18.394 Y-37.875 I-0.326 J-0.006
G1 X-16.343
G3 X-16.668 Y-38.196 I0 J-0.325
G1 X-17.482 Y-95.12
G3 X-17.164 Y-95.469 I0.344 J-0.005
X19.205 Y-95.469 I18.184 J244.463
X19.524 Y-95.12 I-0.026 J0.343
G1 X19.183 Y-73.23
G2 X19.219 Y-72.738 I4.255 J-0.061
G3 X19.281 Y-72.248 I-58.138 J7.626
X19.299 Y-71.915 I-2.377 J0.291
G1 X18.998 Y-54.352
G2 X21.525 Y-50.417 I4.215 J0.072
G3 X24.052 Y-46.482 I-1.688 J3.863
G1 X23.888 Y-36.903
G3 X19.598 Y-32.687 I-4.289 J-0.073
G1 X-21.778
X-22.35 Y-72.636
X-22.729 Y-99.118
X-22.727 Y-99.231
X-22.723 Y-99.29
X-22.716 Y-99.349
X-22.706 Y-99.407
X-22.693 Y-99.465
X-22.676 Y-99.523
X-22.657 Y-99.578
X-22.635 Y-99.633
X-22.609 Y-99.688
X-22.581 Y-99.74
X-22.55 Y-99.791
X-22.516 Y-99.841
X-22.482 Y-99.885
X-22.444 Y-99.93
X-22.4 Y-99.976
X-22.359 Y-100.016
X-22.312 Y-100.055
X-22.264 Y-100.092
X-22.222 Y-100.121
X-22.169 Y-100.153
X-22.109 Y-100.185
X-22.059 Y-100.208
X-22.01 Y-100.228
X-21.944 Y-100.251
X-21.888 Y-100.267
X-21.837 Y-100.278
X-21.776 Y-100.289
X-21.662 Y-100.302
G3 X23.704 Y-100.302 I22.683 J249.004
G1 X23.817 Y-100.289
X23.878 Y-100.278
X23.936 Y-100.265
X23.99 Y-100.25
X24.042 Y-100.232
X24.098 Y-100.209
X24.155 Y-100.182
X24.205 Y-100.156
X24.257 Y-100.124
X24.309 Y-100.089
X24.355 Y-100.054
X24.4 Y-100.015
X24.442 Y-99.976
X24.481 Y-99.935
X24.523 Y-99.886
X24.559 Y-99.839
X24.592 Y-99.791
X24.622 Y-99.74
X24.65 Y-99.688
X24.677 Y-99.632
X24.698 Y-99.579
X24.717 Y-99.524
X24.734 Y-99.466
X24.747 Y-99.407
X24.757 Y-99.349
X24.765 Y-99.29
X24.768 Y-99.231
X24.77 Y-99.119
X24.402 Y-73.418
G2 X24.498 Y-72.494 I3.965 J0.057
G1 X24.052 Y-46.482
G3 X23.458 Y-46.233 I-0.351 J-0.006
G1 X22.33 Y-47.314
X-1.594 Y-76.472
X-1.621 Y-76.494
X-1.655 Y-76.502
X-1.893 Y-76.507
X-1.922 Y-76.513
X-1.946 Y-76.528
X-1.964 Y-76.551
G3 X3.415 Y-79.241 Z-12.23 I2.689 J-1.345 F166.7
X-1.964 Y-76.551 Z-12.56 I-2.689 J1.345
X3.415 Y-79.241 Z-12.89 I2.689 J-1.345
X-1.964 Y-76.551 Z-13.219 I-2.689 J1.345
X3.415 Y-79.241 Z-13.549 I2.689 J-1.345
X3.732 Y-77.839 Z-13.6 I-2.689 J1.345
X3.69 Y-75.855 I-505.022 J-9.659 F700
G2 X3.706 Y-71.437 I82.686 J1.906
G1 X3.448 Y-53.733
G3 X3.121 Y-53.412 I-0.326 J-0.006
G1 X-1.027
G3 X-1.352 Y-53.733 I0 J-0.325
G1 X-1.731 Y-80.272
G3 X-1.416 Y-80.595 I0.318 J-0.005
X3.457 Y-80.595 I2.437 J248.498
X3.772 Y-80.272 I-0.003 J0.318
X3.732 Y-77.839 I-505.063 J-7.225
G2 X6.294 Y-73.972 I4.081 J0.078
G3 X8.857 Y-70.105 I-1.542 J3.804
G1 X8.53 Y-48.563
G3 X8.204 Y-48.242 I-0.326 J-0.006
G1 X-6.123
G3 X-6.448 Y-48.563 I0 J-0.325
G1 X-6.974 Y-85.321
G3 X-6.658 Y-85.652 I0.327 J-0.005
X1.021 Y-85.778 I7.808 J242.237
X8.699 Y-85.652 I0 J234.48
X9.015 Y-85.321 I-0.011 J0.326
X8.866 Y-79.202 I-300.759 J-4.302
G2 X8.803 Y-73.082 I124.954 J4.332
X8.838 Y-72.345 I11.45 J-0.164
G3 X8.88 Y-71.609 I-17.327 J1.367
G1 X8.857 Y-70.105
G2 X11.388 Y-66.178 I4.212 J0.064
G3 X13.919 Y-62.252 I-1.679 J3.861
G1 X13.625 Y-43.379
G3 X13.299 Y-43.059 I-0.326 J-0.006
G1 X-11.233
G3 X-11.558 Y-43.379 I0 J-0.325
G1 X-12.229 Y-90.272
G3 X-11.912 Y-90.612 I0.336 J-0.005
G1 X1.021 Y-90.961
X13.953 Y-90.612
G3 X14.27 Y-90.272 I-0.018 J0.335
G1 X13.986 Y-73.156
G2 X14.022 Y-72.487 I8.617 J-0.123
G3 X14.068 Y-71.818 I-14.231 J1.314
G1 X13.919 Y-62.252
G2 X16.458 Y-58.302 I4.239 J0.066
G3 X18.998 Y-54.352 I-1.69 J3.877
G1 X18.721 Y-38.196
G3 X18.394 Y-37.875 I-0.326 J-0.006
G1 X-16.343
G3 X-16.668 Y-38.196 I0 J-0.325
G1 X-17.482 Y-95.12
G3 X-17.164 Y-95.469 I0.344 J-0.005
X19.205 Y-95.469 I18.184 J244.463
X19.524 Y-95.12 I-0.026 J0.343
G1 X19.183 Y-73.23
G2 X19.219 Y-72.738 I4.255 J-0.061
G3 X19.281 Y-72.248 I-58.138 J7.626
X19.299 Y-71.915 I-2.377 J0.291
G1 X18.998 Y-54.352
G2 X21.525 Y-50.417 I4.215 J0.072
G3 X24.052 Y-46.482 I-1.688 J3.863
G1 X23.888 Y-36.903
G3 X19.598 Y-32.687 I-4.289 J-0.073
G1 X-21.778
X-22.35 Y-72.636
X-22.729 Y-99.118
X-22.727 Y-99.231
X-22.723 Y-99.29
X-22.716 Y-99.349
X-22.706 Y-99.407
X-22.693 Y-99.465
X-22.676 Y-99.523
X-22.657 Y-99.578
X-22.635 Y-99.633
X-22.609 Y-99.688
X-22.581 Y-99.74
X-22.55 Y-99.791
X-22.516 Y-99.841
X-22.482 Y-99.885
X-22.444 Y-99.93
X-22.4 Y-99.976
X-22.359 Y-100.016
X-22.312 Y-100.055
X-22.264 Y-100.092
X-22.222 Y-100.121
X-22.169 Y-100.153
X-22.109 Y-100.185
X-22.059 Y-100.208
X-22.01 Y-100.228
X-21.944 Y-100.251
X-21.888 Y-100.267
X-21.837 Y-100.278
X-21.776 Y-100.289
X-21.662 Y-100.302
G3 X23.704 Y-100.302 I22.683 J249.004
G1 X23.817 Y-100.289
X23.878 Y-100.278
X23.936 Y-100.265
X23.99 Y-100.25
X24.042 Y-100.232
X24.098 Y-100.209
X24.155 Y-100.182
X24.205 Y-100.156
X24.257 Y-100.124
X24.309 Y-100.089
X24.355 Y-100.054
X24.4 Y-100.015
X24.442 Y-99.976
X24.481 Y-99.935
X24.523 Y-99.886
X24.559 Y-99.839
X24.592 Y-99.791
X24.622 Y-99.74
X24.65 Y-99.688
X24.677 Y-99.632
X24.698 Y-99.579
X24.717 Y-99.524
X24.734 Y-99.466
X24.747 Y-99.407
X24.757 Y-99.349
X24.765 Y-99.29
X24.768 Y-99.231
X24.77 Y-99.119
X24.402 Y-73.418
G2 X24.498 Y-72.494 I3.965 J0.057
G1 X24.052 Y-46.482
G3 X23.458 Y-46.233 I-0.351 J-0.006
G1 X22.33 Y-47.314
X-1.594 Y-76.472
X-1.621 Y-76.494
X-1.655 Y-76.502
X-1.893 Y-76.507
X-1.922 Y-76.513
X-1.946 Y-76.528
X-1.964 Y-76.551
G3 X3.415 Y-79.241 Z-13.93 I2.689 J-1.345 F166.7
X-1.964 Y-76.551 Z-14.26 I-2.689 J1.345
X3.415 Y-79.241 Z-14.59 I2.689 J-1.345
X-1.964 Y-76.551 Z-14.919 I-2.689 J1.345
X3.415 Y-79.241 Z-15.249 I2.689 J-1.345
X3.732 Y-77.839 Z-15.3 I-2.689 J1.345
X3.69 Y-75.855 I-505.022 J-9.659 F700
G2 X3.706 Y-71.437 I82.686 J1.906
G1 X3.448 Y-53.733
G3 X3.121 Y-53.412 I-0.326 J-0.006
G1 X-1.027
G3 X-1.352 Y-53.733 I0 J-0.325
G1 X-1.731 Y-80.272
G3 X-1.416 Y-80.595 I0.318 J-0.005
X3.457 Y-80.595 I2.437 J248.498
X3.772 Y-80.272 I-0.003 J0.318
X3.732 Y-77.839 I-505.063 J-7.225
G2 X6.294 Y-73.972 I4.081 J0.078
G3 X8.857 Y-70.105 I-1.542 J3.804
G1 X8.53 Y-48.563
G3 X8.204 Y-48.242 I-0.326 J-0.006
G1 X-6.123
G3 X-6.448 Y-48.563 I0 J-0.325
G1 X-6.974 Y-85.321
G3 X-6.658 Y-85.652 I0.327 J-0.005
X1.021 Y-85.778 I7.808 J242.237
X8.699 Y-85.652 I0 J234.48
X9.015 Y-85.321 I-0.011 J0.326
X8.866 Y-79.202 I-300.759 J-4.302
G2 X8.803 Y-73.082 I124.954 J4.332
X8.838 Y-72.345 I11.45 J-0.164
G3 X8.88 Y-71.609 I-17.327 J1.367
G1 X8.857 Y-70.105
G2 X11.388 Y-66.178 I4.212 J0.064
G3 X13.919 Y-62.252 I-1.679 J3.861
G1 X13.625 Y-43.379
G3 X13.299 Y-43.059 I-0.326 J-0.006
G1 X-11.233
G3 X-11.558 Y-43.379 I0 J-0.325
G1 X-12.229 Y-90.272
G3 X-11.912 Y-90.612 I0.336 J-0.005
G1 X1.021 Y-90.961
X13.953 Y-90.612
G3 X14.27 Y-90.272 I-0.018 J0.335
G1 X13.986 Y-73.156
G2 X14.022 Y-72.487 I8.617 J-0.123
G3 X14.068 Y-71.818 I-14.231 J1.314
G1 X13.919 Y-62.252
G2 X16.458 Y-58.302 I4.239 J0.066
G3 X18.998 Y-54.352 I-1.69 J3.877
G1 X18.721 Y-38.196
G3 X18.394 Y-37.875 I-0.326 J-0.006
G1 X-16.343
G3 X-16.668 Y-38.196 I0 J-0.325
G1 X-17.482 Y-95.12
G3 X-17.164 Y-95.469 I0.344 J-0.005
X19.205 Y-95.469 I18.184 J244.463
X19.524 Y-95.12 I-0.026 J0.343
G1 X19.183 Y-73.23
G2 X19.219 Y-72.738 I4.255 J-0.061
G3 X19.281 Y-72.248 I-58.138 J7.626
X19.299 Y-71.915 I-2.377 J0.291
G1 X18.998 Y-54.352
G2 X21.525 Y-50.417 I4.215 J0.072
G3 X24.052 Y-46.482 I-1.688 J3.863
G1 X23.888 Y-36.903
G3 X19.598 Y-32.687 I-4.289 J-0.073
G1 X-21.778
X-22.35 Y-72.636
X-22.729 Y-99.118
X-22.727 Y-99.231
X-22.723 Y-99.29
X-22.716 Y-99.349
X-22.706 Y-99.407
X-22.693 Y-99.465
X-22.676 Y-99.523
X-22.657 Y-99.578
X-22.635 Y-99.633
X-22.609 Y-99.688
X-22.581 Y-99.74
X-22.55 Y-99.791
X-22.516 Y-99.841
X-22.482 Y-99.885
X-22.444 Y-99.93
X-22.4 Y-99.976
X-22.359 Y-100.016
X-22.312 Y-100.055
X-22.264 Y-100.092
X-22.222 Y-100.121
X-22.169 Y-100.153
X-22.109 Y-100.185
X-22.059 Y-100.208
X-22.01 Y-100.228
X-21.944 Y-100.251
X-21.888 Y-100.267
X-21.837 Y-100.278
X-21.776 Y-100.289
X-21.662 Y-100.302
G3 X23.704 Y-100.302 I22.683 J249.004
G1 X23.817 Y-100.289
X23.878 Y-100.278
X23.936 Y-100.265
X23.99 Y-100.25
X24.042 Y-100.232
X24.098 Y-100.209
X24.155 Y-100.182
X24.205 Y-100.156
X24.257 Y-100.124
X24.309 Y-100.089
X24.355 Y-100.054
X24.4 Y-100.015
X24.442 Y-99.976
X24.481 Y-99.935
X24.523 Y-99.886
X24.559 Y-99.839
X24.592 Y-99.791
X24.622 Y-99.74
X24.65 Y-99.688
X24.677 Y-99.632
X24.698 Y-99.579
X24.717 Y-99.524
X24.734 Y-99.466
X24.747 Y-99.407
X24.757 Y-99.349
X24.765 Y-99.29
X24.768 Y-99.231
X24.77 Y-99.119
X24.402 Y-73.418
G2 X24.498 Y-72.494 I3.965 J0.057
G1 X24.052 Y-46.482
G3 X23.458 Y-46.233 I-0.351 J-0.006
G1 X22.33 Y-47.314
X-1.594 Y-76.472
X-1.621 Y-76.494
X-1.655 Y-76.502
X-1.893 Y-76.507
X-1.922 Y-76.513
X-1.946 Y-76.528
X-1.964 Y-76.551
G3 X3.415 Y-79.241 Z-15.63 I2.689 J-1.345 F166.7
X-1.964 Y-76.551 Z-15.96 I-2.689 J1.345
X3.415 Y-79.241 Z-16.29 I2.689 J-1.345
X-1.964 Y-76.551 Z-16.619 I-2.689 J1.345
X3.415 Y-79.241 Z-16.949 I2.689 J-1.345
X3.732 Y-77.839 Z-17 I-2.689 J1.345
X3.69 Y-75.855 I-505.022 J-9.659 F700
G2 X3.706 Y-71.437 I82.686 J1.906
G1 X3.448 Y-53.733
G3 X3.121 Y-53.412 I-0.326 J-0.006
G1 X-1.027
G3 X-1.352 Y-53.733 I0 J-0.325
G1 X-1.731 Y-80.272
G3 X-1.416 Y-80.595 I0.318 J-0.005
X3.457 Y-80.595 I2.437 J248.498
X3.772 Y-80.272 I-0.003 J0.318
X3.732 Y-77.839 I-505.063 J-7.225
G2 X6.294 Y-73.972 I4.081 J0.078
G3 X8.857 Y-70.105 I-1.542 J3.804
G1 X8.53 Y-48.563
G3 X8.204 Y-48.242 I-0.326 J-0.006
G1 X-6.123
G3 X-6.448 Y-48.563 I0 J-0.325
G1 X-6.974 Y-85.321
G3 X-6.658 Y-85.652 I0.327 J-0.005
X1.021 Y-85.778 I7.808 J242.237
X8.699 Y-85.652 I0 J234.48
X9.015 Y-85.321 I-0.011 J0.326
X8.866 Y-79.202 I-300.759 J-4.302
G2 X8.803 Y-73.082 I124.954 J4.332
X8.838 Y-72.345 I11.45 J-0.164
G3 X8.88 Y-71.609 I-17.327 J1.367
G1 X8.857 Y-70.105
G2 X11.388 Y-66.178 I4.212 J0.064
G3 X13.919 Y-62.252 I-1.679 J3.861
G1 X13.625 Y-43.379
G3 X13.299 Y-43.059 I-0.326 J-0.006
G1 X-11.233
G3 X-11.558 Y-43.379 I0 J-0.325
G1 X-12.229 Y-90.272
G3 X-11.912 Y-90.612 I0.336 J-0.005
G1 X1.021 Y-90.961
X13.953 Y-90.612
G3 X14.27 Y-90.272 I-0.018 J0.335
G1 X13.986 Y-73.156
G2 X14.022 Y-72.487 I8.617 J-0.123
G3 X14.068 Y-71.818 I-14.231 J1.314
G1 X13.919 Y-62.252
G2 X16.458 Y-58.302 I4.239 J0.066
G3 X18.998 Y-54.352 I-1.69 J3.877
G1 X18.721 Y-38.196
G3 X18.394 Y-37.875 I-0.326 J-0.006
G1 X-16.343
G3 X-16.668 Y-38.196 I0 J-0.325
G1 X-17.482 Y-95.12
G3 X-17.164 Y-95.469 I0.344 J-0.005
X19.205 Y-95.469 I18.184 J244.463
X19.524 Y-95.12 I-0.026 J0.343
G1 X19.183 Y-73.23
G2 X19.219 Y-72.738 I4.255 J-0.061
G3 X19.281 Y-72.248 I-58.138 J7.626
X19.299 Y-71.915 I-2.377 J0.291
G1 X18.998 Y-54.352
G2 X21.525 Y-50.417 I4.215 J0.072
G3 X24.052 Y-46.482 I-1.688 J3.863
G1 X23.888 Y-36.903
G3 X19.598 Y-32.687 I-4.289 J-0.073
G1 X-21.778
X-22.35 Y-72.636
X-22.729 Y-99.118
X-22.727 Y-99.231
X-22.723 Y-99.29
X-22.716 Y-99.349
X-22.706 Y-99.407
X-22.693 Y-99.465
X-22.676 Y-99.523
X-22.657 Y-99.578
X-22.635 Y-99.633
X-22.609 Y-99.688
X-22.581 Y-99.74
X-22.55 Y-99.791
X-22.516 Y-99.841
X-22.482 Y-99.885
X-22.444 Y-99.93
X-22.4 Y-99.976
X-22.359 Y-100.016
X-22.312 Y-100.055
X-22.264 Y-100.092
X-22.222 Y-100.121
X-22.169 Y-100.153
X-22.109 Y-100.185
X-22.059 Y-100.208
X-22.01 Y-100.228
X-21.944 Y-100.251
X-21.888 Y-100.267
X-21.837 Y-100.278
X-21.776 Y-100.289
X-21.662 Y-100.302
G3 X23.704 Y-100.302 I22.683 J249.004
G1 X23.817 Y-100.289
X23.878 Y-100.278
X23.936 Y-100.265
X23.99 Y-100.25
X24.042 Y-100.232
X24.098 Y-100.209
X24.155 Y-100.182
X24.205 Y-100.156
X24.257 Y-100.124
X24.309 Y-100.089
X24.355 Y-100.054
X24.4 Y-100.015
X24.442 Y-99.976
X24.481 Y-99.935
X24.523 Y-99.886
X24.559 Y-99.839
X24.592 Y-99.791
X24.622 Y-99.74
X24.65 Y-99.688
X24.677 Y-99.632
X24.698 Y-99.579
X24.717 Y-99.524
X24.734 Y-99.466
X24.747 Y-99.407
X24.757 Y-99.349
X24.765 Y-99.29
X24.768 Y-99.231
X24.77 Y-99.119
X24.402 Y-73.418
G2 X24.498 Y-72.494 I3.965 J0.057
G1 X24.052 Y-46.482
G3 X23.456 Y-46.236 I-0.351 J-0.006
G1 X22.342 Y-47.324
X-1.879 Y-77.737
X-2.222 Y-77.853
X-2.253 Y-77.87
X-2.274 Y-77.899
X-2.281 Y-77.934
G3 X3.732 Y-77.858 Z-17.33 I3.007 J0.038 F166.7
X-2.281 Y-77.934 Z-17.66 I-3.007 J-0.038
X3.732 Y-77.858 Z-17.99 I3.007 J0.038
X-2.281 Y-77.934 Z-18.319 I-3.007 J-0.038
X0.773 Y-80.902 Z-18.485 I3.007 J0.038
X3.732 Y-77.839 Z-18.65 I-0.048 J3.006
X3.69 Y-75.855 I-505.022 J-9.659 F700
G2 X3.706 Y-71.437 I82.686 J1.906
G1 X3.448 Y-53.733
G3 X3.121 Y-53.412 I-0.326 J-0.006
G1 X-1.027
G3 X-1.352 Y-53.733 I0 J-0.325
G1 X-1.731 Y-80.272
G3 X-1.416 Y-80.595 I0.318 J-0.005
X3.457 Y-80.595 I2.437 J248.498
X3.772 Y-80.272 I-0.003 J0.318
X3.732 Y-77.839 I-505.063 J-7.225
G2 X6.294 Y-73.972 I4.081 J0.078
G3 X8.857 Y-70.105 I-1.542 J3.804
G1 X8.53 Y-48.563
G3 X8.204 Y-48.242 I-0.326 J-0.006
G1 X-6.123
G3 X-6.448 Y-48.563 I0 J-0.325
G1 X-6.974 Y-85.321
G3 X-6.658 Y-85.652 I0.327 J-0.005
X1.021 Y-85.778 I7.808 J242.237
X8.699 Y-85.652 I0 J234.48
X9.015 Y-85.321 I-0.011 J0.326
X8.866 Y-79.202 I-300.759 J-4.302
G2 X8.803 Y-73.082 I124.954 J4.332
X8.838 Y-72.345 I11.45 J-0.164
G3 X8.88 Y-71.609 I-17.327 J1.367
G1 X8.857 Y-70.105
G2 X11.388 Y-66.178 I4.212 J0.064
G3 X13.919 Y-62.252 I-1.679 J3.861
G1 X13.625 Y-43.379
G3 X13.299 Y-43.059 I-0.326 J-0.006
G1 X-11.233
G3 X-11.558 Y-43.379 I0 J-0.325
G1 X-12.229 Y-90.272
G3 X-11.912 Y-90.612 I0.336 J-0.005
G1 X1.021 Y-90.961
X13.953 Y-90.612
G3 X14.27 Y-90.272 I-0.018 J0.335
G1 X13.986 Y-73.156
G2 X14.022 Y-72.487 I8.617 J-0.123
G3 X14.068 Y-71.818 I-14.231 J1.314
G1 X13.919 Y-62.252
G2 X16.458 Y-58.302 I4.239 J0.066
G3 X18.998 Y-54.352 I-1.69 J3.877
G1 X18.721 Y-38.196
G3 X18.394 Y-37.875 I-0.326 J-0.006
G1 X-16.343
G3 X-16.668 Y-38.196 I0 J-0.325
G1 X-17.482 Y-95.12
G3 X-17.164 Y-95.469 I0.344 J-0.005
X19.205 Y-95.469 I18.184 J244.463
X19.524 Y-95.12 I-0.026 J0.343
G1 X19.183 Y-73.23
G2 X19.219 Y-72.738 I4.255 J-0.061
G3 X19.281 Y-72.248 I-58.138 J7.626
X19.299 Y-71.915 I-2.377 J0.291
G1 X18.998 Y-54.352
G2 X21.525 Y-50.417 I4.215 J0.072
G3 X24.052 Y-46.482 I-1.688 J3.863
G1 X23.888 Y-36.903
G3 X19.598 Y-32.687 I-4.289 J-0.073
G1 X-21.778
X-22.35 Y-72.636
X-22.729 Y-99.118
X-22.727 Y-99.231
X-22.723 Y-99.29
X-22.716 Y-99.349
X-22.706 Y-99.407
X-22.693 Y-99.465
X-22.676 Y-99.523
X-22.657 Y-99.578
X-22.635 Y-99.633
X-22.609 Y-99.688
X-22.581 Y-99.74
X-22.55 Y-99.791
X-22.516 Y-99.841
X-22.482 Y-99.885
X-22.444 Y-99.93
X-22.4 Y-99.976
X-22.359 Y-100.016
X-22.312 Y-100.055
X-22.264 Y-100.092
X-22.222 Y-100.121
X-22.169 Y-100.153
X-22.109 Y-100.185
X-22.059 Y-100.208
X-22.01 Y-100.228
X-21.944 Y-100.251
X-21.888 Y-100.267
X-21.837 Y-100.278
X-21.776 Y-100.289
X-21.662 Y-100.302
G3 X23.704 Y-100.302 I22.683 J249.004
G1 X23.817 Y-100.289
X23.878 Y-100.278
X23.936 Y-100.265
X23.99 Y-100.25
X24.042 Y-100.232
X24.098 Y-100.209
X24.155 Y-100.182
X24.205 Y-100.156
X24.257 Y-100.124
X24.309 Y-100.089
X24.355 Y-100.054
X24.4 Y-100.015
X24.442 Y-99.976
X24.481 Y-99.935
X24.523 Y-99.886
X24.559 Y-99.839
X24.592 Y-99.791
X24.622 Y-99.74
X24.65 Y-99.688
X24.677 Y-99.632
X24.698 Y-99.579
X24.717 Y-99.524
X24.734 Y-99.466
X24.747 Y-99.407
X24.757 Y-99.349
X24.765 Y-99.29
X24.768 Y-99.231
X24.77 Y-99.119
X24.402 Y-73.418
G2 X24.498 Y-72.494 I3.965 J0.057
G1 X24.052 Y-46.482
G3 X23.239 Y-46.172 I-0.468 J-0.008
G1 X21.91 Y-47.617
X21.865 Y-47.673
X0.017 Y-80.297
X-0.246 Y-80.619
X-0.261 Y-80.649
X-0.264 Y-80.681
X-0.255 Y-80.713
X-0.235 Y-80.739
X-0.206 Y-80.755
G3 X3.732 Y-77.839 Z-18.85 I0.931 J2.859 F166.7
X3.69 Y-75.855 I-505.022 J-9.659 F700
G2 X3.706 Y-71.437 I82.686 J1.906
G1 X3.448 Y-53.733
G3 X3.121 Y-53.412 I-0.326 J-0.006
G1 X-1.027
G3 X-1.352 Y-53.733 I0 J-0.325
G1 X-1.731 Y-80.272
G3 X-1.416 Y-80.595 I0.318 J-0.005
X3.457 Y-80.595 I2.437 J248.498
X3.772 Y-80.272 I-0.003 J0.318
X3.732 Y-77.839 I-505.063 J-7.225
G2 X6.294 Y-73.972 I4.081 J0.078
G3 X8.857 Y-70.105 I-1.542 J3.804
G1 X8.53 Y-48.563
G3 X8.204 Y-48.242 I-0.326 J-0.006
G1 X-6.123
G3 X-6.448 Y-48.563 I0 J-0.325
G1 X-6.974 Y-85.321
G3 X-6.658 Y-85.652 I0.327 J-0.005
X1.021 Y-85.778 I7.808 J242.237
X8.699 Y-85.652 I0 J234.48
X9.015 Y-85.321 I-0.011 J0.326
X8.866 Y-79.202 I-300.759 J-4.302
G2 X8.803 Y-73.082 I124.954 J4.332
X8.838 Y-72.345 I11.45 J-0.164
G3 X8.88 Y-71.609 I-17.327 J1.367
G1 X8.857 Y-70.105
G2 X11.388 Y-66.178 I4.212 J0.064
G3 X13.919 Y-62.252 I-1.679 J3.861
G1 X13.625 Y-43.379
G3 X13.299 Y-43.059 I-0.326 J-0.006
G1 X-11.233
G3 X-11.558 Y-43.379 I0 J-0.325
G1 X-12.229 Y-90.272
G3 X-11.912 Y-90.612 I0.336 J-0.005
G1 X1.021 Y-90.961
X13.953 Y-90.612
G3 X14.27 Y-90.272 I-0.018 J0.335
G1 X13.986 Y-73.156
G2 X14.022 Y-72.487 I8.617 J-0.123
G3 X14.068 Y-71.818 I-14.231 J1.314
G1 X13.919 Y-62.252
G2 X16.458 Y-58.302 I4.239 J0.066
G3 X18.998 Y-54.352 I-1.69 J3.877
G1 X18.721 Y-38.196
G3 X18.394 Y-37.875 I-0.326 J-0.006
G1 X-16.343
G3 X-16.668 Y-38.196 I0 J-0.325
G1 X-17.482 Y-95.12
G3 X-17.164 Y-95.469 I0.344 J-0.005
X19.205 Y-95.469 I18.184 J244.463
X19.524 Y-95.12 I-0.026 J0.343
G1 X19.183 Y-73.23
G2 X19.219 Y-72.738 I4.255 J-0.061
G3 X19.281 Y-72.248 I-58.138 J7.626
X19.299 Y-71.915 I-2.377 J0.291
G1 X18.998 Y-54.352
G2 X21.525 Y-50.417 I4.215 J0.072
G3 X24.052 Y-46.482 I-1.688 J3.863
G1 X23.888 Y-36.903
G3 X19.598 Y-32.687 I-4.289 J-0.073
G1 X-21.778
X-22.35 Y-72.636
X-22.729 Y-99.118
X-22.727 Y-99.231
X-22.723 Y-99.29
X-22.716 Y-99.349
X-22.706 Y-99.407
X-22.693 Y-99.465
X-22.676 Y-99.523
X-22.657 Y-99.578
X-22.635 Y-99.633
X-22.609 Y-99.688
X-22.581 Y-99.74
X-22.55 Y-99.791
X-22.516 Y-99.841
X-22.482 Y-99.885
X-22.444 Y-99.93
X-22.4 Y-99.976
X-22.359 Y-100.016
X-22.312 Y-100.055
X-22.264 Y-100.092
X-22.222 Y-100.121
X-22.169 Y-100.153
X-22.109 Y-100.185
X-22.059 Y-100.208
X-22.01 Y-100.228
X-21.944 Y-100.251
X-21.888 Y-100.267
X-21.837 Y-100.278
X-21.776 Y-100.289
X-21.662 Y-100.302
G3 X23.704 Y-100.302 I22.683 J249.004
G1 X23.817 Y-100.289
X23.878 Y-100.278
X23.936 Y-100.265
X23.99 Y-100.25
X24.042 Y-100.232
X24.098 Y-100.209
X24.155 Y-100.182
X24.205 Y-100.156
X24.257 Y-100.124
X24.309 Y-100.089
X24.355 Y-100.054
X24.4 Y-100.015
X24.442 Y-99.976
X24.481 Y-99.935
X24.523 Y-99.886
X24.559 Y-99.839
X24.592 Y-99.791
X24.622 Y-99.74
X24.65 Y-99.688
X24.677 Y-99.632
X24.698 Y-99.579
X24.717 Y-99.524
X24.734 Y-99.466
X24.747 Y-99.407
X24.757 Y-99.349
X24.765 Y-99.29
X24.768 Y-99.231
X24.77 Y-99.119
X24.402 Y-73.418
G2 X24.498 Y-72.494 I3.965 J0.057
G1 X24.052 Y-46.482
Z5
X15.694 Y-239.411
Z2.5 F500
G3 X19.708 Y-234.933 Z2.17 I2.007 J2.239 F166.7
X15.694 Y-239.411 Z1.84 I-2.007 J-2.239
X19.708 Y-234.933 Z1.51 I2.007 J2.239
X15.694 Y-239.411 Z1.181 I-2.007 J-2.239
X19.708 Y-234.933 Z0.851 I2.007 J2.239
X15.694 Y-239.411 Z0.521 I-2.007 J-2.239
X19.708 Y-234.933 Z0.191 I2.007 J2.239
X15.694 Y-239.411 Z-0.139 I-2.007 J-2.239
X19.708 Y-234.933 Z-0.469 I2.007 J2.239
X15.694 Y-239.411 Z-0.799 I-2.007 J-2.239
X19.708 Y-234.933 Z-1.128 I2.007 J2.239
X15.694 Y-239.411 Z-1.458 I-2.007 J-2.239
X20.707 Y-237.172 Z-1.7 I2.007 J2.239
G1 Y-236.305 F700
G3 X20.388 Y-235.985 I-0.319 J0
G1 X-18.347
G3 X-18.666 Y-236.305 I0 J-0.319
G1 Y-238.039
G3 X-18.347 Y-238.359 I0.319 J0
G1 X20.388
G3 X20.707 Y-238.039 I0 J0.319
G1 Y-237.172
G2 X21.677 Y-235.461 I1.995 J0
G3 X21.152 Y-233.565 I-0.525 J0.875
G1 X-20.767
G3 X-21.086 Y-233.885 I0 J-0.319
G1 Y-240.459
G3 X-20.767 Y-240.779 I0.319 J0
G1 X22.808
G3 X23.127 Y-240.459 I0 J0.319
G1 Y-233.885
G3 X22.808 Y-233.565 I-0.319 J0
G1 X21.152
G2 X17.276 Y-230.982 I0 J4.199
G3 X13.4 Y-228.398 I-3.876 J-1.615
G1 X-25.935
G3 X-26.254 Y-228.717 I0 J-0.319
G1 Y-245.627
G3 X-25.935 Y-245.946 I0.319 J0
G1 X27.976
G3 X28.295 Y-245.627 I0 J0.319
G1 Y-228.717
G3 X27.976 Y-228.398 I-0.319 J0
G1 X13.4
G2 X9.455 Y-225.767 I0 J4.274
G3 X5.51 Y-223.137 I-3.945 J-1.644
G1 X-28.129
G3 X-31.514 Y-226.522 I0 J-3.385
G1 Y-247.822
G3 X-28.129 Y-251.207 I3.385 J0
G1 X30.171
G3 X33.556 Y-247.822 I0 J3.385
G1 Y-226.522
G3 X30.171 Y-223.137 I-3.385 J0
G1 X5.51
G3 X5.353 Y-223.462 I0 J-0.2
G1 X15.017 Y-235.558
X15.041 Y-235.598
X15.056 Y-235.641
X15.06 Y-235.687
X15.054 Y-235.733
X15.038 Y-235.776
G3 X20.364 Y-238.568 Z-2.03 I2.663 J-1.396 F166.7
X15.038 Y-235.776 Z-2.36 I-2.663 J1.396
X20.364 Y-238.568 Z-2.69 I2.663 J-1.396
X15.038 Y-235.776 Z-3.019 I-2.663 J1.396
X20.364 Y-238.568 Z-3.349 I2.663 J-1.396
X20.707 Y-237.172 Z-3.4 I-2.663 J1.396
G1 Y-236.305 F700
G3 X20.388 Y-235.985 I-0.319 J0
G1 X-18.347
G3 X-18.666 Y-236.305 I0 J-0.319
G1 Y-238.039
G3 X-18.347 Y-238.359 I0.319 J0
G1 X20.388
G3 X20.707 Y-238.039 I0 J0.319
G1 Y-237.172
G2 X21.677 Y-235.461 I1.995 J0
G3 X21.152 Y-233.565 I-0.525 J0.875
G1 X-20.767
G3 X-21.086 Y-233.885 I0 J-0.319
G1 Y-240.459
G3 X-20.767 Y-240.779 I0.319 J0
G1 X22.808
G3 X23.127 Y-240.459 I0 J0.319
G1 Y-233.885
G3 X22.808 Y-233.565 I-0.319 J0
G1 X21.152
G2 X17.276 Y-230.982 I0 J4.199
G3 X13.4 Y-228.398 I-3.876 J-1.615
G1 X-25.935
G3 X-26.254 Y-228.717 I0 J-0.319
G1 Y-245.627
G3 X-25.935 Y-245.946 I0.319 J0
G1 X27.976
G3 X28.295 Y-245.627 I0 J0.319
G1 Y-228.717
G3 X27.976 Y-228.398 I-0.319 J0
G1 X13.4
G2 X9.455 Y-225.767 I0 J4.274
G3 X5.51 Y-223.137 I-3.945 J-1.644
G1 X-28.129
G3 X-31.514 Y-226.522 I0 J-3.385
G1 Y-247.822
G3 X-28.129 Y-251.207 I3.385 J0
G1 X30.171
G3 X33.556 Y-247.822 I0 J3.385
G1 Y-226.522
G3 X30.171 Y-223.137 I-3.385 J0
G1 X5.51
G3 X5.353 Y-223.462 I0 J-0.2
G1 X15.017 Y-235.558
X15.041 Y-235.598
X15.056 Y-235.641
X15.06 Y-235.687
X15.054 Y-235.733
X15.038 Y-235.776
G3 X20.364 Y-238.568 Z-3.73 I2.663 J-1.396 F166.7
X15.038 Y-235.776 Z-4.06 I-2.663 J1.396
X20.364 Y-238.568 Z-4.39 I2.663 J-1.396
X15.038 Y-235.776 Z-4.719 I-2.663 J1.396
X20.364 Y-238.568 Z-5.049 I2.663 J-1.396
X20.707 Y-237.172 Z-5.1 I-2.663 J1.396
G1 Y-236.305 F700
G3 X20.388 Y-235.985 I-0.319 J0
G1 X-18.347
G3 X-18.666 Y-236.305 I0 J-0.319
G1 Y-238.039
G3 X-18.347 Y-238.359 I0.319 J0
G1 X20.388
G3 X20.707 Y-238.039 I0 J0.319
G1 Y-237.172
G2 X21.677 Y-235.461 I1.995 J0
G3 X21.152 Y-233.565 I-0.525 J0.875
G1 X-20.767
G3 X-21.086 Y-233.885 I0 J-0.319
G1 Y-240.459
G3 X-20.767 Y-240.779 I0.319 J0
G1 X22.808
G3 X23.127 Y-240.459 I0 J0.319
G1 Y-233.885
G3 X22.808 Y-233.565 I-0.319 J0
G1 X21.152
G2 X17.276 Y-230.982 I0 J4.199
G3 X13.4 Y-228.398 I-3.876 J-1.615
G1 X-25.935
G3 X-26.254 Y-228.717 I0 J-0.319
G1 Y-245.627
G3 X-25.935 Y-245.946 I0.319 J0
G1 X27.976
G3 X28.295 Y-245.627 I0 J0.319
G1 Y-228.717
G3 X27.976 Y-228.398 I-0.319 J0
G1 X13.4
G2 X9.455 Y-225.767 I0 J4.274
G3 X5.51 Y-223.137 I-3.945 J-1.644
G1 X-28.129
G3 X-31.514 Y-226.522 I0 J-3.385
G1 Y-247.822
G3 X-28.129 Y-251.207 I3.385 J0
G1 X30.171
G3 X33.556 Y-247.822 I0 J3.385
G1 Y-226.522
G3 X30.171 Y-223.137 I-3.385 J0
G1 X5.51
G3 X5.353 Y-223.462 I0 J-0.2
G1 X15.017 Y-235.558
X15.041 Y-235.598
X15.056 Y-235.641
X15.06 Y-235.687
X15.054 Y-235.733
X15.038 Y-235.776
G3 X20.364 Y-238.568 Z-5.43 I2.663 J-1.396 F166.7
X15.038 Y-235.776 Z-5.76 I-2.663 J1.396
X20.364 Y-238.568 Z-6.09 I2.663 J-1.396
X15.038 Y-235.776 Z-6.419 I-2.663 J1.396
X20.364 Y-238.568 Z-6.749 I2.663 J-1.396
X20.707 Y-237.172 Z-6.8 I-2.663 J1.396
G1 Y-236.305 F700
G3 X20.388 Y-235.985 I-0.319 J0
G1 X-18.347
G3 X-18.666 Y-236.305 I0 J-0.319
G1 Y-238.039
G3 X-18.347 Y-238.359 I0.319 J0
G1 X20.388
G3 X20.707 Y-238.039 I0 J0.319
G1 Y-237.172
G2 X21.677 Y-235.461 I1.995 J0
G3 X21.152 Y-233.565 I-0.525 J0.875
G1 X-20.767
G3 X-21.086 Y-233.885 I0 J-0.319
G1 Y-240.459
G3 X-20.767 Y-240.779 I0.319 J0
G1 X22.808
G3 X23.127 Y-240.459 I0 J0.319
G1 Y-233.885
G3 X22.808 Y-233.565 I-0.319 J0
G1 X21.152
G2 X17.276 Y-230.982 I0 J4.199
G3 X13.4 Y-228.398 I-3.876 J-1.615
G1 X-25.935
G3 X-26.254 Y-228.717 I0 J-0.319
G1 Y-245.627
G3 X-25.935 Y-245.946 I0.319 J0
G1 X27.976
G3 X28.295 Y-245.627 I0 J0.319
G1 Y-228.717
G3 X27.976 Y-228.398 I-0.319 J0
G1 X13.4
G2 X9.455 Y-225.767 I0 J4.274
G3 X5.51 Y-223.137 I-3.945 J-1.644
G1 X-28.129
G3 X-31.514 Y-226.522 I0 J-3.385
G1 Y-247.822
G3 X-28.129 Y-251.207 I3.385 J0
G1 X30.171
G3 X33.556 Y-247.822 I0 J3.385
G1 Y-226.522
G3 X30.171 Y-223.137 I-3.385 J0
G1 X5.51
G3 X5.353 Y-223.462 I0 J-0.2
G1 X15.017 Y-235.558
X15.041 Y-235.598
X15.056 Y-235.641
X15.06 Y-235.687
X15.054 Y-235.733
X15.038 Y-235.776
G3 X20.364 Y-238.568 Z-7.13 I2.663 J-1.396 F166.7
X15.038 Y-235.776 Z-7.46 I-2.663 J1.396
X20.364 Y-238.568 Z-7.79 I2.663 J-1.396
X15.038 Y-235.776 Z-8.119 I-2.663 J1.396
X20.364 Y-238.568 Z-8.449 I2.663 J-1.396
X20.707 Y-237.172 Z-8.5 I-2.663 J1.396
G1 Y-236.305 F700
G3 X20.388 Y-235.985 I-0.319 J0
G1 X-18.347
G3 X-18.666 Y-236.305 I0 J-0.319
G1 Y-238.039
G3 X-18.347 Y-238.359 I0.319 J0
G1 X20.388
G3 X20.707 Y-238.039 I0 J0.319
G1 Y-237.172
G2 X21.677 Y-235.461 I1.995 J0
G3 X21.152 Y-233.565 I-0.525 J0.875
G1 X-20.767
G3 X-21.086 Y-233.885 I0 J-0.319
G1 Y-240.459
G3 X-20.767 Y-240.779 I0.319 J0
G1 X22.808
G3 X23.127 Y-240.459 I0 J0.319
G1 Y-233.885
G3 X22.808 Y-233.565 I-0.319 J0
G1 X21.152
G2 X17.276 Y-230.982 I0 J4.199
G3 X13.4 Y-228.398 I-3.876 J-1.615
G1 X-25.935
G3 X-26.254 Y-228.717 I0 J-0.319
G1 Y-245.627
G3 X-25.935 Y-245.946 I0.319 J0
G1 X27.976
G3 X28.295 Y-245.627 I0 J0.319
G1 Y-228.717
G3 X27.976 Y-228.398 I-0.319 J0
G1 X13.4
G2 X9.455 Y-225.767 I0 J4.274
G3 X5.51 Y-223.137 I-3.945 J-1.644
G1 X-28.129
G3 X-31.514 Y-226.522 I0 J-3.385
G1 Y-247.822
G3 X-28.129 Y-251.207 I3.385 J0
G1 X30.171
G3 X33.556 Y-247.822 I0 J3.385
G1 Y-226.522
G3 X30.171 Y-223.137 I-3.385 J0
G1 X5.51
G3 X5.353 Y-223.462 I0 J-0.2
G1 X15.017 Y-235.558
X15.041 Y-235.598
X15.056 Y-235.641
X15.06 Y-235.687
X15.054 Y-235.733
X15.038 Y-235.776
G3 X20.364 Y-238.568 Z-8.83 I2.663 J-1.396 F166.7
X15.038 Y-235.776 Z-9.16 I-2.663 J1.396
X20.364 Y-238.568 Z-9.49 I2.663 J-1.396
X15.038 Y-235.776 Z-9.819 I-2.663 J1.396
X20.364 Y-238.568 Z-10.149 I2.663 J-1.396
X20.707 Y-237.172 Z-10.2 I-2.663 J1.396
G1 Y-236.305 F700
G3 X20.388 Y-235.985 I-0.319 J0
G1 X-18.347
G3 X-18.666 Y-236.305 I0 J-0.319
G1 Y-238.039
G3 X-18.347 Y-238.359 I0.319 J0
G1 X20.388
G3 X20.707 Y-238.039 I0 J0.319
G1 Y-237.172
G2 X21.677 Y-235.461 I1.995 J0
G3 X21.152 Y-233.565 I-0.525 J0.875
G1 X-20.767
G3 X-21.086 Y-233.885 I0 J-0.319
G1 Y-240.459
G3 X-20.767 Y-240.779 I0.319 J0
G1 X22.808
G3 X23.127 Y-240.459 I0 J0.319
G1 Y-233.885
G3 X22.808 Y-233.565 I-0.319 J0
G1 X21.152
G2 X17.276 Y-230.982 I0 J4.199
G3 X13.4 Y-228.398 I-3.876 J-1.615
G1 X-25.935
G3 X-26.254 Y-228.717 I0 J-0.319
G1 Y-245.627
G3 X-25.935 Y-245.946 I0.319 J0
G1 X27.976
G3 X28.295 Y-245.627 I0 J0.319
G1 Y-228.717
G3 X27.976 Y-228.398 I-0.319 J0
G1 X13.4
G2 X9.455 Y-225.767 I0 J4.274
G3 X5.51 Y-223.137 I-3.945 J-1.644
G1 X-28.129
G3 X-31.514 Y-226.522 I0 J-3.385
G1 Y-247.822
G3 X-28.129 Y-251.207 I3.385 J0
G1 X30.171
G3 X33.556 Y-247.822 I0 J3.385
G1 Y-226.522
G3 X30.171 Y-223.137 I-3.385 J0
G1 X5.51
G3 X5.353 Y-223.462 I0 J-0.2
G1 X15.017 Y-235.558
X15.041 Y-235.598
X15.056 Y-235.641
X15.06 Y-235.687
X15.054 Y-235.733
X15.038 Y-235.776
G3 X20.364 Y-238.568 Z-10.53 I2.663 J-1.396 F166.7
X15.038 Y-235.776 Z-10.86 I-2.663 J1.396
X20.364 Y-238.568 Z-11.19 I2.663 J-1.396
X15.038 Y-235.776 Z-11.519 I-2.663 J1.396
X20.364 Y-238.568 Z-11.849 I2.663 J-1.396
X20.707 Y-237.172 Z-11.9 I-2.663 J1.396
G1 Y-236.305 F700
G3 X20.388 Y-235.985 I-0.319 J0
G1 X-18.347
G3 X-18.666 Y-236.305 I0 J-0.319
G1 Y-238.039
G3 X-18.347 Y-238.359 I0.319 J0
G1 X20.388
G3 X20.707 Y-238.039 I0 J0.319
G1 Y-237.172
G2 X21.677 Y-235.461 I1.995 J0
G3 X21.152 Y-233.565 I-0.525 J0.875
G1 X-20.767
G3 X-21.086 Y-233.885 I0 J-0.319
G1 Y-240.459
G3 X-20.767 Y-240.779 I0.319 J0
G1 X22.808
G3 X23.127 Y-240.459 I0 J0.319
G1 Y-233.885
G3 X22.808 Y-233.565 I-0.319 J0
G1 X21.152
G2 X17.276 Y-230.982 I0 J4.199
G3 X13.4 Y-228.398 I-3.876 J-1.615
G1 X-25.935
G3 X-26.254 Y-228.717 I0 J-0.319
G1 Y-245.627
G3 X-25.935 Y-245.946 I0.319 J0
G1 X27.976
G3 X28.295 Y-245.627 I0 J0.319
G1 Y-228.717
G3 X27.976 Y-228.398 I-0.319 J0
G1 X13.4
G2 X9.455 Y-225.767 I0 J4.274
G3 X5.51 Y-223.137 I-3.945 J-1.644
G1 X-28.129
G3 X-31.514 Y-226.522 I0 J-3.385
G1 Y-247.822
G3 X-28.129 Y-251.207 I3.385 J0
G1 X30.171
G3 X33.556 Y-247.822 I0 J3.385
G1 Y-226.522
G3 X30.171 Y-223.137 I-3.385 J0
G1 X5.51
G3 X5.353 Y-223.462 I0 J-0.2
G1 X15.017 Y-235.558
X15.041 Y-235.598
X15.056 Y-235.641
X15.06 Y-235.687
X15.054 Y-235.733
X15.038 Y-235.776
G3 X20.364 Y-238.568 Z-12.23 I2.663 J-1.396 F166.7
X15.038 Y-235.776 Z-12.56 I-2.663 J1.396
X20.364 Y-238.568 Z-12.89 I2.663 J-1.396
X15.038 Y-235.776 Z-13.219 I-2.663 J1.396
X20.364 Y-238.568 Z-13.549 I2.663 J-1.396
X20.707 Y-237.172 Z-13.6 I-2.663 J1.396
G1 Y-236.305 F700
G3 X20.388 Y-235.985 I-0.319 J0
G1 X-18.347
G3 X-18.666 Y-236.305 I0 J-0.319
G1 Y-238.039
G3 X-18.347 Y-238.359 I0.319 J0
G1 X20.388
G3 X20.707 Y-238.039 I0 J0.319
G1 Y-237.172
G2 X21.677 Y-235.461 I1.995 J0
G3 X21.152 Y-233.565 I-0.525 J0.875
G1 X-20.767
G3 X-21.086 Y-233.885 I0 J-0.319
G1 Y-240.459
G3 X-20.767 Y-240.779 I0.319 J0
G1 X22.808
G3 X23.127 Y-240.459 I0 J0.319
G1 Y-233.885
G3 X22.808 Y-233.565 I-0.319 J0
G1 X21.152
G2 X17.276 Y-230.982 I0 J4.199
G3 X13.4 Y-228.398 I-3.876 J-1.615
G1 X-25.935
G3 X-26.254 Y-228.717 I0 J-0.319
G1 Y-245.627
G3 X-25.935 Y-245.946 I0.319 J0
G1 X27.976
G3 X28.295 Y-245.627 I0 J0.319
G1 Y-228.717
G3 X27.976 Y-228.398 I-0.319 J0
G1 X13.4
G2 X9.455 Y-225.767 I0 J4.274
G3 X5.51 Y-223.137 I-3.945 J-1.644
G1 X-28.129
G3 X-31.514 Y-226.522 I0 J-3.385
G1 Y-247.822
G3 X-28.129 Y-251.207 I3.385 J0
G1 X30.171
G3 X33.556 Y-247.822 I0 J3.385
G1 Y-226.522
G3 X30.171 Y-223.137 I-3.385 J0
G1 X5.51
G3 X5.353 Y-223.462 I0 J-0.2
G1 X15.017 Y-235.558
X15.041 Y-235.598
X15.056 Y-235.641
X15.06 Y-235.687
X15.054 Y-235.733
X15.038 Y-235.776
G3 X20.364 Y-238.568 Z-13.93 I2.663 J-1.396 F166.7
X15.038 Y-235.776 Z-14.26 I-2.663 J1.396
X20.364 Y-238.568 Z-14.59 I2.663 J-1.396
X15.038 Y-235.776 Z-14.919 I-2.663 J1.396
X20.364 Y-238.568 Z-15.249 I2.663 J-1.396
X20.707 Y-237.172 Z-15.3 I-2.663 J1.396
G1 Y-236.305 F700
G3 X20.388 Y-235.985 I-0.319 J0
G1 X-18.347
G3 X-18.666 Y-236.305 I0 J-0.319
G1 Y-238.039
G3 X-18.347 Y-238.359 I0.319 J0
G1 X20.388
G3 X20.707 Y-238.039 I0 J0.319
G1 Y-237.172
G2 X21.677 Y-235.461 I1.995 J0
G3 X21.152 Y-233.565 I-0.525 J0.875
G1 X-20.767
G3 X-21.086 Y-233.885 I0 J-0.319
G1 Y-240.459
G3 X-20.767 Y-240.779 I0.319 J0
G1 X22.808
G3 X23.127 Y-240.459 I0 J0.319
G1 Y-233.885
G3 X22.808 Y-233.565 I-0.319 J0
G1 X21.152
G2 X17.276 Y-230.982 I0 J4.199
G3 X13.4 Y-228.398 I-3.876 J-1.615
G1 X-25.935
G3 X-26.254 Y-228.717 I0 J-0.319
G1 Y-245.627
G3 X-25.935 Y-245.946 I0.319 J0
G1 X27.976
G3 X28.295 Y-245.627 I0 J0.319
G1 Y-228.717
G3 X27.976 Y-228.398 I-0.319 J0
G1 X13.4
G2 X9.455 Y-225.767 I0 J4.274
G3 X5.51 Y-223.137 I-3.945 J-1.644
G1 X-28.129
G3 X-31.514 Y-226.522 I0 J-3.385
G1 Y-247.822
G3 X-28.129 Y-251.207 I3.385 J0
G1 X30.171
G3 X33.556 Y-247.822 I0 J3.385
G1 Y-226.522
G3 X30.171 Y-223.137 I-3.385 J0
G1 X5.51
G3 X5.353 Y-223.462 I0 J-0.2
G1 X15.017 Y-235.558
X15.041 Y-235.598
X15.056 Y-235.641
X15.06 Y-235.687
X15.054 Y-235.733
X15.038 Y-235.776
G3 X20.364 Y-238.568 Z-15.63 I2.663 J-1.396 F166.7
X15.038 Y-235.776 Z-15.96 I-2.663 J1.396
X20.364 Y-238.568 Z-16.29 I2.663 J-1.396
X15.038 Y-235.776 Z-16.619 I-2.663 J1.396
X20.364 Y-238.568 Z-16.949 I2.663 J-1.396
X20.707 Y-237.172 Z-17 I-2.663 J1.396
G1 Y-236.305 F700
G3 X20.388 Y-235.985 I-0.319 J0
G1 X-18.347
G3 X-18.666 Y-236.305 I0 J-0.319
G1 Y-238.039
G3 X-18.347 Y-238.359 I0.319 J0
G1 X20.388
G3 X20.707 Y-238.039 I0 J0.319
G1 Y-237.172
G2 X21.677 Y-235.461 I1.995 J0
G3 X21.152 Y-233.565 I-0.525 J0.875
G1 X-20.767
G3 X-21.086 Y-233.885 I0 J-0.319
G1 Y-240.459
G3 X-20.767 Y-240.779 I0.319 J0
G1 X22.808
G3 X23.127 Y-240.459 I0 J0.319
G1 Y-233.885
G3 X22.808 Y-233.565 I-0.319 J0
G1 X21.152
G2 X17.276 Y-230.982 I0 J4.199
G3 X13.4 Y-228.398 I-3.876 J-1.615
G1 X-25.935
G3 X-26.254 Y-228.717 I0 J-0.319
G1 Y-245.627
G3 X-25.935 Y-245.946 I0.319 J0
G1 X27.976
G3 X28.295 Y-245.627 I0 J0.319
G1 Y-228.717
G3 X27.976 Y-228.398 I-0.319 J0
G1 X13.4
G2 X9.455 Y-225.767 I0 J4.274
G3 X5.51 Y-223.137 I-3.945 J-1.644
G1 X-28.129
G3 X-31.514 Y-226.522 I0 J-3.385
G1 Y-247.822
G3 X-28.129 Y-251.207 I3.385 J0
G1 X30.171
G3 X33.556 Y-247.822 I0 J3.385
G1 Y-226.522
G3 X30.171 Y-223.137 I-3.385 J0
G1 X5.51
G3 X5.218 Y-223.684 I0 J-0.351
G1 X6.129 Y-225.044
X14.787 Y-236.971
X14.694 Y-237.152
G3 X20.707 Y-237.192 Z-17.33 I3.007 J-0.02 F166.7
X14.694 Y-237.152 Z-17.66 I-3.007 J0.02
X20.707 Y-237.192 Z-17.99 I3.007 J-0.02
X14.694 Y-237.152 Z-18.319 I-3.007 J0.02
X17.691 Y-240.179 Z-18.485 I3.007 J-0.02
X20.707 Y-237.172 Z-18.65 I0.01 J3.007
G1 Y-236.305 F700
G3 X20.388 Y-235.985 I-0.319 J0
G1 X-18.347
G3 X-18.666 Y-236.305 I0 J-0.319
G1 Y-238.039
G3 X-18.347 Y-238.359 I0.319 J0
G1 X20.388
G3 X20.707 Y-238.039 I0 J0.319
G1 Y-237.172
G2 X21.677 Y-235.461 I1.995 J0
G3 X21.152 Y-233.565 I-0.525 J0.875
G1 X-20.767
G3 X-21.086 Y-233.885 I0 J-0.319
G1 Y-240.459
G3 X-20.767 Y-240.779 I0.319 J0
G1 X22.808
G3 X23.127 Y-240.459 I0 J0.319
G1 Y-233.885
G3 X22.808 Y-233.565 I-0.319 J0
G1 X21.152
G2 X17.276 Y-230.982 I0 J4.199
G3 X13.4 Y-228.398 I-3.876 J-1.615
G1 X-25.935
G3 X-26.254 Y-228.717 I0 J-0.319
G1 Y-245.627
G3 X-25.935 Y-245.946 I0.319 J0
G1 X27.976
G3 X28.295 Y-245.627 I0 J0.319
G1 Y-228.717
G3 X27.976 Y-228.398 I-0.319 J0
G1 X13.4
G2 X9.455 Y-225.767 I0 J4.274
G3 X5.51 Y-223.137 I-3.945 J-1.644
G1 X-28.129
G3 X-31.514 Y-226.522 I0 J-3.385
G1 Y-247.822
G3 X-28.129 Y-251.207 I3.385 J0
G1 X30.171
G3 X33.556 Y-247.822 I0 J3.385
G1 Y-226.522
G3 X30.171 Y-223.137 I-3.385 J0
G1 X5.51
G3 X3.492 Y-228.374 Z-18.697 I0 J-3.007 F166.7
G1 X15.684 Y-239.402 Z-18.805
G3 X20.707 Y-237.172 Z-18.85 I2.017 J2.23
G1 Y-236.305 F700
G3 X20.388 Y-235.985 I-0.319 J0
G1 X-18.347
G3 X-18.666 Y-236.305 I0 J-0.319
G1 Y-238.039
G3 X-18.347 Y-238.359 I0.319 J0
G1 X20.388
G3 X20.707 Y-238.039 I0 J0.319
G1 Y-237.172
G2 X21.677 Y-235.461 I1.995 J0
G3 X21.152 Y-233.565 I-0.525 J0.875
G1 X-20.767
G3 X-21.086 Y-233.885 I0 J-0.319
G1 Y-240.459
G3 X-20.767 Y-240.779 I0.319 J0
G1 X22.808
G3 X23.127 Y-240.459 I0 J0.319
G1 Y-233.885
G3 X22.808 Y-233.565 I-0.319 J0
G1 X21.152
G2 X17.276 Y-230.982 I0 J4.199
G3 X13.4 Y-228.398 I-3.876 J-1.615
G1 X-25.935
G3 X-26.254 Y-228.717 I0 J-0.319
G1 Y-245.627
G3 X-25.935 Y-245.946 I0.319 J0
G1 X27.976
G3 X28.295 Y-245.627 I0 J0.319
G1 Y-228.717
G3 X27.976 Y-228.398 I-0.319 J0
G1 X13.4
G2 X9.455 Y-225.767 I0 J4.274
G3 X5.51 Y-223.137 I-3.945 J-1.644
G1 X-28.129
G3 X-31.514 Y-226.522 I0 J-3.385
G1 Y-247.822
G3 X-28.129 Y-251.207 I3.385 J0
G1 X30.171
G3 X33.556 Y-247.822 I0 J3.385
G1 Y-226.522
G3 X30.171 Y-223.137 I-3.385 J0
G1 X5.51
Z10
(When using Fusion 360 for Personal Use, the feedrate of )
(rapid moves is reduced to match the feedrate of cutting )
(moves, which can increase machining time. Unrestricted )
(rapid moves are available with a Fusion 360 Subscription. )
M0
(pause for cleanup)
(Finish Top Cavities)
G0 X32.457 Y-134.713
G1 Z10 F700
Z6
Z-4.367 F166.7
G18 G2 X33.09 Z-5 I0.633 K0 F500
G1 X33.723
G17 G3 X34.356 Y-134.08 I0 J0.633
G1 Y-123.43 F700
G3 X30.171 Y-119.245 I-4.185 J0
G1 X-28.129
G3 X-32.314 Y-123.43 I0 J-4.185
G1 Y-144.73
G3 X-28.129 Y-148.915 I4.185 J0
G1 X30.171
G3 X34.356 Y-144.73 I0 J4.185
G1 Y-134.08
G3 X33.723 Y-133.447 I-0.633 J0 F500
G1 X33.09
G18 G3 X32.457 Z-4.367 I0 K0.633
G1 Z5 F700
Y-134.713
Z1 F166.7
Z-9.367
G2 X33.09 Z-10 I0.633 K0 F500
G1 X33.723
G17 G3 X34.356 Y-134.08 I0 J0.633
G1 Y-123.43 F700
G3 X30.171 Y-119.245 I-4.185 J0
G1 X-28.129
G3 X-32.314 Y-123.43 I0 J-4.185
G1 Y-144.73
G3 X-28.129 Y-148.915 I4.185 J0
G1 X30.171
G3 X34.356 Y-144.73 I0 J4.185
G1 Y-134.08
G3 X33.723 Y-133.447 I-0.633 J0 F500
G1 X33.09
G18 G3 X32.457 Z-9.367 I0 K0.633
G1 Z5 F700
Y-134.713
Z-4 F166.7
Z-14.367
G2 X33.09 Z-15 I0.633 K0 F500
G1 X33.723
G17 G3 X34.356 Y-134.08 I0 J0.633
G1 Y-123.43 F700
G3 X30.171 Y-119.245 I-4.185 J0
G1 X-28.129
G3 X-32.314 Y-123.43 I0 J-4.185
G1 Y-144.73
G3 X-28.129 Y-148.915 I4.185 J0
G1 X30.171
G3 X34.356 Y-144.73 I0 J4.185
G1 Y-134.08
G3 X33.723 Y-133.447 I-0.633 J0 F500
G1 X33.09
G18 G3 X32.457 Z-14.367 I0 K0.633
G1 Z5 F700
Y-134.713
Z-9 F166.7
Z-18.417
G2 X33.09 Z-19.05 I0.633 K0 F500
G1 X33.723
G17 G3 X34.356 Y-134.08 I0 J0.633
G1 Y-123.43 F700
G3 X30.171 Y-119.245 I-4.185 J0
G1 X-28.129
G3 X-32.314 Y-123.43 I0 J-4.185
G1 Y-144.73
G3 X-28.129 Y-148.915 I4.185 J0
G1 X30.171
G3 X34.356 Y-144.73 I0 J4.185
G1 Y-134.08
G3 X33.723 Y-133.447 I-0.633 J0 F500
G1 X33.09
G18 G3 X32.457 Z-18.417 I0 K0.633
G1 Z6 F700
X0.388 Y-100.234
Z-4.367 F166.7
G19 G2 Y-100.867 Z-5 J-0.633 K0 F500
G1 Y-101.5
G17 G3 X1.021 Y-102.133 I0.633 J0
X23.787 Y-101.098 I0 J250.835 F700
G1 X23.932 Y-101.081
X24.034 Y-101.063
X24.134 Y-101.041
X24.23 Y-101.013
X24.323 Y-100.981
X24.418 Y-100.943
X24.514 Y-100.898
X24.601 Y-100.851
X24.69 Y-100.797
X24.777 Y-100.738
X24.857 Y-100.677
X24.935 Y-100.611
X25.007 Y-100.543
X25.076 Y-100.47
X25.145 Y-100.389
X25.207 Y-100.308
X25.264 Y-100.224
X25.317 Y-100.137
X25.365 Y-100.048
X25.409 Y-99.953
X25.447 Y-99.86
X25.48 Y-99.765
X25.509 Y-99.665
X25.532 Y-99.566
X25.549 Y-99.466
X25.561 Y-99.364
X25.568 Y-99.262
X25.57 Y-99.118
X25.202 Y-73.407
G2 X25.299 Y-72.581 I3.165 J0.045
G1 X24.688 Y-36.89
G3 X19.598 Y-31.887 I-5.089 J-0.087
G1 X-21.826
G3 X-22.551 Y-31.939 I-0.001 J-5.09
G1 X-22.553 Y-31.969
X-22.558 Y-32.079
X-22.564 Y-32.189
X-22.568 Y-32.298
X-22.572 Y-32.409
X-22.575 Y-32.521
X-22.577 Y-32.626
X-23.529 Y-99.117
X-23.527 Y-99.262
X-23.52 Y-99.364
X-23.508 Y-99.465
X-23.491 Y-99.566
X-23.468 Y-99.665
X-23.44 Y-99.763
X-23.407 Y-99.859
X-23.368 Y-99.954
X-23.324 Y-100.047
X-23.276 Y-100.137
X-23.223 Y-100.225
X-23.165 Y-100.31
X-23.105 Y-100.388
X-23.039 Y-100.465
X-22.966 Y-100.542
X-22.893 Y-100.611
X-22.814 Y-100.678
X-22.733 Y-100.741
X-22.653 Y-100.795
X-22.565 Y-100.848
X-22.469 Y-100.9
X-22.379 Y-100.942
X-22.289 Y-100.978
X-22.185 Y-101.014
X-22.088 Y-101.042
X-21.994 Y-101.063
X-21.891 Y-101.081
X-21.746 Y-101.098
G3 X1.021 Y-102.133 I22.767 J249.8
X1.654 Y-101.5 I0 J0.633 F500
G1 Y-100.867
G19 G3 Y-100.234 Z-4.367 J0 K0.633
G1 Z5 F700
X0.388
Z1 F166.7
Z-9.367
G2 Y-100.867 Z-10 J-0.633 K0 F500
G1 Y-101.5
G17 G3 X1.021 Y-102.133 I0.633 J0
X23.787 Y-101.098 I0 J250.835 F700
G1 X23.932 Y-101.081
X24.034 Y-101.063
X24.134 Y-101.041
X24.23 Y-101.013
X24.323 Y-100.981
X24.418 Y-100.943
X24.514 Y-100.898
X24.601 Y-100.851
X24.69 Y-100.797
X24.777 Y-100.738
X24.857 Y-100.677
X24.935 Y-100.611
X25.007 Y-100.543
X25.076 Y-100.47
X25.145 Y-100.389
X25.207 Y-100.308
X25.264 Y-100.224
X25.317 Y-100.137
X25.365 Y-100.048
X25.409 Y-99.953
X25.447 Y-99.86
X25.48 Y-99.765
X25.509 Y-99.665
X25.532 Y-99.566
X25.549 Y-99.466
X25.561 Y-99.364
X25.568 Y-99.262
X25.57 Y-99.118
X25.202 Y-73.407
G2 X25.299 Y-72.581 I3.165 J0.045
G1 X24.688 Y-36.89
G3 X19.598 Y-31.887 I-5.089 J-0.087
G1 X-21.826
G3 X-22.551 Y-31.939 I-0.001 J-5.09
G1 X-22.553 Y-31.969
X-22.558 Y-32.079
X-22.564 Y-32.189
X-22.568 Y-32.298
X-22.572 Y-32.409
X-22.575 Y-32.521
X-22.577 Y-32.626
X-23.529 Y-99.117
X-23.527 Y-99.262
X-23.52 Y-99.364
X-23.508 Y-99.465
X-23.491 Y-99.566
X-23.468 Y-99.665
X-23.44 Y-99.763
X-23.407 Y-99.859
X-23.368 Y-99.954
X-23.324 Y-100.047
X-23.276 Y-100.137
X-23.223 Y-100.225
X-23.165 Y-100.31
X-23.105 Y-100.388
X-23.039 Y-100.465
X-22.966 Y-100.542
X-22.893 Y-100.611
X-22.814 Y-100.678
X-22.733 Y-100.741
X-22.653 Y-100.795
X-22.565 Y-100.848
X-22.469 Y-100.9
X-22.379 Y-100.942
X-22.289 Y-100.978
X-22.185 Y-101.014
X-22.088 Y-101.042
X-21.994 Y-101.063
X-21.891 Y-101.081
X-21.746 Y-101.098
G3 X1.021 Y-102.133 I22.767 J249.8
X1.654 Y-101.5 I0 J0.633 F500
G1 Y-100.867
G19 G3 Y-100.234 Z-9.367 J0 K0.633
G1 Z5 F700
X0.388
Z-4 F166.7
Z-14.367
G2 Y-100.867 Z-15 J-0.633 K0 F500
G1 Y-101.5
G17 G3 X1.021 Y-102.133 I0.633 J0
X23.787 Y-101.098 I0 J250.835 F700
G1 X23.932 Y-101.081
X24.034 Y-101.063
X24.134 Y-101.041
X24.23 Y-101.013
X24.323 Y-100.981
X24.418 Y-100.943
X24.514 Y-100.898
X24.601 Y-100.851
X24.69 Y-100.797
X24.777 Y-100.738
X24.857 Y-100.677
X24.935 Y-100.611
X25.007 Y-100.543
X25.076 Y-100.47
X25.145 Y-100.389
X25.207 Y-100.308
X25.264 Y-100.224
X25.317 Y-100.137
X25.365 Y-100.048
X25.409 Y-99.953
X25.447 Y-99.86
X25.48 Y-99.765
X25.509 Y-99.665
X25.532 Y-99.566
X25.549 Y-99.466
X25.561 Y-99.364
X25.568 Y-99.262
X25.57 Y-99.118
X25.202 Y-73.407
G2 X25.299 Y-72.581 I3.165 J0.045
G1 X24.688 Y-36.89
G3 X19.598 Y-31.887 I-5.089 J-0.087
G1 X-21.826
G3 X-22.551 Y-31.939 I-0.001 J-5.09
G1 X-22.553 Y-31.969
X-22.558 Y-32.079
X-22.564 Y-32.189
X-22.568 Y-32.298
X-22.572 Y-32.409
X-22.575 Y-32.521
X-22.577 Y-32.626
X-23.529 Y-99.117
X-23.527 Y-99.262
X-23.52 Y-99.364
X-23.508 Y-99.465
X-23.491 Y-99.566
X-23.468 Y-99.665
X-23.44 Y-99.763
X-23.407 Y-99.859
X-23.368 Y-99.954
X-23.324 Y-100.047
X-23.276 Y-100.137
X-23.223 Y-100.225
X-23.165 Y-100.31
X-23.105 Y-100.388
X-23.039 Y-100.465
X-22.966 Y-100.542
X-22.893 Y-100.611
X-22.814 Y-100.678
X-22.733 Y-100.741
X-22.653 Y-100.795
X-22.565 Y-100.848
X-22.469 Y-100.9
X-22.379 Y-100.942
X-22.289 Y-100.978
X-22.185 Y-101.014
X-22.088 Y-101.042
X-21.994 Y-101.063
X-21.891 Y-101.081
X-21.746 Y-101.098
G3 X1.021 Y-102.133 I22.767 J249.8
X1.654 Y-101.5 I0 J0.633 F500
G1 Y-100.867
G19 G3 Y-100.234 Z-14.367 J0 K0.633
G1 Z5 F700
X0.388
Z-9 F166.7
Z-18.417
G2 Y-100.867 Z-19.05 J-0.633 K0 F500
G1 Y-101.5
G17 G3 X1.021 Y-102.133 I0.633 J0
X23.787 Y-101.098 I0 J250.835 F700
G1 X23.932 Y-101.081
X24.034 Y-101.063
X24.134 Y-101.041
X24.23 Y-101.013
X24.323 Y-100.981
X24.418 Y-100.943
X24.514 Y-100.898
X24.601 Y-100.851
X24.69 Y-100.797
X24.777 Y-100.738
X24.857 Y-100.677
X24.935 Y-100.611
X25.007 Y-100.543
X25.076 Y-100.47
X25.145 Y-100.389
X25.207 Y-100.308
X25.264 Y-100.224
X25.317 Y-100.137
X25.365 Y-100.048
X25.409 Y-99.953
X25.447 Y-99.86
X25.48 Y-99.765
X25.509 Y-99.665
X25.532 Y-99.566
X25.549 Y-99.466
X25.561 Y-99.364
X25.568 Y-99.262
X25.57 Y-99.118
X25.202 Y-73.407
G2 X25.299 Y-72.581 I3.165 J0.045
G1 X24.688 Y-36.89
G3 X19.598 Y-31.887 I-5.089 J-0.087
G1 X-21.826
G3 X-22.551 Y-31.939 I-0.001 J-5.09
G1 X-22.553 Y-31.969
X-22.558 Y-32.079
X-22.564 Y-32.189
X-22.568 Y-32.298
X-22.572 Y-32.409
X-22.575 Y-32.521
X-22.577 Y-32.626
X-23.529 Y-99.117
X-23.527 Y-99.262
X-23.52 Y-99.364
X-23.508 Y-99.465
X-23.491 Y-99.566
X-23.468 Y-99.665
X-23.44 Y-99.763
X-23.407 Y-99.859
X-23.368 Y-99.954
X-23.324 Y-100.047
X-23.276 Y-100.137
X-23.223 Y-100.225
X-23.165 Y-100.31
X-23.105 Y-100.388
X-23.039 Y-100.465
X-22.966 Y-100.542
X-22.893 Y-100.611
X-22.814 Y-100.678
X-22.733 Y-100.741
X-22.653 Y-100.795
X-22.565 Y-100.848
X-22.469 Y-100.9
X-22.379 Y-100.942
X-22.289 Y-100.978
X-22.185 Y-101.014
X-22.088 Y-101.042
X-21.994 Y-101.063
X-21.891 Y-101.081
X-21.746 Y-101.098
G3 X1.021 Y-102.133 I22.767 J249.8
X1.654 Y-101.5 I0 J0.633 F500
G1 Y-100.867
G19 G3 Y-100.234 Z-18.417 J0 K0.633
G1 Z6 F700
X32.457 Y-237.805
Z-4.367 F166.7
G18 G2 X33.09 Z-5 I0.633 K0 F500
G1 X33.723
G17 G3 X34.356 Y-237.172 I0 J0.633
G1 Y-226.522 F700
G3 X30.171 Y-222.337 I-4.185 J0
G1 X-28.129
G3 X-32.314 Y-226.522 I0 J-4.185
G1 Y-247.822
G3 X-28.129 Y-252.007 I4.185 J0
G1 X30.171
G3 X34.356 Y-247.822 I0 J4.185
G1 Y-237.172
G3 X33.723 Y-236.539 I-0.633 J0 F500
G1 X33.09
G18 G3 X32.457 Z-4.367 I0 K0.633
G1 Z5 F700
Y-237.805
Z1 F166.7
Z-9.367
G2 X33.09 Z-10 I0.633 K0 F500
G1 X33.723
G17 G3 X34.356 Y-237.172 I0 J0.633
G1 Y-226.522 F700
G3 X30.171 Y-222.337 I-4.185 J0
G1 X-28.129
G3 X-32.314 Y-226.522 I0 J-4.185
G1 Y-247.822
G3 X-28.129 Y-252.007 I4.185 J0
G1 X30.171
G3 X34.356 Y-247.822 I0 J4.185
G1 Y-237.172
G3 X33.723 Y-236.539 I-0.633 J0 F500
G1 X33.09
G18 G3 X32.457 Z-9.367 I0 K0.633
G1 Z5 F700
Y-237.805
Z-4 F166.7
Z-14.367
G2 X33.09 Z-15 I0.633 K0 F500
G1 X33.723
G17 G3 X34.356 Y-237.172 I0 J0.633
G1 Y-226.522 F700
G3 X30.171 Y-222.337 I-4.185 J0
G1 X-28.129
G3 X-32.314 Y-226.522 I0 J-4.185
G1 Y-247.822
G3 X-28.129 Y-252.007 I4.185 J0
G1 X30.171
G3 X34.356 Y-247.822 I0 J4.185
G1 Y-237.172
G3 X33.723 Y-236.539 I-0.633 J0 F500
G1 X33.09
G18 G3 X32.457 Z-14.367 I0 K0.633
G1 Z5 F700
Y-237.805
Z-9 F166.7
Z-18.417
G2 X33.09 Z-19.05 I0.633 K0 F500
G1 X33.723
G17 G3 X34.356 Y-237.172 I0 J0.633
G1 Y-226.522 F700
G3 X30.171 Y-222.337 I-4.185 J0
G1 X-28.129
G3 X-32.314 Y-226.522 I0 J-4.185
G1 Y-247.822
G3 X-28.129 Y-252.007 I4.185 J0
G1 X30.171
G3 X34.356 Y-247.822 I0 J4.185
G1 Y-237.172
G3 X33.723 Y-236.539 I-0.633 J0 F500
G1 X33.09
G18 G3 X32.457 Z-18.417 I0 K0.633
G1 Z10 F700
G17

(When using Fusion 360 for Personal Use, the feedrate of )
(rapid moves is reduced to match the feedrate of cutting )
(moves, which can increase machining time. Unrestricted )
(rapid moves are available with a Fusion 360 Subscription. )
M0
(pause for cleanup)
(Top Edges)
G0 X121.752 Y-198.235
G1 Z10 F720
Z5
Z2.7 F166.7
Z2.5
X121.858 Y-198.589 Z2.487
X122.251 Y-199.814 Z2.442
X122.665 Y-201.039 Z2.397
X123.103 Y-202.263 Z2.352
X123.563 Y-203.489 Z2.306
X124.044 Y-204.718 Z2.26
X124.547 Y-205.948 Z2.213
X125.07 Y-207.181 Z2.167
X125.612 Y-208.417 Z2.12
X126.174 Y-209.657 Z2.072
X126.754 Y-210.901 Z2.024
X127.352 Y-212.149 Z1.976
X127.967 Y-213.403 Z1.927
X128.599 Y-214.662 Z1.878
X129.241 Y-215.92 Z1.828
X130.579 Y-218.472 Z1.728
X131.965 Y-221.044 Z1.626
X133.394 Y-223.645 Z1.522
X136.358 Y-228.956 Z1.31
X139.398 Y-234.396 Z1.092
X139.407 Y-234.412 Z1.091
X140.936 Y-237.183 Z0.981
X140.947 Y-237.202 Z0.98
X142.473 Y-240.01 Z0.869
X142.485 Y-240.033 Z0.868
X144.002 Y-242.877 Z0.755
X144.018 Y-242.907 Z0.754
X145.519 Y-245.79 Z0.64
X145.536 Y-245.824 Z0.639
X147.015 Y-248.746 Z0.525
X147.029 Y-248.773 Z0.524
X147.759 Y-250.248 Z0.466
X147.769 Y-250.269 Z0.465
X148.492 Y-251.755 Z0.408
X148.502 Y-251.776 Z0.407
X149.216 Y-253.27 Z0.349
X149.226 Y-253.292 Z0.348
X149.932 Y-254.797 Z0.29
X149.942 Y-254.818 Z0.289
X150.639 Y-256.331 Z0.231
X150.651 Y-256.356 Z0.23
X151.338 Y-257.88 Z0.172
X151.349 Y-257.905 Z0.171
X152.025 Y-259.437 Z0.112
X152.035 Y-259.46
X152.701 Y-261.001 Z0.053
X152.712 Y-261.028 Z0.052
X153.366 Y-262.578 Z-0.007
X153.378 Y-262.605 Z-0.008
X154.02 Y-264.164 Z-0.067
X154.03 Y-264.19 Z-0.068
X154.66 Y-265.757 Z-0.127
X154.671 Y-265.785 Z-0.128
X155.288 Y-267.36 Z-0.187
X155.299 Y-267.388 Z-0.188
X155.903 Y-268.972 Z-0.247
X155.914 Y-269 Z-0.248
X156.504 Y-270.59 Z-0.307
X156.515 Y-270.621 Z-0.308
X157.091 Y-272.22 Z-0.368
X157.102 Y-272.25 Z-0.369
X157.663 Y-273.855 Z-0.428
X157.673 Y-273.885 Z-0.429
X158.219 Y-275.497 Z-0.489
X158.229 Y-275.528 Z-0.49
X158.76 Y-277.147 Z-0.55
X158.77 Y-277.177 Z-0.551
X159.286 Y-278.801 Z-0.61
X159.297 Y-278.836 Z-0.611
X159.796 Y-280.467 Z-0.671
X159.805 Y-280.498 Z-0.672
X160.288 Y-282.133 Z-0.732
X160.298 Y-282.165 Z-0.733
X160.764 Y-283.806 Z-0.792
X160.774 Y-283.841 Z-0.794
X161.223 Y-285.487 Z-0.853
X161.232 Y-285.518 Z-0.854
X161.665 Y-287.167 Z-0.914
X161.674 Y-287.203 Z-0.915
X162.089 Y-288.857 Z-0.975
X162.097 Y-288.892 Z-0.976
X162.494 Y-290.549 Z-1.035
X162.502 Y-290.582 Z-1.037
X162.882 Y-292.242 Z-1.096
X162.89 Y-292.279 Z-1.097
X163.251 Y-293.941 Z-1.157
X163.258 Y-293.974 Z-1.158
X163.602 Y-295.639 Z-1.217
X163.61 Y-295.676 Z-1.219
X163.935 Y-297.342 Z-1.278
X163.942 Y-297.379 Z-1.279
X164.248 Y-299.047 Z-1.339
X164.254 Y-299.084 Z-1.34
X164.541 Y-300.753 Z-1.399
X164.547 Y-300.788 Z-1.4
X164.816 Y-302.457 Z-1.459
X164.822 Y-302.494 Z-1.461
X165.072 Y-304.163 Z-1.519
X165.077 Y-304.201 Z-1.521
X165.307 Y-305.869 Z-1.58
X165.312 Y-305.907 Z-1.581
X165.523 Y-307.575 Z-1.64
X165.528 Y-307.61 Z-1.641
X165.721 Y-309.276 Z-1.699
X165.722 Y-309.29 Z-1.7
X165.725 Y-309.317 F720
X165.897 Y-310.982
X165.901 Y-311.02
X166.054 Y-312.682
X166.057 Y-312.719
X166.191 Y-314.379
X166.194 Y-314.417
X166.309 Y-316.073
X166.312 Y-316.115
X166.406 Y-317.768
X166.407 Y-317.804
X166.483 Y-319.452
X166.485 Y-319.493
X166.541 Y-321.138
X166.542 Y-321.178
X166.578 Y-322.817
X166.579 Y-322.856
X166.596 Y-324.49
Y-324.531
X166.593 Y-326.16
Y-326.2
X166.571 Y-327.822
X166.57 Y-327.861
X166.529 Y-329.477
X166.528 Y-329.52
X166.467 Y-331.128
X166.465 Y-331.166
X166.386 Y-332.768
X166.384 Y-332.811
X166.285 Y-334.405
X166.282 Y-334.446
X166.164 Y-336.032
X166.161 Y-336.071
X166.025 Y-337.648
X166.021 Y-337.69
X165.866 Y-339.259
X165.861 Y-339.301
X165.687 Y-340.86
X165.682 Y-340.903
X165.489 Y-342.454
X165.484 Y-342.493
X165.274 Y-344.033
X165.268 Y-344.076
X165.039 Y-345.607
X165.032 Y-345.649
X164.785 Y-347.169
X164.778 Y-347.211
X164.513 Y-348.721
X164.506 Y-348.761
X164.224 Y-350.26
X164.216 Y-350.303
X163.916 Y-351.791
X163.907 Y-351.833
X163.59 Y-353.309
X163.58 Y-353.352
X163.245 Y-354.817
X163.236 Y-354.857
X162.885 Y-356.311
X162.874 Y-356.354
X162.506 Y-357.795
X162.495 Y-357.837
X162.11 Y-359.266
X162.099 Y-359.308
X161.698 Y-360.724
X161.686 Y-360.765
X161.269 Y-362.169
X161.256 Y-362.211
X160.823 Y-363.602
X160.809 Y-363.645
X160.36 Y-365.022
X160.346 Y-365.065
X159.881 Y-366.43
X159.867 Y-366.471
X159.387 Y-367.823
X159.371 Y-367.867
X158.875 Y-369.205
X158.86 Y-369.245
X158.35 Y-370.569
X158.333 Y-370.612
X157.807 Y-371.923
X157.791 Y-371.963
X157.251 Y-373.26
X157.232 Y-373.304
X156.677 Y-374.586
X156.659 Y-374.626
X156.09 Y-375.895
X156.071 Y-375.937
X155.488 Y-377.191
X155.468 Y-377.234
X154.87 Y-378.474
X154.85 Y-378.515
X154.238 Y-379.741
X154.217 Y-379.781
X153.592 Y-380.992
X153.57 Y-381.035
X152.931 Y-382.231
X152.908 Y-382.272
X152.255 Y-383.454
X152.233 Y-383.495
X151.567 Y-384.662
X151.542 Y-384.705
X150.862 Y-385.857
X150.838 Y-385.896
X150.145 Y-387.034
X150.119 Y-387.076
X149.413 Y-388.198
X149.386 Y-388.241
X148.666 Y-389.348
X148.64 Y-389.387
X147.908 Y-390.479
X147.88 Y-390.52
X147.134 Y-391.598
X147.105 Y-391.64
X146.346 Y-392.702
X146.316 Y-392.742
X145.544 Y-393.789
X145.514 Y-393.829
X144.729 Y-394.861
X144.697 Y-394.902
X143.899 Y-395.919
X143.869 Y-395.957
X143.058 Y-396.959
X143.023 Y-397.001
X142.198 Y-397.987
X142.166 Y-398.025
X141.328 Y-398.997
X141.292 Y-399.037
X140.441 Y-399.993
X140.405 Y-400.033
X139.54 Y-400.974
X139.504 Y-401.014
X138.626 Y-401.939
X138.589 Y-401.976
X137.697 Y-402.887
X137.658 Y-402.927
X136.752 Y-403.822
X136.714 Y-403.858
X135.794 Y-404.739
X135.752 Y-404.779
X134.817 Y-405.644
X134.777 Y-405.681
X133.828 Y-406.531
X133.787 Y-406.566
X132.824 Y-407.401
X132.782 Y-407.437
X131.803 Y-408.258
X131.76 Y-408.294
X130.767 Y-409.099
X130.722 Y-409.135
X129.713 Y-409.924
X129.67 Y-409.958
X128.645 Y-410.734
X128.6 Y-410.768
X127.559 Y-411.529
X127.515 Y-411.56
X126.459 Y-412.306
X126.412 Y-412.339
X125.339 Y-413.07
X125.294 Y-413.1
X124.205 Y-413.817
X124.158 Y-413.847
X123.052 Y-414.549
X123.007 Y-414.577
X121.884 Y-415.265
X121.837 Y-415.294
X120.697 Y-415.967
X120.651 Y-415.993
X119.494 Y-416.652
X119.448 Y-416.678
X118.273 Y-417.323
X118.226 Y-417.348
X117.034 Y-417.978
X116.991 Y-418.001
X115.781 Y-418.618
X115.735 Y-418.641
X114.507 Y-419.243
X114.46 Y-419.266
X113.214 Y-419.854
X113.171 Y-419.874
X111.907 Y-420.449
X111.863 Y-420.469
X110.581 Y-421.03
X110.538 Y-421.048
X109.237 Y-421.596
X109.195 Y-421.614
X107.877 Y-422.148
X107.835 Y-422.164
X106.498 Y-422.685
X106.455 Y-422.702
X105.1 Y-423.209
X105.06 Y-423.223
X103.687 Y-423.717
X103.65 Y-423.731
X102.259 Y-424.213
X102.218 Y-424.226
X100.809 Y-424.694
X100.773 Y-424.706
X99.346 Y-425.162
X99.309 Y-425.174
X97.865 Y-425.617
X97.83 Y-425.628
X96.368 Y-426.059
X96.332 Y-426.069
X94.854 Y-426.487
X94.82 Y-426.496
X93.326 Y-426.902
X93.293 Y-426.911
X91.782 Y-427.305
X91.75 Y-427.313
X90.223 Y-427.695
X90.191 Y-427.703
X88.649 Y-428.073
X88.62 Y-428.08
X87.063 Y-428.439
X87.033 Y-428.446
X85.461 Y-428.793
X85.434 Y-428.799
X83.849 Y-429.135
X83.821 Y-429.14
X82.224 Y-429.465
X82.195 Y-429.471
X80.585 Y-429.784
X80.561 Y-429.789
X78.939 Y-430.092
X78.915 Y-430.096
X77.283 Y-430.389
X77.258 Y-430.393
X75.616 Y-430.675
X75.591 Y-430.68
X73.941 Y-430.951
X73.92 Y-430.954
X72.262 Y-431.216
X72.238 Y-431.219
X70.573 Y-431.47
X70.554 Y-431.473
X68.882 Y-431.715
X68.862 Y-431.718
X67.186 Y-431.95
X67.158 Y-431.954
X63.798 Y-432.391
X63.761 Y-432.395
X60.397 Y-432.795
X60.365 Y-432.799
X57.006 Y-433.166
X56.974 Y-433.169
X53.63 Y-433.502
X53.601 Y-433.505
X50.282 Y-433.807
X50.255 Y-433.809
X46.969 Y-434.082
X46.943 Y-434.085
X43.7 Y-434.329
X43.677 Y-434.33
X40.484 Y-434.548
X40.462 Y-434.55
X37.328 Y-434.743
X37.307 Y-434.744
X34.238 Y-434.914
X34.218 Y-434.915
X31.218 Y-435.063
X31.199 Y-435.064
X28.273 Y-435.192
X28.254 Y-435.193
X25.402 Y-435.302
X25.384
X22.607 Y-435.393
X22.591 Y-435.394
X19.888 Y-435.47
X19.873
X17.24 Y-435.532
X17.224
X14.658 Y-435.58
X14.644 Y-435.581
X12.138 Y-435.618
X12.122
X9.665 Y-435.643
X9.649
X4.823 Y-435.668
X4.802
X-0.043 Y-435.663
X-0.058
X-5.094 Y-435.635
X-5.106
X-10.462 Y-435.586
X-10.476
X-16.21 Y-435.509
X-16.229 Y-435.508
X-22.325 Y-435.392
X-22.344
X-25.507 Y-435.314
X-25.523
X-28.745 Y-435.22
X-28.762 Y-435.219
X-32.028 Y-435.107
X-32.048 Y-435.106
X-35.342 Y-434.973
X-35.367 Y-434.972
X-38.671 Y-434.814
X-38.699 Y-434.813
X-41.996 Y-434.628
X-42.027 Y-434.626
X-45.301 Y-434.412
X-45.338 Y-434.409
X-48.572 Y-434.162
X-48.601 Y-434.16
X-50.199 Y-434.024
X-50.223 Y-434.022
X-51.805 Y-433.876
X-51.827 Y-433.874
X-53.393 Y-433.719
X-53.418 Y-433.716
X-54.965 Y-433.551
X-54.991 Y-433.548
X-56.519 Y-433.373
X-56.548 Y-433.37
X-58.055 Y-433.184
X-58.083 Y-433.18
X-59.568 Y-432.984
X-59.599 Y-432.98
X-61.063 Y-432.773
X-61.097 Y-432.768
X-62.538 Y-432.549
X-62.571 Y-432.544
X-63.99 Y-432.314
X-64.024 Y-432.308
X-65.42 Y-432.067
X-65.457 Y-432.06
X-66.832 Y-431.807
X-66.872 Y-431.8
X-68.226 Y-431.534
X-68.261 Y-431.527
X-69.595 Y-431.25
X-69.636 Y-431.241
X-70.952 Y-430.951
X-70.989 Y-430.943
X-72.289 Y-430.641
X-72.328 Y-430.631
X-73.614 Y-430.316
X-73.65 Y-430.307
X-74.923 Y-429.98
X-74.96 Y-429.971
X-76.224 Y-429.631
X-76.259 Y-429.621
X-77.517 Y-429.268
X-77.55 Y-429.258
X-78.805 Y-428.892
X-78.834 Y-428.884
X-80.088 Y-428.506
X-80.119 Y-428.497
X-81.376 Y-428.104
X-81.402 Y-428.096
X-82.665 Y-427.691
X-82.703 Y-427.679
X-85.257 Y-426.827
X-85.3 Y-426.812
X-87.906 Y-425.903
X-87.949 Y-425.888
X-90.618 Y-424.916
X-90.649 Y-424.904
X-92.01 Y-424.393
X-92.032 Y-424.385
X-93.412 Y-423.856
X-93.433 Y-423.848
X-94.831 Y-423.301
X-94.855 Y-423.291
X-96.272 Y-422.724
X-96.295 Y-422.715
X-97.731 Y-422.128
X-97.755 Y-422.118
X-99.209 Y-421.51
X-99.235 Y-421.499
X-100.707 Y-420.869
X-100.735 Y-420.857
X-102.224 Y-420.204
X-102.251 Y-420.192
X-103.759 Y-419.515
X-103.79 Y-419.501
X-105.313 Y-418.799
X-105.343 Y-418.785
X-106.882 Y-418.057
X-106.914 Y-418.041
X-108.467 Y-417.286
X-108.5 Y-417.27
X-110.067 Y-416.487
X-110.101 Y-416.47
X-111.679 Y-415.659
X-111.715 Y-415.64
X-113.304 Y-414.799
X-113.342 Y-414.779
X-114.94 Y-413.907
X-114.977 Y-413.886
X-116.583 Y-412.983
X-116.624 Y-412.96
X-118.235 Y-412.024
X-118.278 Y-411.999
X-119.893 Y-411.029
X-119.934 Y-411.004
X-121.551 Y-410.001
X-121.597 Y-409.971
X-123.213 Y-408.932
X-123.258 Y-408.903
X-124.872 Y-407.828
X-124.919 Y-407.796
X-126.529 Y-406.684
X-126.577 Y-406.651
X-128.181 Y-405.502
X-128.231 Y-405.465
X-129.825 Y-404.278
X-129.875 Y-404.24
X-131.459 Y-403.014
X-131.51 Y-402.973
X-133.081 Y-401.707
X-133.12 Y-401.676
X-133.899 Y-401.029
X-133.925 Y-401.007
X-134.701 Y-400.349
X-134.727 Y-400.327
X-135.498 Y-399.66
X-135.526 Y-399.635
X-136.292 Y-398.957
X-136.315 Y-398.936
X-137.077 Y-398.249
X-137.107 Y-398.222
X-137.863 Y-397.524
X-137.888 Y-397.5
X-138.639 Y-396.792
X-138.668 Y-396.765
X-139.413 Y-396.046
X-139.438 Y-396.022
X-140.177 Y-395.294
X-140.206 Y-395.265
X-140.938 Y-394.526
X-140.963 Y-394.5
X-141.689 Y-393.751
X-141.716 Y-393.723
X-142.435 Y-392.964
X-142.463 Y-392.935
X-143.175 Y-392.165
X-143.202 Y-392.135
X-143.906 Y-391.355
X-143.931 Y-391.326
X-144.628 Y-390.536
X-144.658 Y-390.503
X-145.346 Y-389.702
X-145.37 Y-389.673
X-146.051 Y-388.862
X-146.078 Y-388.829
X-146.75 Y-388.008
X-146.778 Y-387.974
X-147.441 Y-387.142
X-147.465 Y-387.111
X-148.119 Y-386.27
X-148.146 Y-386.235
X-148.791 Y-385.383
X-148.816 Y-385.35
X-149.452 Y-384.488
X-149.478 Y-384.452
X-150.104 Y-383.58
X-150.129 Y-383.545
X-150.745 Y-382.663
X-150.769 Y-382.627
X-151.375 Y-381.735
X-151.4 Y-381.698
X-151.995 Y-380.797
X-152.019 Y-380.76
X-152.604 Y-379.848
X-152.628 Y-379.811
X-153.202 Y-378.89
X-153.225 Y-378.851
X-153.788 Y-377.92
X-153.811 Y-377.883
X-154.363 Y-376.943
X-154.385 Y-376.904
X-154.926 Y-375.954
X-154.948 Y-375.916
X-155.477 Y-374.958
X-155.499 Y-374.916
X-156.016 Y-373.948
X-156.036 Y-373.911
X-156.542 Y-372.934
X-156.563 Y-372.892
X-157.056 Y-371.907
X-157.075 Y-371.869
X-157.557 Y-370.875
X-157.577 Y-370.832
X-158.046 Y-369.829
X-158.065 Y-369.789
X-158.521 Y-368.779
X-158.539 Y-368.738
X-158.983 Y-367.719
X-158.999 Y-367.681
X-159.431 Y-366.655
X-159.45 Y-366.61
X-159.868 Y-365.576
X-159.883 Y-365.537
X-160.289 Y-364.495
X-160.305 Y-364.455
X-160.698 Y-363.407
X-160.713 Y-363.364
X-161.093 Y-362.308
X-161.108 Y-362.265
X-161.474 Y-361.203
X-161.487 Y-361.165
X-161.841 Y-360.096
X-161.855 Y-360.053
X-162.195 Y-358.978
X-162.208 Y-358.937
X-162.535 Y-357.856
X-162.547 Y-357.817
X-162.861 Y-356.731
X-162.872 Y-356.689
X-163.173 Y-355.596
X-163.184 Y-355.555
X-163.471 Y-354.458
X-163.482 Y-354.417
X-163.756 Y-353.314
X-163.766 Y-353.272
X-164.026 Y-352.165
X-164.035 Y-352.126
X-164.282 Y-351.014
X-164.29 Y-350.975
X-164.524 Y-349.859
X-164.532 Y-349.819
X-164.753 Y-348.698
X-164.761 Y-348.657
X-164.968 Y-347.534
X-164.975 Y-347.497
X-165.17 Y-346.369
X-165.177 Y-346.328
X-165.358 Y-345.198
X-165.364 Y-345.159
X-165.532 Y-344.025
X-165.537 Y-343.987
X-165.692 Y-342.851
X-165.697 Y-342.812
X-165.839 Y-341.673
X-165.844 Y-341.635
X-165.973 Y-340.494
X-165.977 Y-340.456
X-166.093 Y-339.314
X-166.096 Y-339.278
X-166.2 Y-338.133
X-166.203 Y-338.095
X-166.294 Y-336.949
X-166.297 Y-336.914
X-166.376 Y-335.767
X-166.378 Y-335.729
X-166.444 Y-334.58
X-166.446 Y-334.542
X-166.499 Y-333.393
X-166.501 Y-333.361
X-166.543 Y-332.212
X-166.544 Y-332.174
X-166.573 Y-331.024
X-166.574 Y-330.992
X-166.592 Y-329.841
Y-329.803
X-166.597 Y-328.653
Y-328.62
X-166.591 Y-327.47
Y-327.435
X-166.573 Y-326.286
X-166.572 Y-326.254
X-166.543 Y-325.105
X-166.542 Y-325.07
X-166.501 Y-323.922
X-166.5 Y-323.889
X-166.448 Y-322.743
X-166.446 Y-322.711
X-166.383 Y-321.565
X-166.381 Y-321.533
X-166.307 Y-320.389
X-166.305 Y-320.359
X-166.221 Y-319.216
X-166.218 Y-319.181
X-166.122 Y-318.04
X-166.12 Y-318.013
X-166.015 Y-316.874
X-166.012 Y-316.841
X-165.896 Y-315.704
X-165.892 Y-315.674
X-165.766 Y-314.54
X-165.763 Y-314.511
X-165.627 Y-313.378
X-165.621 Y-313.333
X-165.319 Y-311.077
X-165.311 Y-311.022
X-164.973 Y-308.777
X-164.964 Y-308.72
X-164.589 Y-306.488
X-164.58 Y-306.434
X-164.17 Y-304.216
X-164.16 Y-304.165
X-163.717 Y-301.962
X-163.707 Y-301.912
X-163.233 Y-299.726
X-163.221 Y-299.676
X-162.716 Y-297.507
X-162.705 Y-297.461
X-162.172 Y-295.31
X-162.161 Y-295.266
X-161.602 Y-293.134
X-161.59 Y-293.088
X-161.005 Y-290.977
X-160.993 Y-290.936
X-160.385 Y-288.846
X-160.373 Y-288.805
X-159.743 Y-286.737
X-159.731 Y-286.699
X-159.081 Y-284.653
X-159.069 Y-284.617
X-158.401 Y-282.594
X-158.389 Y-282.558
X-157.704 Y-280.56
X-157.692 Y-280.525
X-156.991 Y-278.551
X-156.98 Y-278.52
X-156.266 Y-276.57
X-156.255 Y-276.54
X-155.53 Y-274.617
X-155.518 Y-274.586
X-154.781 Y-272.688
X-154.771 Y-272.663
X-154.027 Y-270.791
X-154.016 Y-270.762
X-153.263 Y-268.917
X-153.253 Y-268.894
X-152.495 Y-267.076
X-152.485 Y-267.054
X-151.723 Y-265.263
X-151.714 Y-265.241
X-150.949 Y-263.477
X-150.94 Y-263.457
X-150.173 Y-261.72
X-150.166 Y-261.703
X-149.4 Y-259.994
X-149.388 Y-259.968
X-147.859 Y-256.632
X-147.846 Y-256.604
X-146.331 Y-253.376
X-146.32 Y-253.354
X-144.827 Y-250.234
X-144.82 Y-250.218
X-143.358 Y-247.203
X-143.352 Y-247.19
X-141.925 Y-244.278
X-141.922 Y-244.272
X-139.196 Y-238.736
X-136.649 Y-233.552
X-134.27 Y-228.659
X-132.02 Y-223.981
X-129.849 Y-219.444
X-127.734 Y-214.993
X-126.701 Y-212.794
X-125.686 Y-210.604
X-124.695 Y-208.424
X-123.732 Y-206.25
X-122.801 Y-204.081
X-121.906 Y-201.908
X-121.479 Y-200.833
X-121.062 Y-199.752
X-120.656 Y-198.672
X-120.265 Y-197.593
X-119.886 Y-196.513
X-119.523 Y-195.436
X-119.177 Y-194.359
X-118.846 Y-193.283
X-118.533 Y-192.208
X-118.236 Y-191.132
X-117.959 Y-190.059
X-117.702 Y-188.987
X-117.463 Y-187.914
X-117.244 Y-186.842
X-117.047 Y-185.771
X-116.869 Y-184.701
X-116.714 Y-183.631
X-116.58 Y-182.562
X-116.468 Y-181.493
X-116.379 Y-180.423
X-116.312 Y-179.354
X-116.268 Y-178.282
X-116.245 Y-177.209
Y-176.138
X-116.268 Y-175.063
X-116.314 Y-173.985
X-116.381 Y-172.906
X-116.471 Y-171.825
X-116.583 Y-170.742
X-116.717 Y-169.654
X-116.872 Y-168.562
X-117.048 Y-167.468
X-117.246 Y-166.372
X-117.463 Y-165.271
X-117.702 Y-164.166
X-117.96 Y-163.056
X-118.237 Y-161.941
X-118.533 Y-160.821
X-118.845 Y-159.699
X-119.177 Y-158.571
X-119.524 Y-157.438
X-119.889 Y-156.3
X-120.267 Y-155.157
X-120.661 Y-154.011
X-121.069 Y-152.857
X-121.489 Y-151.705
X-122.369 Y-149.366
X-123.29 Y-147.014
X-124.247 Y-144.641
X-125.232 Y-142.245
X-126.239 Y-139.83
X-128.288 Y-134.939
X-128.292 Y-134.93
X-129.318 Y-132.463
X-129.324 Y-132.448
X-130.342 Y-129.967
X-130.35 Y-129.947
X-131.355 Y-127.452
X-131.366 Y-127.426
X-132.352 Y-124.918
X-132.364 Y-124.887
X-133.326 Y-122.366
X-133.339 Y-122.33
X-134.273 Y-119.797
X-134.288 Y-119.756
X-135.189 Y-117.212
X-135.205 Y-117.167
X-136.069 Y-114.612
X-136.08 Y-114.576
X-136.497 Y-113.296
X-136.505 Y-113.271
X-136.912 Y-111.988
X-136.922 Y-111.959
X-137.317 Y-110.673
X-137.324 Y-110.648
X-137.708 Y-109.362
X-137.716 Y-109.334
X-138.089 Y-108.045
X-138.098 Y-108.015
X-138.458 Y-106.725
X-138.467 Y-106.693
X-138.814 Y-105.402
X-138.821 Y-105.373
X-139.156 Y-104.08
X-139.165 Y-104.047
X-139.486 Y-102.754
X-139.494 Y-102.722
X-139.802 Y-101.428
X-139.809 Y-101.394
X-140.103 Y-100.099
X-140.111 Y-100.065
X-140.391 Y-98.771
X-140.399 Y-98.734
X-140.664 Y-97.439
X-140.671 Y-97.403
X-140.921 Y-96.108
X-140.927 Y-96.074
X-141.163 Y-94.78
X-141.171 Y-94.738
X-141.39 Y-93.445
X-141.395 Y-93.411
X-141.6 Y-92.119
X-141.607 Y-92.076
X-141.795 Y-90.786
X-141.8 Y-90.748
X-141.973 Y-89.459
X-141.979 Y-89.416
X-142.135 Y-88.129
X-142.139 Y-88.086
X-142.278 Y-86.802
X-142.283 Y-86.761
X-142.406 Y-85.479
X-142.41 Y-85.435
X-142.516 Y-84.156
X-142.519 Y-84.112
X-142.608 Y-82.836
X-142.611 Y-82.79
